StarTouch-dhu/lerobot_startouch/startouch_py/trajectory1.csv
t,q1,q2,q3,q4,q5,q6,dq1,dq2,dq3,dq4,dq5,dq6
0.003751,-0.007820249,0.107003891,-0.001716640,-0.008583200,-0.052834363,-0.037575341,-0.001953602,-0.001953602,-0.001953602,-0.007326007,-0.007326007,-0.021978022
0.009032,-0.007820249,0.107003891,-0.001716640,-0.008583200,-0.052834363,-0.037575341,-0.001953602,-0.001953602,-0.001953602,-0.007326007,-0.007326007,-0.007326007
0.015064,-0.007820249,0.107003891,-0.001716640,-0.008583200,-0.052834363,-0.037575341,-0.001953602,-0.001953602,-0.001953602,0.007326007,-0.021978022,-0.007326007
0.020505,-0.007820249,0.107003891,-0.001716640,-0.008583200,-0.052834363,-0.037575341,0.001953602,-0.001953602,-0.001953602,-0.007326007,-0.021978022,0.007326007
0.025843,-0.007820249,0.107003891,-0.001716640,-0.008583200,-0.052834363,-0.037575341,-0.001953602,-0.001953602,-0.001953602,-0.007326007,-0.007326007,0.007326007
0.031702,-0.007820249,0.107003891,-0.001716640,-0.008583200,-0.052834363,-0.037575341,-0.001953602,-0.001953602,-0.001953602,0.007326007,-0.007326007,-0.036630037
0.037063,-0.007820249,0.107003891,-0.001716640,-0.008583200,-0.052834363,-0.037575341,-0.001953602,-0.001953602,-0.001953602,-0.007326007,-0.021978022,-0.007326007
0.043150,-0.007820249,0.107003891,-0.001716640,-0.008583200,-0.052834363,-0.037575341,-0.001953602,-0.001953602,-0.001953602,-0.007326007,-0.007326007,-0.021978022
0.048514,-0.007820249,0.107003891,-0.001716640,-0.008583200,-0.052834363,-0.037575341,-0.001953602,-0.001953602,-0.001953602,-0.007326007,-0.007326007,-0.021978022
0.054197,-0.007820249,0.107003891,-0.001716640,-0.008583200,-0.052834363,-0.037575341,-0.001953602,-0.005860806,-0.001953602,-0.021978022,-0.021978022,-0.007326007
0.059752,-0.007820249,0.107003891,-0.001716640,-0.008583200,-0.052834363,-0.037575341,-0.001953602,-0.001953602,-0.001953602,-0.007326007,-0.007326007,-0.007326007
0.065839,-0.007820249,0.107003891,-0.001716640,-0.008583200,-0.052834363,-0.037575341,-0.001953602,-0.001953602,-0.001953602,-0.007326007,0.007326007,-0.007326007
0.071290,-0.007820249,0.107003891,-0.001716640,-0.008583200,-0.052834363,-0.037575341,-0.001953602,-0.005860806,0.001953602,-0.021978022,-0.021978022,-0.021978022
0.077483,-0.007820249,0.107003891,-0.001716640,-0.008583200,-0.052834363,-0.037575341,-0.001953602,-0.001953602,-0.001953602,0.007326007,-0.007326007,-0.007326007
0.082785,-0.007820249,0.107003891,-0.001716640,-0.008583200,-0.052834363,-0.037575341,-0.005860806,-0.001953602,-0.005860806,-0.007326007,-0.007326007,-0.021978022
0.088126,-0.007820249,0.107003891,-0.001716640,-0.008583200,-0.052834363,-0.037575341,-0.001953602,-0.005860806,0.001953602,-0.007326007,-0.021978022,-0.007326007
0.094260,-0.007820249,0.107003891,-0.001716640,-0.008583200,-0.052834363,-0.037575341,-0.001953602,-0.001953602,-0.001953602,-0.007326007,-0.007326007,-0.021978022
0.099634,-0.007820249,0.107003891,-0.001716640,-0.008583200,-0.052834363,-0.037575341,-0.001953602,-0.001953602,-0.001953602,-0.007326007,0.007326007,-0.007326007
0.105718,-0.007820249,0.107003891,-0.001716640,-0.008583200,-0.052834363,-0.037575341,0.001953602,-0.001953602,-0.001953602,-0.021978022,-0.007326007,0.007326007
0.110999,-0.007820249,0.107003891,-0.001716640,-0.008583200,-0.052834363,-0.037575341,-0.005860806,-0.001953602,-0.001953602,-0.007326007,-0.007326007,-0.007326007
0.116578,-0.007820249,0.107003891,-0.001716640,-0.008583200,-0.052834363,-0.037575341,0.001953602,-0.001953602,-0.001953602,-0.007326007,0.007326007,-0.007326007
0.121928,-0.007820249,0.107003891,-0.001716640,-0.008583200,-0.052834363,-0.037575341,-0.001953602,-0.001953602,-0.001953602,-0.021978022,-0.007326007,-0.007326007
0.127242,-0.007820249,0.107003891,-0.001716640,-0.008583200,-0.053215839,-0.037575341,-0.001953602,0.001953602,0.001953602,-0.021978022,-0.021978022,-0.007326007
0.132953,-0.007820249,0.107003891,-0.001716640,-0.008583200,-0.052834363,-0.037575341,-0.001953602,-0.001953602,-0.001953602,-0.007326007,-0.021978022,0.021978022
0.138316,-0.007820249,0.107003891,-0.001716640,-0.008583200,-0.052834363,-0.037575341,-0.001953602,0.001953602,-0.001953602,-0.021978022,-0.021978022,-0.007326007
0.143815,-0.007820249,0.107003891,-0.001716640,-0.008583200,-0.052834363,-0.037575341,0.001953602,-0.001953602,-0.005860806,-0.007326007,-0.021978022,-0.007326007
0.149104,-0.007820249,0.107003891,-0.001716640,-0.008583200,-0.052834363,-0.037575341,-0.001953602,-0.001953602,-0.001953602,-0.021978022,-0.007326007,-0.021978022
0.154451,-0.007820249,0.107003891,-0.001716640,-0.008583200,-0.052834363,-0.037575341,-0.001953602,-0.001953602,-0.001953602,-0.007326007,0.007326007,-0.007326007
0.160203,-0.007820249,0.107003891,-0.001716640,-0.008583200,-0.052834363,-0.037575341,-0.001953602,-0.001953602,0.001953602,-0.007326007,0.007326007,-0.007326007
0.165570,-0.007820249,0.107003891,-0.001716640,-0.008583200,-0.052834363,-0.037575341,-0.001953602,-0.001953602,-0.005860806,-0.021978022,0.007326007,0.007326007
0.171218,-0.007820249,0.107003891,-0.001716640,-0.008583200,-0.052834363,-0.037575341,-0.001953602,-0.005860806,-0.001953602,-0.007326007,-0.021978022,-0.021978022
0.176623,-0.007820249,0.107003891,-0.001716640,-0.008583200,-0.052834363,-0.037575341,-0.001953602,-0.001953602,-0.001953602,0.007326007,0.007326007,-0.007326007
0.181993,-0.007820249,0.107003891,-0.001716640,-0.008583200,-0.052834363,-0.037575341,-0.001953602,-0.001953602,-0.001953602,-0.007326007,-0.007326007,0.007326007
0.187631,-0.007820249,0.107003891,-0.001716640,-0.008583200,-0.052834363,-0.037575341,-0.001953602,-0.005860806,-0.001953602,-0.007326007,-0.007326007,-0.007326007
0.193411,-0.007820249,0.107003891,-0.001716640,-0.008583200,-0.052834363,-0.037575341,0.001953602,-0.001953602,-0.001953602,-0.007326007,-0.007326007,-0.007326007
0.199244,-0.007820249,0.107003891,-0.001716640,-0.008583200,-0.052834363,-0.037575341,-0.001953602,-0.001953602,-0.001953602,-0.007326007,0.007326007,-0.021978022
0.204588,-0.007820249,0.107003891,-0.001716640,-0.008583200,-0.052834363,-0.037575341,-0.001953602,-0.001953602,-0.001953602,-0.007326007,-0.021978022,-0.021978022
0.210288,-0.007820249,0.107003891,-0.001716640,-0.008583200,-0.052834363,-0.037575341,-0.001953602,-0.001953602,-0.001953602,-0.007326007,0.007326007,-0.007326007
0.215644,-0.007820249,0.107003891,-0.001716640,-0.008583200,-0.052834363,-0.037575341,-0.001953602,-0.001953602,-0.005860806,-0.021978022,-0.021978022,0.007326007
0.221103,-0.007820249,0.107003891,-0.001716640,-0.008583200,-0.052834363,-0.037575341,-0.001953602,-0.001953602,-0.001953602,-0.021978022,-0.021978022,-0.007326007
0.226833,-0.007820249,0.107003891,-0.001716640,-0.008583200,-0.052834363,-0.037575341,-0.001953602,-0.001953602,-0.005860806,-0.007326007,-0.007326007,-0.007326007
0.232323,-0.007820249,0.107003891,-0.001716640,-0.008583200,-0.052834363,-0.037575341,-0.001953602,-0.001953602,-0.005860806,-0.007326007,-0.007326007,-0.007326007
0.238324,-0.007820249,0.107003891,-0.001716640,-0.008583200,-0.052834363,-0.037575341,-0.001953602,-0.001953602,-0.001953602,-0.007326007,-0.007326007,-0.007326007
0.243665,-0.007820249,0.107003891,-0.001716640,-0.008583200,-0.052834363,-0.037575341,-0.001953602,-0.001953602,-0.005860806,-0.021978022,-0.007326007,-0.007326007
0.249187,-0.007820249,0.107003891,-0.001716640,-0.008583200,-0.052834363,-0.037575341,-0.001953602,-0.001953602,-0.001953602,-0.021978022,-0.007326007,-0.021978022
0.254534,-0.007820249,0.107003891,-0.001716640,-0.008583200,-0.052834363,-0.037575341,-0.001953602,-0.001953602,-0.001953602,-0.007326007,-0.021978022,-0.021978022
0.260009,-0.007820249,0.107003891,-0.001716640,-0.008583200,-0.052834363,-0.037575341,-0.001953602,-0.001953602,-0.001953602,-0.007326007,-0.007326007,-0.007326007
0.265722,-0.007820249,0.107003891,-0.001716640,-0.008583200,-0.052834363,-0.037575341,-0.001953602,-0.001953602,-0.001953602,0.007326007,0.007326007,-0.021978022
0.271056,-0.007820249,0.107003891,-0.001716640,-0.008583200,-0.052834363,-0.037575341,-0.001953602,-0.001953602,0.001953602,-0.007326007,-0.007326007,-0.021978022
0.276621,-0.007820249,0.107003891,-0.001716640,-0.008583200,-0.053215839,-0.037575341,0.001953602,-0.001953602,-0.001953602,-0.007326007,-0.021978022,-0.007326007
0.282013,-0.007820249,0.107003891,-0.001716640,-0.008583200,-0.052834363,-0.037575341,-0.001953602,-0.001953602,-0.001953602,-0.021978022,-0.007326007,0.007326007
0.288275,-0.007820249,0.107003891,-0.001716640,-0.008583200,-0.052834363,-0.037575341,-0.001953602,-0.001953602,-0.001953602,-0.007326007,-0.007326007,-0.007326007
0.293754,-0.007820249,0.107003891,-0.001716640,-0.008583200,-0.052834363,-0.037575341,-0.001953602,-0.001953602,-0.001953602,0.007326007,-0.007326007,-0.021978022
0.299869,-0.007820249,0.107003891,-0.001716640,-0.008583200,-0.052834363,-0.037575341,-0.001953602,-0.001953602,-0.001953602,-0.007326007,-0.007326007,0.007326007
0.305267,-0.007820249,0.107003891,-0.001716640,-0.008583200,-0.052834363,-0.037575341,0.001953602,-0.001953602,-0.001953602,-0.021978022,-0.007326007,-0.007326007
0.310710,-0.007820249,0.107003891,-0.001716640,-0.008583200,-0.052834363,-0.037575341,-0.001953602,-0.001953602,-0.001953602,-0.007326007,-0.021978022,-0.021978022
0.316382,-0.007820249,0.107003891,-0.001716640,-0.008583200,-0.052834363,-0.037575341,-0.001953602,-0.001953602,-0.001953602,-0.007326007,-0.007326007,-0.007326007
0.321752,-0.007820249,0.107003891,-0.001716640,-0.008583200,-0.052834363,-0.037575341,-0.001953602,-0.001953602,0.001953602,-0.021978022,-0.007326007,-0.021978022
0.327379,-0.007820249,0.107003891,-0.001716640,-0.008583200,-0.052834363,-0.037575341,-0.001953602,-0.001953602,-0.005860806,0.007326007,-0.021978022,-0.007326007
0.332752,-0.007820249,0.107003891,-0.001716640,-0.008583200,-0.052834363,-0.037575341,-0.005860806,0.001953602,-0.005860806,-0.007326007,-0.007326007,-0.007326007
0.339050,-0.007820249,0.107003891,-0.001716640,-0.008583200,-0.052834363,-0.037575341,-0.001953602,-0.001953602,-0.001953602,-0.007326007,-0.036630037,-0.007326007
0.344450,-0.007820249,0.107003891,-0.001716640,-0.008583200,-0.052834363,-0.037575341,-0.001953602,-0.005860806,-0.001953602,-0.007326007,-0.007326007,-0.021978022
0.349797,-0.007820249,0.107003891,-0.001716640,-0.008583200,-0.052834363,-0.037575341,-0.001953602,-0.001953602,0.001953602,-0.007326007,-0.021978022,-0.007326007
0.355671,-0.007820249,0.107003891,-0.001716640,-0.008583200,-0.052834363,-0.037575341,-0.005860806,-0.001953602,-0.001953602,-0.021978022,-0.021978022,-0.007326007
0.361090,-0.007820249,0.107003891,-0.001716640,-0.008583200,-0.052834363,-0.037575341,-0.001953602,0.001953602,-0.001953602,-0.007326007,-0.021978022,0.007326007
0.367269,-0.007820249,0.107003891,-0.001716640,-0.008583200,-0.052834363,-0.037575341,0.001953602,-0.001953602,0.001953602,-0.021978022,-0.021978022,-0.007326007
0.372717,-0.007820249,0.107003891,-0.001716640,-0.008583200,-0.052834363,-0.037575341,-0.001953602,-0.001953602,-0.001953602,-0.007326007,-0.007326007,-0.007326007
0.378851,-0.007820249,0.107003891,-0.001716640,-0.008583200,-0.052834363,-0.037575341,-0.001953602,-0.001953602,-0.001953602,-0.021978022,0.007326007,-0.007326007
0.384226,-0.007820249,0.107003891,-0.001716640,-0.008583200,-0.052834363,-0.037575341,-0.001953602,-0.001953602,-0.001953602,-0.007326007,-0.007326007,-0.007326007
0.389855,-0.007820249,0.107003891,-0.001716640,-0.008583200,-0.052834363,-0.037575341,-0.005860806,-0.001953602,0.001953602,-0.021978022,-0.007326007,0.007326007
0.395267,-0.007820249,0.107003891,-0.001716640,-0.008583200,-0.052834363,-0.037575341,-0.001953602,-0.001953602,-0.005860806,-0.007326007,-0.007326007,-0.007326007
0.401494,-0.007820249,0.107003891,-0.001716640,-0.008583200,-0.052834363,-0.037575341,-0.001953602,-0.001953602,0.001953602,-0.007326007,-0.007326007,0.007326007
0.406750,-0.007820249,0.107003891,-0.001716640,-0.008583200,-0.052834363,-0.037575341,-0.005860806,-0.001953602,-0.001953602,0.007326007,-0.007326007,-0.007326007
0.412015,-0.007820249,0.107003891,-0.001716640,-0.008583200,-0.052834363,-0.037575341,-0.001953602,-0.001953602,-0.005860806,-0.007326007,0.007326007,-0.021978022
0.418105,-0.007820249,0.107003891,-0.001716640,-0.008583200,-0.052834363,-0.037575341,-0.001953602,-0.001953602,-0.005860806,-0.021978022,0.007326007,-0.007326007
0.423692,-0.007820249,0.107003891,-0.001716640,-0.008583200,-0.052834363,-0.037575341,-0.001953602,-0.005860806,0.001953602,-0.021978022,-0.021978022,0.007326007
0.429194,-0.007820249,0.107003891,-0.001716640,-0.008583200,-0.052834363,-0.037575341,-0.001953602,-0.005860806,-0.001953602,-0.007326007,-0.021978022,-0.007326007
0.435469,-0.007820249,0.107003891,-0.001716640,-0.008583200,-0.052834363,-0.037575341,-0.001953602,-0.001953602,-0.005860806,-0.007326007,-0.007326007,0.007326007
0.440849,-0.007820249,0.107003891,-0.001716640,-0.008583200,-0.052834363,-0.037575341,-0.001953602,-0.001953602,0.001953602,-0.007326007,-0.007326007,-0.007326007
0.446306,-0.007820249,0.107003891,-0.001716640,-0.008583200,-0.052834363,-0.037575341,-0.001953602,-0.001953602,-0.001953602,-0.007326007,0.007326007,-0.007326007
0.451741,-0.007820249,0.107003891,-0.001716640,-0.008583200,-0.052834363,-0.037575341,-0.001953602,-0.001953602,-0.001953602,-0.021978022,-0.021978022,-0.007326007
0.457262,-0.007820249,0.107003891,-0.001716640,-0.008583200,-0.052834363,-0.037575341,-0.001953602,-0.001953602,-0.005860806,-0.021978022,-0.021978022,-0.021978022
0.462526,-0.007820249,0.107003891,-0.001716640,-0.008583200,-0.052834363,-0.037575341,-0.001953602,-0.001953602,-0.005860806,-0.021978022,-0.021978022,-0.021978022
0.467978,-0.007820249,0.107003891,-0.001716640,-0.008583200,-0.052834363,-0.037575341,-0.001953602,-0.001953602,-0.005860806,-0.007326007,0.007326007,-0.007326007
0.473052,-0.007820249,0.107003891,-0.001716640,-0.008583200,-0.052834363,-0.037575341,-0.005860806,-0.001953602,-0.005860806,0.007326007,-0.007326007,-0.007326007
0.478771,-0.007820249,0.107003891,-0.001716640,-0.008583200,-0.052834363,-0.037575341,-0.005860806,-0.001953602,-0.005860806,0.007326007,-0.007326007,-0.007326007
0.483958,-0.007820249,0.107003891,-0.001716640,-0.008583200,-0.052834363,-0.037575341,-0.005860806,-0.001953602,-0.005860806,0.007326007,-0.007326007,-0.007326007
0.489538,-0.007820249,0.107003891,-0.001716640,-0.008583200,-0.052834363,-0.037575341,-0.001953602,-0.001953602,0.001953602,-0.021978022,-0.007326007,0.007326007
0.498039,-0.007820249,0.107003891,-0.001716640,-0.008583200,-0.052834363,-0.037575341,-0.001953602,-0.001953602,0.001953602,-0.021978022,-0.007326007,0.007326007
0.503357,-0.007820249,0.107003891,-0.001716640,-0.008583200,-0.052834363,-0.037575341,-0.005860806,0.001953602,-0.001953602,-0.007326007,-0.007326007,-0.021978022
0.511690,-0.007820249,0.107003891,-0.001716640,-0.008583200,-0.052834363,-0.037575341,-0.005860806,-0.001953602,0.001953602,-0.007326007,0.007326007,-0.007326007
0.518506,-0.007820249,0.107003891,-0.001716640,-0.008583200,-0.052834363,-0.037575341,-0.005860806,-0.001953602,0.001953602,-0.007326007,0.007326007,-0.007326007
0.523648,-0.007820249,0.107003891,-0.001716640,-0.008583200,-0.052834363,-0.037575341,-0.009768010,0.001953602,-0.001953602,-0.007326007,-0.007326007,0.007326007
0.529289,-0.008201724,0.107003891,-0.001716640,-0.008583200,-0.052834363,-0.037575341,-0.009768010,0.001953602,-0.001953602,-0.007326007,-0.007326007,0.007326007
0.535222,-0.008583200,0.107003891,-0.001716640,-0.008583200,-0.052834363,-0.037575341,-0.029304029,-0.001953602,0.001953602,-0.007326007,-0.007326007,-0.007326007
0.540269,-0.008583200,0.107003891,-0.001716640,-0.008583200,-0.052834363,-0.037575341,-0.029304029,-0.001953602,0.001953602,-0.007326007,-0.007326007,-0.007326007
0.549827,-0.009346151,0.107003891,-0.001716640,-0.008583200,-0.052834363,-0.037575341,-0.052747253,-0.001953602,-0.001953602,0.007326007,-0.007326007,0.007326007
0.554933,-0.009346151,0.107003891,-0.001716640,-0.008583200,-0.052834363,-0.037575341,-0.052747253,-0.001953602,-0.001953602,0.007326007,-0.007326007,0.007326007
0.560276,-0.009346151,0.107003891,-0.001716640,-0.008583200,-0.052834363,-0.037575341,-0.060561661,-0.001953602,-0.001953602,-0.007326007,-0.007326007,0.021978022
0.566492,-0.010490578,0.107003891,-0.001716640,-0.008583200,-0.052834363,-0.037575341,-0.060561661,-0.001953602,-0.001953602,-0.007326007,-0.007326007,0.021978022
0.571703,-0.010490578,0.107003891,-0.001716640,-0.008583200,-0.052834363,-0.037575341,-0.060561661,-0.001953602,-0.001953602,-0.007326007,-0.007326007,0.021978022
0.576905,-0.011253529,0.107003891,-0.001716640,-0.008583200,-0.052834363,-0.037575341,-0.064468864,-0.001953602,-0.005860806,0.007326007,-0.007326007,0.007326007
0.582864,-0.011253529,0.107003891,-0.001716640,-0.008583200,-0.052834363,-0.037575341,-0.064468864,-0.001953602,-0.005860806,0.007326007,-0.007326007,0.007326007
0.588056,-0.011253529,0.107003891,-0.001716640,-0.008583200,-0.052834363,-0.037575341,-0.064468864,-0.001953602,-0.005860806,0.007326007,-0.007326007,0.007326007
0.593246,-0.011253529,0.107003891,-0.001716640,-0.008583200,-0.052834363,-0.037575341,-0.084004884,-0.001953602,-0.001953602,-0.007326007,-0.021978022,0.007326007
0.599305,-0.013160906,0.107003891,-0.001716640,-0.008583200,-0.052834363,-0.037575341,-0.084004884,-0.001953602,-0.001953602,-0.007326007,-0.021978022,0.007326007
0.604493,-0.013160906,0.107003891,-0.001716640,-0.008583200,-0.052834363,-0.037575341,-0.084004884,-0.001953602,-0.001953602,-0.007326007,-0.021978022,0.007326007
0.610740,-0.015068284,0.107003891,-0.001716640,-0.008583200,-0.052834363,-0.037575341,-0.111355311,-0.001953602,-0.001953602,0.007326007,-0.007326007,-0.007326007
0.615840,-0.015068284,0.107003891,-0.001716640,-0.008583200,-0.052834363,-0.037575341,-0.111355311,-0.001953602,-0.001953602,0.007326007,-0.007326007,-0.007326007
0.621041,-0.015068284,0.107003891,-0.001716640,-0.008583200,-0.052834363,-0.037575341,-0.111355311,-0.001953602,-0.001953602,0.007326007,-0.007326007,-0.007326007
0.626946,-0.017738613,0.107003891,-0.001716640,-0.008583200,-0.052834363,-0.037575341,-0.107448107,-0.001953602,-0.001953602,-0.007326007,-0.007326007,-0.021978022
0.632112,-0.017738613,0.107003891,-0.001716640,-0.008583200,-0.052834363,-0.037575341,-0.107448107,-0.001953602,-0.001953602,-0.007326007,-0.007326007,-0.021978022
0.637280,-0.017738613,0.107003891,-0.001716640,-0.008583200,-0.052834363,-0.037575341,-0.107448107,-0.001953602,-0.001953602,-0.007326007,-0.007326007,-0.021978022
0.642408,-0.020408942,0.107003891,-0.001716640,-0.008583200,-0.052834363,-0.037575341,-0.142612943,0.001953602,-0.001953602,-0.007326007,-0.021978022,-0.021978022
0.648553,-0.020408942,0.107003891,-0.001716640,-0.008583200,-0.052834363,-0.037575341,-0.142612943,0.001953602,-0.001953602,-0.007326007,-0.021978022,-0.021978022
0.653783,-0.020408942,0.107003891,-0.001716640,-0.008583200,-0.052834363,-0.037575341,-0.142612943,0.001953602,-0.001953602,-0.007326007,-0.021978022,-0.021978022
0.659952,-0.023460746,0.107003891,-0.001716640,-0.008583200,-0.052834363,-0.037575341,-0.162148962,-0.001953602,-0.001953602,-0.007326007,-0.007326007,-0.021978022
0.665136,-0.023460746,0.107003891,-0.001716640,-0.008583200,-0.052834363,-0.037575341,-0.162148962,-0.001953602,-0.001953602,-0.007326007,-0.007326007,-0.021978022
0.670485,-0.023460746,0.107003891,-0.001716640,-0.008583200,-0.052834363,-0.037575341,-0.162148962,-0.001953602,-0.001953602,-0.007326007,-0.007326007,-0.021978022
0.676188,-0.026131075,0.107003891,-0.001716640,-0.008583200,-0.052834363,-0.037575341,-0.166056166,-0.001953602,-0.001953602,-0.007326007,-0.007326007,-0.007326007
0.681346,-0.026131075,0.107003891,-0.001716640,-0.008583200,-0.052834363,-0.037575341,-0.166056166,-0.001953602,-0.001953602,-0.007326007,-0.007326007,-0.007326007
0.686753,-0.026131075,0.107003891,-0.001716640,-0.008583200,-0.052834363,-0.037575341,-0.166056166,-0.001953602,-0.001953602,-0.007326007,-0.007326007,-0.007326007
0.692496,-0.030708782,0.107003891,-0.001716640,-0.008583200,-0.052834363,-0.037575341,-0.177777778,-0.001953602,-0.001953602,-0.007326007,0.007326007,-0.007326007
0.697655,-0.030708782,0.107003891,-0.001716640,-0.008583200,-0.052834363,-0.037575341,-0.177777778,-0.001953602,-0.001953602,-0.007326007,0.007326007,-0.007326007
0.702938,-0.033379110,0.107003891,-0.001716640,-0.008583200,-0.052834363,-0.037575341,-0.209035409,-0.001953602,-0.001953602,-0.021978022,-0.007326007,-0.007326007
0.709129,-0.033379110,0.107003891,-0.001716640,-0.008583200,-0.052834363,-0.037575341,-0.209035409,-0.001953602,-0.001953602,-0.021978022,-0.007326007,-0.007326007
0.714240,-0.033379110,0.107003891,-0.001716640,-0.008583200,-0.052834363,-0.037575341,-0.209035409,-0.001953602,-0.001953602,-0.021978022,-0.007326007,-0.007326007
0.720078,-0.037575341,0.107003891,-0.001716640,-0.008583200,-0.052834363,-0.037575341,-0.205128205,-0.001953602,-0.001953602,-0.007326007,-0.007326007,-0.007326007
0.725242,-0.037575341,0.107003891,-0.001716640,-0.008583200,-0.052834363,-0.037575341,-0.205128205,-0.001953602,-0.001953602,-0.007326007,-0.007326007,-0.007326007
0.730457,-0.037575341,0.107003891,-0.001716640,-0.008583200,-0.052834363,-0.037575341,-0.205128205,-0.001953602,-0.001953602,-0.007326007,-0.007326007,-0.007326007
0.736209,-0.041771572,0.107003891,-0.001716640,-0.008583200,-0.052834363,-0.037575341,-0.244200244,0.001953602,-0.005860806,0.007326007,-0.007326007,0.007326007
0.741331,-0.041771572,0.107003891,-0.001716640,-0.008583200,-0.052834363,-0.037575341,-0.244200244,0.001953602,-0.005860806,0.007326007,-0.007326007,0.007326007
0.746604,-0.046349279,0.107003891,-0.001716640,-0.008583200,-0.052834363,-0.037575341,-0.275457875,-0.005860806,0.001953602,0.007326007,-0.021978022,0.007326007
0.753019,-0.046349279,0.107003891,-0.001716640,-0.008583200,-0.052834363,-0.037575341,-0.275457875,-0.005860806,0.001953602,0.007326007,-0.021978022,0.007326007
0.758153,-0.046349279,0.107003891,-0.001716640,-0.008583200,-0.052834363,-0.037575341,-0.275457875,-0.005860806,0.001953602,0.007326007,-0.021978022,0.007326007
0.763303,-0.046349279,0.107003891,-0.001716640,-0.008583200,-0.052834363,-0.037575341,-0.287179487,-0.001953602,-0.001953602,-0.021978022,-0.007326007,-0.007326007
0.769569,-0.052071412,0.107003891,-0.001716640,-0.008583200,-0.052834363,-0.037575341,-0.287179487,-0.001953602,-0.001953602,-0.021978022,-0.007326007,-0.007326007
0.774687,-0.052071412,0.107003891,-0.001716640,-0.008583200,-0.052834363,-0.037575341,-0.287179487,-0.001953602,-0.001953602,-0.021978022,-0.007326007,-0.007326007
0.780878,-0.057412070,0.107003891,-0.001716640,-0.008583200,-0.052834363,-0.037575341,-0.318437118,-0.005860806,-0.001953602,0.007326007,-0.007326007,-0.007326007
0.786072,-0.057412070,0.107003891,-0.001716640,-0.008583200,-0.052834363,-0.037575341,-0.318437118,-0.005860806,-0.001953602,0.007326007,-0.007326007,-0.007326007
0.792379,-0.063515679,0.107003891,-0.001716640,-0.008583200,-0.052834363,-0.037575341,-0.345787546,-0.001953602,-0.005860806,-0.021978022,-0.007326007,-0.021978022
0.797498,-0.063515679,0.107003891,-0.001716640,-0.008583200,-0.052834363,-0.037575341,-0.345787546,-0.001953602,-0.005860806,-0.021978022,-0.007326007,-0.021978022
0.802834,-0.063515679,0.107003891,-0.001716640,-0.008583200,-0.052834363,-0.037575341,-0.345787546,-0.001953602,-0.005860806,-0.021978022,-0.007326007,-0.021978022
0.808922,-0.069619287,0.107003891,-0.001716640,-0.008583200,-0.052834363,-0.037575341,-0.341880342,-0.005860806,-0.001953602,-0.021978022,-0.007326007,-0.007326007
0.814100,-0.069619287,0.107003891,-0.001716640,-0.008583200,-0.052834363,-0.037575341,-0.341880342,-0.005860806,-0.001953602,-0.021978022,-0.007326007,-0.007326007
0.819497,-0.069619287,0.107003891,-0.001716640,-0.008583200,-0.052834363,-0.037575341,-0.341880342,-0.005860806,-0.001953602,-0.021978022,-0.007326007,-0.007326007
0.825255,-0.076485847,0.107003891,-0.001716640,-0.008583200,-0.052834363,-0.037575341,-0.365323565,-0.001953602,-0.001953602,-0.007326007,-0.007326007,-0.021978022
0.830474,-0.076485847,0.107003891,-0.001716640,-0.008583200,-0.052834363,-0.037575341,-0.365323565,-0.001953602,-0.001953602,-0.007326007,-0.007326007,-0.021978022
0.835621,-0.076485847,0.107003891,-0.001716640,-0.008583200,-0.052834363,-0.037575341,-0.365323565,-0.001953602,-0.001953602,-0.007326007,-0.007326007,-0.021978022
0.841258,-0.083733883,0.107003891,-0.001716640,-0.008583200,-0.052834363,-0.037575341,-0.380952381,-0.005860806,-0.001953602,-0.021978022,-0.007326007,-0.007326007
0.846425,-0.083733883,0.107003891,-0.001716640,-0.008583200,-0.052834363,-0.037575341,-0.380952381,-0.005860806,-0.001953602,-0.021978022,-0.007326007,-0.007326007
0.851728,-0.083733883,0.107003891,-0.001716640,-0.008583200,-0.052834363,-0.037575341,-0.392673993,-0.001953602,0.001953602,-0.007326007,-0.021978022,-0.021978022
0.858116,-0.092507820,0.107003891,-0.001716640,-0.008583200,-0.052834363,-0.037575341,-0.392673993,-0.001953602,0.001953602,-0.007326007,-0.021978022,-0.021978022
0.863363,-0.092507820,0.107003891,-0.001716640,-0.008583200,-0.052834363,-0.037575341,-0.392673993,-0.001953602,0.001953602,-0.007326007,-0.021978022,-0.021978022
0.869001,-0.098992905,0.107003891,-0.001716640,-0.008583200,-0.052834363,-0.037575341,-0.400488400,-0.001953602,-0.001953602,-0.007326007,-0.007326007,-0.007326007
0.874204,-0.098992905,0.107003891,-0.001716640,-0.008583200,-0.052834363,-0.037575341,-0.400488400,-0.001953602,-0.001953602,-0.007326007,-0.007326007,-0.007326007
0.879290,-0.098992905,0.107003891,-0.001716640,-0.008583200,-0.052834363,-0.037575341,-0.400488400,-0.001953602,-0.001953602,-0.007326007,-0.007326007,-0.007326007
0.884924,-0.105477989,0.107003891,-0.001716640,-0.008583200,-0.052834363,-0.037575341,-0.396581197,-0.001953602,-0.001953602,-0.007326007,-0.021978022,-0.007326007
0.890074,-0.105477989,0.107003891,-0.001716640,-0.008583200,-0.052834363,-0.037575341,-0.396581197,-0.001953602,-0.001953602,-0.007326007,-0.021978022,-0.007326007
0.896456,-0.113107500,0.107003891,-0.001716640,-0.008583200,-0.052834363,-0.037575341,-0.435653236,-0.001953602,-0.001953602,-0.007326007,-0.007326007,-0.007326007
0.901661,-0.113107500,0.107003891,-0.001716640,-0.008583200,-0.052834363,-0.037575341,-0.435653236,-0.001953602,-0.001953602,-0.007326007,-0.007326007,-0.007326007
0.906869,-0.113107500,0.107003891,-0.001716640,-0.008583200,-0.052834363,-0.037575341,-0.435653236,-0.001953602,-0.001953602,-0.007326007,-0.007326007,-0.007326007
0.912737,-0.119974060,0.107003891,-0.001716640,-0.008583200,-0.052834363,-0.037575341,-0.423931624,-0.001953602,0.001953602,-0.021978022,-0.007326007,-0.007326007
0.917922,-0.119974060,0.107003891,-0.001716640,-0.008583200,-0.052834363,-0.037575341,-0.423931624,-0.001953602,0.001953602,-0.021978022,-0.007326007,-0.007326007
0.923238,-0.119974060,0.107003891,-0.001716640,-0.008583200,-0.052834363,-0.037575341,-0.423931624,-0.001953602,0.001953602,-0.021978022,-0.007326007,-0.007326007
0.929025,-0.129510948,0.107003891,-0.001716640,-0.008583200,-0.052834363,-0.037575341,-0.451282051,-0.001953602,-0.001953602,-0.007326007,-0.007326007,-0.021978022
0.934261,-0.129510948,0.107003891,-0.001716640,-0.008583200,-0.052834363,-0.037575341,-0.451282051,-0.001953602,-0.001953602,-0.007326007,-0.007326007,-0.021978022
0.939393,-0.129510948,0.107003891,-0.001716640,-0.008583200,-0.052834363,-0.037575341,-0.451282051,-0.001953602,-0.001953602,-0.007326007,-0.007326007,-0.021978022
0.945214,-0.137521935,0.107003891,-0.001716640,-0.008583200,-0.052834363,-0.037575341,-0.431746032,-0.001953602,-0.001953602,-0.007326007,0.007326007,0.007326007
0.950364,-0.137521935,0.107003891,-0.001716640,-0.008583200,-0.052834363,-0.037575341,-0.431746032,-0.001953602,-0.001953602,-0.007326007,0.007326007,0.007326007
0.956213,-0.145532921,0.107003891,-0.001716640,-0.008583200,-0.052834363,-0.037575341,-0.451282051,-0.001953602,-0.001953602,-0.021978022,-0.007326007,-0.007326007
0.961360,-0.145532921,0.107003891,-0.001716640,-0.008583200,-0.052834363,-0.037575341,-0.451282051,-0.001953602,-0.001953602,-0.021978022,-0.007326007,-0.007326007
0.966584,-0.145532921,0.107003891,-0.001716640,-0.008583200,-0.052834363,-0.037575341,-0.451282051,-0.001953602,-0.001953602,-0.021978022,-0.007326007,-0.007326007
0.972817,-0.154306859,0.107003891,-0.001716640,-0.008583200,-0.052834363,-0.037575341,-0.443467643,-0.001953602,-0.001953602,-0.007326007,0.007326007,0.007326007
0.978078,-0.154306859,0.107003891,-0.001716640,-0.008583200,-0.052834363,-0.037575341,-0.443467643,-0.001953602,-0.001953602,-0.007326007,0.007326007,0.007326007
0.983367,-0.161936370,0.107003891,-0.001716640,-0.008583200,-0.052834363,-0.037575341,-0.459096459,0.001953602,0.001953602,-0.021978022,-0.021978022,-0.007326007
0.989699,-0.161936370,0.107003891,-0.001716640,-0.008583200,-0.052834363,-0.037575341,-0.459096459,0.001953602,0.001953602,-0.021978022,-0.021978022,-0.007326007
0.994836,-0.161936370,0.107003891,-0.001716640,-0.008583200,-0.052834363,-0.037575341,-0.459096459,0.001953602,0.001953602,-0.021978022,-0.021978022,-0.007326007
1.000515,-0.169947356,0.107003891,-0.001716640,-0.008583200,-0.052834363,-0.037575341,-0.451282051,0.001953602,0.001953602,-0.007326007,0.007326007,0.021978022
1.005660,-0.169947356,0.107003891,-0.001716640,-0.008583200,-0.052834363,-0.037575341,-0.451282051,0.001953602,0.001953602,-0.007326007,0.007326007,0.021978022
1.010792,-0.169947356,0.107003891,-0.001716640,-0.008583200,-0.052834363,-0.037575341,-0.451282051,0.001953602,0.001953602,-0.007326007,0.007326007,0.021978022
1.016525,-0.179484245,0.107003891,-0.001716640,-0.008583200,-0.052834363,-0.037575341,-0.466910867,-0.001953602,0.001953602,-0.007326007,-0.007326007,-0.007326007
1.021722,-0.179484245,0.107003891,-0.001716640,-0.008583200,-0.052834363,-0.037575341,-0.466910867,-0.001953602,0.001953602,-0.007326007,-0.007326007,-0.007326007
1.026846,-0.179484245,0.107003891,-0.001716640,-0.008583200,-0.052834363,-0.037575341,-0.466910867,-0.001953602,0.001953602,-0.007326007,-0.007326007,-0.007326007
1.032581,-0.186732280,0.107003891,-0.001716640,-0.008964675,-0.052834363,-0.037575341,-0.459096459,-0.001953602,-0.001953602,-0.007326007,-0.007326007,0.007326007
1.037704,-0.186732280,0.107003891,-0.001716640,-0.008964675,-0.052834363,-0.037575341,-0.459096459,-0.001953602,-0.001953602,-0.007326007,-0.007326007,0.007326007
1.042722,-0.186732280,0.107003891,-0.001716640,-0.008964675,-0.052834363,-0.037575341,-0.459096459,-0.001953602,-0.001953602,-0.007326007,-0.007326007,0.007326007
1.047908,-0.197032120,0.107003891,-0.001716640,-0.008583200,-0.052834363,-0.037575341,-0.482539683,-0.001953602,-0.001953602,0.007326007,-0.007326007,-0.021978022
1.056052,-0.197032120,0.107003891,-0.001716640,-0.008583200,-0.052834363,-0.037575341,-0.482539683,-0.001953602,-0.001953602,0.007326007,-0.007326007,-0.021978022
1.064209,-0.207331960,0.107003891,-0.001716640,-0.008583200,-0.052834363,-0.037575341,-0.486446886,-0.001953602,-0.001953602,-0.007326007,0.007326007,-0.007326007
1.072357,-0.207331960,0.107003891,-0.001716640,-0.008583200,-0.052834363,-0.037575341,-0.486446886,-0.001953602,-0.001953602,-0.007326007,0.007326007,-0.007326007
1.077437,-0.214579995,0.107003891,-0.001716640,-0.008583200,-0.052834363,-0.037575341,-0.494261294,-0.001953602,-0.005860806,0.007326007,0.007326007,0.007326007
1.085654,-0.214579995,0.107003891,-0.001716640,-0.008583200,-0.052834363,-0.037575341,-0.494261294,-0.001953602,-0.005860806,0.007326007,0.007326007,0.007326007
1.093879,-0.222209506,0.107003891,-0.001716640,-0.008583200,-0.052834363,-0.037575341,-0.474725275,-0.001953602,-0.001953602,-0.007326007,-0.007326007,-0.007326007
1.102601,-0.231364920,0.107003891,-0.001716640,-0.008583200,-0.052834363,-0.037575341,-0.509890110,-0.001953602,-0.005860806,-0.007326007,-0.021978022,0.007326007
1.110879,-0.231364920,0.107003891,-0.001716640,-0.008583200,-0.052834363,-0.037575341,-0.509890110,-0.001953602,-0.005860806,-0.007326007,-0.021978022,0.007326007
1.115912,-0.231364920,0.107003891,-0.001716640,-0.008583200,-0.052834363,-0.037575341,-0.509890110,-0.001953602,-0.005860806,-0.007326007,-0.021978022,0.007326007
1.121380,-0.242427710,0.107003891,-0.001716640,-0.008583200,-0.052834363,-0.037575341,-0.513797314,-0.001953602,-0.001953602,-0.007326007,0.007326007,-0.007326007
1.126478,-0.242427710,0.107003891,-0.001716640,-0.008583200,-0.052834363,-0.037575341,-0.513797314,-0.001953602,-0.001953602,-0.007326007,0.007326007,-0.007326007
1.131571,-0.242427710,0.107003891,-0.001716640,-0.008583200,-0.052834363,-0.037575341,-0.513797314,-0.001953602,-0.001953602,-0.007326007,0.007326007,-0.007326007
1.137635,-0.252346075,0.107003891,-0.001716640,-0.008583200,-0.052834363,-0.037575341,-0.494261294,-0.001953602,-0.005860806,-0.007326007,-0.007326007,-0.007326007
1.142719,-0.252346075,0.107003891,-0.001716640,-0.008583200,-0.052834363,-0.037575341,-0.494261294,-0.001953602,-0.005860806,-0.007326007,-0.007326007,-0.007326007
1.147897,-0.252346075,0.107003891,-0.001716640,-0.008583200,-0.052834363,-0.037575341,-0.494261294,-0.001953602,-0.005860806,-0.007326007,-0.007326007,-0.007326007
1.153626,-0.261120012,0.107003891,-0.001716640,-0.008964675,-0.052834363,-0.037575341,-0.494261294,-0.001953602,-0.005860806,0.007326007,-0.007326007,-0.036630037
1.158715,-0.261120012,0.107003891,-0.001716640,-0.008964675,-0.052834363,-0.037575341,-0.494261294,-0.001953602,-0.005860806,0.007326007,-0.007326007,-0.036630037
1.163825,-0.261120012,0.107003891,-0.001716640,-0.008964675,-0.052834363,-0.037575341,-0.498168498,-0.001953602,0.001953602,-0.007326007,-0.007326007,-0.007326007
1.169670,-0.271038376,0.107003891,-0.001716640,-0.008583200,-0.052834363,-0.037575341,-0.498168498,-0.001953602,0.001953602,-0.007326007,-0.007326007,-0.007326007
1.174794,-0.271038376,0.107003891,-0.001716640,-0.008583200,-0.052834363,-0.037575341,-0.498168498,-0.001953602,0.001953602,-0.007326007,-0.007326007,-0.007326007
1.179874,-0.271038376,0.107003891,-0.001716640,-0.008583200,-0.052834363,-0.037575341,-0.502075702,-0.001953602,0.001953602,-0.007326007,0.007326007,-0.021978022
1.186070,-0.279430838,0.107003891,-0.001716640,-0.008583200,-0.052834363,-0.037575341,-0.502075702,-0.001953602,0.001953602,-0.007326007,0.007326007,-0.021978022
1.191203,-0.279430838,0.107003891,-0.001716640,-0.008583200,-0.052834363,-0.037575341,-0.502075702,-0.001953602,0.001953602,-0.007326007,0.007326007,-0.021978022
1.196341,-0.290112154,0.107003891,-0.001716640,-0.008964675,-0.052834363,-0.037575341,-0.494261294,-0.001953602,0.001953602,-0.007326007,-0.021978022,-0.007326007
1.202195,-0.290112154,0.107003891,-0.001716640,-0.008964675,-0.052834363,-0.037575341,-0.494261294,-0.001953602,0.001953602,-0.007326007,-0.021978022,-0.007326007
1.207242,-0.290112154,0.107003891,-0.001716640,-0.008964675,-0.052834363,-0.037575341,-0.494261294,-0.001953602,0.001953602,-0.007326007,-0.021978022,-0.007326007
1.213014,-0.299267567,0.107003891,-0.001716640,-0.008964675,-0.052834363,-0.037575341,-0.502075702,0.001953602,-0.001953602,-0.021978022,-0.007326007,-0.021978022
1.218153,-0.299267567,0.107003891,-0.001716640,-0.008964675,-0.052834363,-0.037575341,-0.502075702,0.001953602,-0.001953602,-0.021978022,-0.007326007,-0.021978022
1.223387,-0.299267567,0.107003891,-0.001716640,-0.008964675,-0.052834363,-0.037575341,-0.502075702,0.001953602,-0.001953602,-0.021978022,-0.007326007,-0.021978022
1.229269,-0.308422980,0.107003891,-0.001716640,-0.008964675,-0.052834363,-0.037575341,-0.502075702,-0.001953602,-0.001953602,-0.021978022,-0.021978022,-0.007326007
1.234593,-0.308422980,0.107003891,-0.001716640,-0.008964675,-0.052834363,-0.037575341,-0.502075702,-0.001953602,-0.001953602,-0.021978022,-0.021978022,-0.007326007
1.239793,-0.316815442,0.107003891,-0.001716640,-0.008964675,-0.052834363,-0.037575341,-0.502075702,0.001953602,-0.001953602,-0.021978022,-0.021978022,-0.007326007
1.247787,-0.316815442,0.107003891,-0.001716640,-0.008964675,-0.052834363,-0.037575341,-0.502075702,0.001953602,-0.001953602,-0.021978022,-0.021978022,-0.007326007
1.256044,-0.316815442,0.107003891,-0.001716640,-0.008964675,-0.052834363,-0.037575341,-0.509890110,-0.001953602,-0.005860806,-0.007326007,0.007326007,-0.007326007
1.261202,-0.327878233,0.107003891,-0.001716640,-0.008964675,-0.052834363,-0.037575341,-0.509890110,-0.001953602,-0.005860806,-0.007326007,0.007326007,-0.007326007
1.266266,-0.327878233,0.107003891,-0.001716640,-0.008964675,-0.052834363,-0.037575341,-0.509890110,-0.001953602,-0.005860806,-0.007326007,0.007326007,-0.007326007
1.271306,-0.327878233,0.107003891,-0.001716640,-0.008964675,-0.052834363,-0.037575341,-0.494261294,-0.001953602,-0.001953602,-0.007326007,-0.007326007,-0.007326007
1.276360,-0.335889220,0.107003891,-0.001716640,-0.008964675,-0.052834363,-0.037575341,-0.494261294,-0.001953602,-0.001953602,-0.007326007,-0.007326007,-0.007326007
1.284520,-0.335889220,0.107003891,-0.001716640,-0.008964675,-0.052834363,-0.037575341,-0.494261294,-0.001953602,-0.001953602,-0.007326007,-0.007326007,-0.007326007
1.292866,-0.346952010,0.107003891,-0.001716640,-0.008964675,-0.052834363,-0.037575341,-0.494261294,-0.001953602,-0.001953602,-0.007326007,-0.007326007,0.007326007
1.301344,-0.346952010,0.107003891,-0.001716640,-0.008964675,-0.052834363,-0.037575341,-0.502075702,-0.001953602,-0.005860806,-0.021978022,-0.007326007,-0.007326007
1.306946,-0.356107424,0.107003891,-0.001716640,-0.008964675,-0.052834363,-0.037575341,-0.502075702,-0.001953602,-0.005860806,-0.021978022,-0.007326007,-0.007326007
1.312221,-0.356107424,0.107003891,-0.001716640,-0.008964675,-0.052834363,-0.037575341,-0.502075702,-0.001953602,-0.005860806,-0.021978022,-0.007326007,-0.007326007
1.317946,-0.365262837,0.107003891,-0.001716640,-0.008964675,-0.052834363,-0.037575341,-0.502075702,0.001953602,-0.001953602,-0.021978022,-0.007326007,-0.007326007
1.323096,-0.365262837,0.107003891,-0.001716640,-0.008964675,-0.052834363,-0.037575341,-0.502075702,0.001953602,-0.001953602,-0.021978022,-0.007326007,-0.007326007
1.328204,-0.365262837,0.107003891,-0.001716640,-0.008964675,-0.052834363,-0.037575341,-0.502075702,0.001953602,-0.001953602,-0.021978022,-0.007326007,-0.007326007
1.333868,-0.372892348,0.107003891,-0.001716640,-0.008964675,-0.052834363,-0.037575341,-0.490354090,-0.001953602,-0.001953602,-0.007326007,-0.007326007,0.007326007
1.339000,-0.372892348,0.107003891,-0.001716640,-0.008964675,-0.052834363,-0.037575341,-0.490354090,-0.001953602,-0.001953602,-0.007326007,-0.007326007,0.007326007
1.344725,-0.382047761,0.107003891,-0.001716640,-0.009346151,-0.052834363,-0.037575341,-0.494261294,-0.001953602,0.001953602,-0.007326007,-0.007326007,-0.007326007
1.349937,-0.382047761,0.107003891,-0.001716640,-0.009346151,-0.052834363,-0.037575341,-0.494261294,-0.001953602,0.001953602,-0.007326007,-0.007326007,-0.007326007
1.355084,-0.382047761,0.107003891,-0.001716640,-0.009346151,-0.052834363,-0.037575341,-0.494261294,-0.001953602,0.001953602,-0.007326007,-0.007326007,-0.007326007
1.360866,-0.390058747,0.107003891,-0.001716640,-0.009346151,-0.052834363,-0.037575341,-0.490354090,-0.001953602,0.001953602,-0.007326007,-0.021978022,0.007326007
1.366013,-0.390058747,0.107003891,-0.001716640,-0.009346151,-0.052834363,-0.037575341,-0.490354090,-0.001953602,0.001953602,-0.007326007,-0.021978022,0.007326007
1.372329,-0.397688258,0.107003891,-0.001716640,-0.009346151,-0.052834363,-0.037575341,-0.478632479,-0.001953602,-0.001953602,-0.021978022,0.007326007,-0.021978022
1.377509,-0.397688258,0.107003891,-0.001716640,-0.009346151,-0.052834363,-0.037575341,-0.478632479,-0.001953602,-0.001953602,-0.021978022,0.007326007,-0.021978022
1.382627,-0.397688258,0.107003891,-0.001716640,-0.009346151,-0.052834363,-0.037575341,-0.478632479,-0.001953602,-0.001953602,-0.021978022,0.007326007,-0.021978022
1.388599,-0.407225147,0.107003891,-0.001716640,-0.009346151,-0.052834363,-0.037575341,-0.470818071,-0.001953602,-0.009768010,0.007326007,-0.007326007,-0.007326007
1.393687,-0.407225147,0.107003891,-0.001716640,-0.009346151,-0.052834363,-0.037575341,-0.470818071,-0.001953602,-0.009768010,0.007326007,-0.007326007,-0.007326007
1.398835,-0.407225147,0.107003891,-0.001716640,-0.009346151,-0.052834363,-0.037575341,-0.470818071,-0.001953602,-0.009768010,0.007326007,-0.007326007,-0.007326007
1.405061,-0.417524987,0.107003891,-0.001716640,-0.009346151,-0.052834363,-0.037575341,-0.455189255,-0.005860806,-0.001953602,-0.007326007,-0.007326007,-0.021978022
1.410459,-0.417524987,0.107003891,-0.001716640,-0.009346151,-0.052834363,-0.037575341,-0.455189255,-0.005860806,-0.001953602,-0.007326007,-0.007326007,-0.021978022
1.415776,-0.417524987,0.107003891,-0.001716640,-0.009346151,-0.052834363,-0.037575341,-0.455189255,-0.005860806,-0.001953602,-0.007326007,-0.007326007,-0.021978022
1.421493,-0.424773022,0.107003891,-0.001716640,-0.009346151,-0.052834363,-0.037575341,-0.455189255,-0.001953602,-0.001953602,0.007326007,-0.007326007,-0.007326007
1.426676,-0.424773022,0.107003891,-0.001716640,-0.009346151,-0.052834363,-0.037575341,-0.455189255,-0.001953602,-0.001953602,0.007326007,-0.007326007,-0.007326007
1.431826,-0.424773022,0.107003891,-0.001716640,-0.009346151,-0.052834363,-0.037575341,-0.455189255,-0.001953602,-0.001953602,0.007326007,-0.007326007,-0.007326007
1.437441,-0.434691386,0.107003891,-0.001716640,-0.009346151,-0.052834363,-0.037575341,-0.459096459,-0.001953602,-0.005860806,-0.007326007,-0.007326007,0.007326007
1.442780,-0.434691386,0.107003891,-0.001716640,-0.009346151,-0.052834363,-0.037575341,-0.459096459,-0.001953602,-0.005860806,-0.007326007,-0.007326007,0.007326007
1.448012,-0.434691386,0.107003891,-0.001716640,-0.009346151,-0.052834363,-0.037575341,-0.459096459,-0.001953602,-0.005860806,-0.007326007,-0.007326007,0.007326007
1.453689,-0.444991226,0.107003891,-0.001716640,-0.009346151,-0.052834363,-0.037575341,-0.466910867,-0.001953602,-0.001953602,-0.007326007,-0.021978022,-0.021978022
1.458797,-0.444991226,0.107003891,-0.001716640,-0.009346151,-0.052834363,-0.037575341,-0.466910867,-0.001953602,-0.001953602,-0.007326007,-0.021978022,-0.021978022
1.463952,-0.444991226,0.107003891,-0.001716640,-0.009346151,-0.052834363,-0.037575341,-0.466910867,-0.001953602,-0.001953602,-0.007326007,-0.021978022,-0.021978022
1.469689,-0.454909590,0.107003891,-0.001716640,-0.009346151,-0.052834363,-0.037575341,-0.470818071,0.001953602,-0.001953602,0.007326007,-0.007326007,-0.007326007
1.474844,-0.454909590,0.107003891,-0.001716640,-0.009346151,-0.052834363,-0.037575341,-0.470818071,0.001953602,-0.001953602,0.007326007,-0.007326007,-0.007326007
1.480037,-0.454909590,0.107003891,-0.001716640,-0.009346151,-0.052834363,-0.037575341,-0.470818071,0.001953602,-0.001953602,0.007326007,-0.007326007,-0.007326007
1.486088,-0.463302052,0.107385367,-0.001716640,-0.009346151,-0.052834363,-0.037575341,-0.447374847,0.001953602,-0.001953602,-0.007326007,0.007326007,-0.007326007
1.491346,-0.463302052,0.107385367,-0.001716640,-0.009346151,-0.052834363,-0.037575341,-0.447374847,0.001953602,-0.001953602,-0.007326007,0.007326007,-0.007326007
1.496346,-0.463302052,0.107385367,-0.001716640,-0.009346151,-0.052834363,-0.037575341,-0.447374847,0.001953602,-0.001953602,-0.007326007,0.007326007,-0.007326007
1.501982,-0.472838941,0.107385367,-0.001716640,-0.009346151,-0.052834363,-0.037575341,-0.482539683,0.001953602,-0.001953602,-0.007326007,-0.007326007,-0.007326007
1.507078,-0.472838941,0.107385367,-0.001716640,-0.009346151,-0.052834363,-0.037575341,-0.482539683,0.001953602,-0.001953602,-0.007326007,-0.007326007,-0.007326007
1.512338,-0.472838941,0.107385367,-0.001716640,-0.009346151,-0.052834363,-0.037575341,-0.482539683,0.001953602,-0.001953602,-0.007326007,-0.007326007,-0.007326007
1.518118,-0.480086976,0.107385367,-0.001716640,-0.009346151,-0.052834363,-0.037575341,-0.451282051,0.001953602,-0.001953602,0.007326007,0.007326007,-0.021978022
1.523290,-0.480086976,0.107385367,-0.001716640,-0.009346151,-0.052834363,-0.037575341,-0.451282051,0.001953602,-0.001953602,0.007326007,0.007326007,-0.021978022
1.528348,-0.480086976,0.107385367,-0.001716640,-0.009346151,-0.052834363,-0.037575341,-0.451282051,0.001953602,-0.001953602,0.007326007,0.007326007,-0.021978022
1.534081,-0.490386816,0.107766842,-0.001716640,-0.009346151,-0.052834363,-0.037575341,-0.470818071,0.009768010,-0.001953602,0.007326007,0.007326007,-0.021978022
1.539241,-0.490386816,0.107766842,-0.001716640,-0.009346151,-0.052834363,-0.037575341,-0.470818071,0.009768010,-0.001953602,0.007326007,0.007326007,-0.021978022
1.544390,-0.490386816,0.107766842,-0.001716640,-0.009346151,-0.052834363,-0.037575341,-0.470818071,0.009768010,-0.001953602,0.007326007,0.007326007,-0.021978022
1.550096,-0.498397803,0.108148318,-0.001716640,-0.009346151,-0.052834363,-0.037575341,-0.451282051,0.021489621,-0.001953602,-0.021978022,0.007326007,-0.007326007
1.555281,-0.498397803,0.108148318,-0.001716640,-0.009346151,-0.052834363,-0.037575341,-0.451282051,0.021489621,-0.001953602,-0.021978022,0.007326007,-0.007326007
1.561286,-0.506790265,0.108529793,-0.001716640,-0.009727626,-0.052834363,-0.037575341,-0.463003663,0.017582418,-0.001953602,-0.007326007,-0.007326007,-0.007326007
1.566573,-0.506790265,0.108529793,-0.001716640,-0.009727626,-0.052834363,-0.037575341,-0.463003663,0.017582418,-0.001953602,-0.007326007,-0.007326007,-0.007326007
1.571903,-0.506790265,0.108529793,-0.001716640,-0.009727626,-0.052834363,-0.037575341,-0.463003663,0.017582418,-0.001953602,-0.007326007,-0.007326007,-0.007326007
1.577093,-0.516708629,0.108529793,-0.001716640,-0.009346151,-0.052834363,-0.037575341,-0.443467643,0.005860806,-0.001953602,-0.007326007,-0.021978022,-0.007326007
1.583070,-0.516708629,0.108529793,-0.001716640,-0.009346151,-0.052834363,-0.037575341,-0.443467643,0.005860806,-0.001953602,-0.007326007,-0.021978022,-0.007326007
1.588276,-0.516708629,0.108529793,-0.001716640,-0.009346151,-0.052834363,-0.037575341,-0.443467643,0.005860806,-0.001953602,-0.007326007,-0.021978022,-0.007326007
1.593873,-0.523575189,0.108911269,-0.001716640,-0.009727626,-0.052834363,-0.037575341,-0.447374847,0.005860806,-0.001953602,-0.007326007,-0.007326007,-0.007326007
1.598988,-0.523575189,0.108911269,-0.001716640,-0.009727626,-0.052834363,-0.037575341,-0.447374847,0.005860806,-0.001953602,-0.007326007,-0.007326007,-0.007326007
1.604204,-0.531204700,0.108911269,-0.001716640,-0.009727626,-0.052834363,-0.037575341,-0.416117216,0.001953602,0.001953602,-0.007326007,-0.007326007,0.007326007
1.609978,-0.531204700,0.108911269,-0.001716640,-0.009727626,-0.052834363,-0.037575341,-0.416117216,0.001953602,0.001953602,-0.007326007,-0.007326007,0.007326007
1.615163,-0.531204700,0.108911269,-0.001716640,-0.009727626,-0.052834363,-0.037575341,-0.416117216,0.001953602,0.001953602,-0.007326007,-0.007326007,0.007326007
1.621010,-0.538452735,0.108911269,-0.001716640,-0.009727626,-0.052834363,-0.037575341,-0.439560440,-0.005860806,-0.001953602,-0.021978022,0.007326007,-0.007326007
1.626105,-0.538452735,0.108911269,-0.001716640,-0.009727626,-0.052834363,-0.037575341,-0.439560440,-0.005860806,-0.001953602,-0.021978022,0.007326007,-0.007326007
1.631271,-0.538452735,0.108911269,-0.001716640,-0.009727626,-0.052834363,-0.037575341,-0.416117216,-0.001953602,-0.001953602,-0.007326007,0.007326007,-0.007326007
1.637015,-0.545319295,0.108911269,-0.001716640,-0.009727626,-0.052834363,-0.037575341,-0.416117216,-0.001953602,-0.001953602,-0.007326007,0.007326007,-0.007326007
1.642269,-0.545319295,0.108911269,-0.001716640,-0.009727626,-0.052834363,-0.037575341,-0.416117216,-0.001953602,-0.001953602,-0.007326007,0.007326007,-0.007326007
1.647935,-0.552185855,0.108911269,-0.001716640,-0.009727626,-0.052834363,-0.037575341,-0.396581197,-0.001953602,-0.001953602,-0.007326007,-0.021978022,-0.007326007
1.652980,-0.552185855,0.108911269,-0.001716640,-0.009727626,-0.052834363,-0.037575341,-0.396581197,-0.001953602,-0.001953602,-0.007326007,-0.021978022,-0.007326007
1.658127,-0.552185855,0.108911269,-0.001716640,-0.009727626,-0.052834363,-0.037575341,-0.396581197,-0.001953602,-0.001953602,-0.007326007,-0.021978022,-0.007326007
1.663746,-0.560578317,0.108911269,-0.001716640,-0.009727626,-0.052834363,-0.037575341,-0.373137973,-0.001953602,-0.005860806,-0.007326007,0.007326007,-0.021978022
1.668985,-0.560578317,0.108911269,-0.001716640,-0.009727626,-0.052834363,-0.037575341,-0.373137973,-0.001953602,-0.005860806,-0.007326007,0.007326007,-0.021978022
1.674225,-0.560578317,0.108911269,-0.001716640,-0.009727626,-0.052834363,-0.037575341,-0.373137973,-0.001953602,-0.005860806,-0.007326007,0.007326007,-0.021978022
1.680298,-0.567063401,0.108911269,-0.001716640,-0.010109102,-0.052834363,-0.037575341,-0.369230769,-0.001953602,0.001953602,-0.021978022,0.007326007,0.007326007
1.685386,-0.567063401,0.108911269,-0.001716640,-0.010109102,-0.052834363,-0.037575341,-0.369230769,-0.001953602,0.001953602,-0.021978022,0.007326007,0.007326007
1.690587,-0.567063401,0.108911269,-0.001716640,-0.010109102,-0.052834363,-0.037575341,-0.369230769,-0.001953602,0.001953602,-0.021978022,0.007326007,0.007326007
1.696285,-0.573548486,0.108911269,-0.001716640,-0.010109102,-0.052834363,-0.037575341,-0.357509158,-0.001953602,-0.001953602,-0.021978022,-0.021978022,-0.007326007
1.701474,-0.573548486,0.108911269,-0.001716640,-0.010109102,-0.052834363,-0.037575341,-0.357509158,-0.001953602,-0.001953602,-0.021978022,-0.021978022,-0.007326007
1.706782,-0.573548486,0.108911269,-0.001716640,-0.010109102,-0.052834363,-0.037575341,-0.357509158,-0.001953602,-0.001953602,-0.021978022,-0.021978022,-0.007326007
1.712759,-0.580415045,0.108911269,-0.001716640,-0.011253529,-0.052834363,-0.037575341,-0.314529915,0.001953602,0.001953602,-0.065934066,-0.007326007,-0.007326007
1.717964,-0.580415045,0.108911269,-0.001716640,-0.011253529,-0.052834363,-0.037575341,-0.314529915,0.001953602,0.001953602,-0.065934066,-0.007326007,-0.007326007
1.723960,-0.585374228,0.108911269,-0.001716640,-0.012779431,-0.052834363,-0.037575341,-0.310622711,-0.001953602,-0.001953602,-0.139194139,-0.021978022,-0.007326007
1.729163,-0.585374228,0.108911269,-0.001716640,-0.012779431,-0.052834363,-0.037575341,-0.310622711,-0.001953602,-0.001953602,-0.139194139,-0.021978022,-0.007326007
1.734508,-0.585374228,0.108911269,-0.001716640,-0.012779431,-0.052834363,-0.037575341,-0.310622711,-0.001953602,-0.001953602,-0.139194139,-0.021978022,-0.007326007
1.739618,-0.591477836,0.108911269,-0.001716640,-0.015449760,-0.052834363,-0.037575341,-0.263736264,-0.001953602,-0.001953602,-0.183150183,-0.007326007,0.007326007
1.745751,-0.591477836,0.108911269,-0.001716640,-0.015449760,-0.052834363,-0.037575341,-0.263736264,-0.001953602,-0.001953602,-0.183150183,-0.007326007,0.007326007
1.750881,-0.591477836,0.108911269,-0.001716640,-0.015449760,-0.052834363,-0.037575341,-0.263736264,-0.001953602,-0.001953602,-0.183150183,-0.007326007,0.007326007
1.756080,-0.591477836,0.108911269,-0.001716640,-0.015449760,-0.052834363,-0.037575341,-0.263736264,-0.001953602,-0.001953602,-0.183150183,-0.007326007,0.007326007
1.761655,-0.596818494,0.108911269,-0.001716640,-0.020027466,-0.052834363,-0.037575341,-0.240293040,-0.001953602,-0.005860806,-0.285714286,-0.007326007,-0.021978022
1.766828,-0.596818494,0.108911269,-0.001716640,-0.020027466,-0.052834363,-0.037575341,-0.240293040,-0.001953602,-0.005860806,-0.285714286,-0.007326007,-0.021978022
1.773021,-0.601014725,0.108911269,-0.001716640,-0.025368124,-0.052834363,-0.037575341,-0.224664225,-0.001953602,0.001953602,-0.402930403,0.007326007,-0.007326007
1.778184,-0.601014725,0.108911269,-0.001716640,-0.025368124,-0.052834363,-0.037575341,-0.224664225,-0.001953602,0.001953602,-0.402930403,0.007326007,-0.007326007
1.783318,-0.601014725,0.108911269,-0.001716640,-0.025368124,-0.052834363,-0.037575341,-0.224664225,-0.001953602,0.001953602,-0.402930403,0.007326007,-0.007326007
1.789014,-0.604448005,0.108911269,-0.001716640,-0.031471733,-0.052834363,-0.037575341,-0.189499389,0.001953602,-0.001953602,-0.417582418,-0.021978022,-0.021978022
1.794299,-0.604448005,0.108911269,-0.001716640,-0.031471733,-0.052834363,-0.037575341,-0.189499389,0.001953602,-0.001953602,-0.417582418,-0.021978022,-0.021978022
1.799556,-0.604448005,0.108911269,-0.001716640,-0.031471733,-0.052834363,-0.037575341,-0.162148962,0.005860806,-0.001953602,-0.373626374,0.007326007,-0.007326007
1.805718,-0.607118334,0.108911269,-0.001716640,-0.036812390,-0.052834363,-0.037575341,-0.162148962,0.005860806,-0.001953602,-0.373626374,0.007326007,-0.007326007
1.810874,-0.607118334,0.108911269,-0.001716640,-0.036812390,-0.052834363,-0.037575341,-0.162148962,0.005860806,-0.001953602,-0.373626374,0.007326007,-0.007326007
1.816025,-0.607118334,0.108911269,-0.001716640,-0.036812390,-0.052834363,-0.037575341,-0.162148962,0.005860806,-0.001953602,-0.373626374,0.007326007,-0.007326007
1.821696,-0.610170138,0.109674220,-0.001716640,-0.042153048,-0.052834363,-0.037575341,-0.162148962,0.025396825,0.001953602,-0.344322344,-0.007326007,0.007326007
1.826834,-0.610170138,0.109674220,-0.001716640,-0.042153048,-0.052834363,-0.037575341,-0.162148962,0.025396825,0.001953602,-0.344322344,-0.007326007,0.007326007
1.831969,-0.610170138,0.109674220,-0.001716640,-0.042153048,-0.052834363,-0.037575341,-0.162148962,0.025396825,0.001953602,-0.344322344,-0.007326007,0.007326007
1.837707,-0.613221942,0.110437171,-0.001716640,-0.047875181,-0.053215839,-0.037575341,-0.115262515,0.041025641,-0.001953602,-0.315018315,-0.007326007,-0.021978022
1.842946,-0.613221942,0.110437171,-0.001716640,-0.047875181,-0.053215839,-0.037575341,-0.115262515,0.041025641,-0.001953602,-0.315018315,-0.007326007,-0.021978022
1.848048,-0.615129320,0.111200122,-0.001716640,-0.051308461,-0.053215839,-0.037575341,-0.130891331,0.064468864,-0.005860806,-0.256410256,-0.007326007,0.007326007
1.853673,-0.615129320,0.111200122,-0.001716640,-0.051308461,-0.053215839,-0.037575341,-0.130891331,0.064468864,-0.005860806,-0.256410256,-0.007326007,0.007326007
1.858709,-0.615129320,0.111200122,-0.001716640,-0.051308461,-0.053215839,-0.037575341,-0.130891331,0.064468864,-0.005860806,-0.256410256,-0.007326007,0.007326007
1.864817,-0.617418173,0.113107500,-0.001716640,-0.053597314,-0.053215839,-0.037575341,-0.119169719,0.111355311,-0.001953602,-0.139194139,-0.007326007,-0.021978022
1.870158,-0.617418173,0.113107500,-0.001716640,-0.053597314,-0.053215839,-0.037575341,-0.119169719,0.111355311,-0.001953602,-0.139194139,-0.007326007,-0.021978022
1.875526,-0.617418173,0.113107500,-0.001716640,-0.053597314,-0.053215839,-0.037575341,-0.119169719,0.111355311,-0.001953602,-0.139194139,-0.007326007,-0.021978022
1.881041,-0.619325551,0.116159304,-0.001716640,-0.053978790,-0.052834363,-0.037575341,-0.095726496,0.134798535,0.001953602,-0.007326007,0.007326007,-0.007326007
1.886189,-0.619325551,0.116159304,-0.001716640,-0.053978790,-0.052834363,-0.037575341,-0.095726496,0.134798535,0.001953602,-0.007326007,0.007326007,-0.007326007
1.895563,-0.621232929,0.119592584,-0.001716640,-0.053597314,-0.053215839,-0.037575341,-0.119169719,0.197313797,0.001953602,0.007326007,0.007326007,-0.007326007
1.900683,-0.621232929,0.119592584,-0.001716640,-0.053597314,-0.053215839,-0.037575341,-0.119169719,0.197313797,0.001953602,0.007326007,0.007326007,-0.007326007
1.905937,-0.621232929,0.119592584,-0.001716640,-0.053597314,-0.053215839,-0.037575341,-0.119169719,0.197313797,0.001953602,0.007326007,0.007326007,-0.007326007
1.911061,-0.621232929,0.119592584,-0.001716640,-0.053597314,-0.053215839,-0.037575341,-0.119169719,0.197313797,0.001953602,0.007326007,0.007326007,-0.007326007
1.916758,-0.623903258,0.125314717,-0.001716640,-0.052452888,-0.052834363,-0.037575341,-0.080097680,0.232478632,0.013675214,0.051282051,-0.007326007,0.007326007
1.921846,-0.623903258,0.125314717,-0.001716640,-0.052452888,-0.052834363,-0.037575341,-0.080097680,0.232478632,0.013675214,0.051282051,-0.007326007,0.007326007
1.926912,-0.625047684,0.128366522,-0.001335164,-0.052071412,-0.052834363,-0.037575341,-0.095726496,0.216849817,0.025396825,0.051282051,0.007326007,-0.007326007
1.932579,-0.625047684,0.128366522,-0.001335164,-0.052071412,-0.052834363,-0.037575341,-0.095726496,0.216849817,0.025396825,0.051282051,0.007326007,-0.007326007
1.937773,-0.625047684,0.128366522,-0.001335164,-0.052071412,-0.052834363,-0.037575341,-0.095726496,0.216849817,0.025396825,0.051282051,0.007326007,-0.007326007
1.943391,-0.626955062,0.133325704,-0.000572213,-0.050545510,-0.052834363,-0.037575341,-0.072283272,0.240293040,0.044932845,0.095238095,0.007326007,0.007326007
1.948527,-0.626955062,0.133325704,-0.000572213,-0.050545510,-0.052834363,-0.037575341,-0.072283272,0.240293040,0.044932845,0.095238095,0.007326007,0.007326007
1.953612,-0.626955062,0.133325704,-0.000572213,-0.050545510,-0.052834363,-0.037575341,-0.072283272,0.240293040,0.044932845,0.095238095,0.007326007,0.007326007
1.959321,-0.628099489,0.137903410,0.000190738,-0.049019608,-0.053215839,-0.037575341,-0.068376068,0.275457875,0.025396825,0.109890110,0.007326007,-0.021978022
1.964472,-0.628099489,0.137903410,0.000190738,-0.049019608,-0.053215839,-0.037575341,-0.068376068,0.275457875,0.025396825,0.109890110,0.007326007,-0.021978022
1.969628,-0.628099489,0.137903410,0.000190738,-0.049019608,-0.053215839,-0.037575341,-0.048840049,0.275457875,0.052747253,0.183150183,-0.007326007,0.007326007
1.975708,-0.628862440,0.142862593,0.000953689,-0.046349279,-0.053215839,-0.037575341,-0.048840049,0.275457875,0.052747253,0.183150183,-0.007326007,0.007326007
1.980848,-0.628862440,0.142862593,0.000953689,-0.046349279,-0.053215839,-0.037575341,-0.048840049,0.275457875,0.052747253,0.183150183,-0.007326007,0.007326007
1.986106,-0.628862440,0.142862593,0.000953689,-0.046349279,-0.053215839,-0.037575341,-0.029304029,0.283272283,0.084004884,0.065934066,0.007326007,0.007326007
1.992457,-0.629625391,0.149729152,0.002479591,-0.044441901,-0.053215839,-0.037575341,-0.029304029,0.283272283,0.084004884,0.065934066,0.007326007,0.007326007
1.997629,-0.629625391,0.149729152,0.002479591,-0.044441901,-0.053215839,-0.037575341,-0.029304029,0.283272283,0.084004884,0.065934066,0.007326007,0.007326007
2.002663,-0.629625391,0.155832761,0.005149920,-0.044060426,-0.053215839,-0.037575341,0.001953602,0.287179487,0.126984127,-0.007326007,-0.007326007,0.007326007
2.008920,-0.629625391,0.155832761,0.005149920,-0.044060426,-0.053215839,-0.037575341,0.001953602,0.287179487,0.126984127,-0.007326007,-0.007326007,0.007326007
2.014098,-0.629625391,0.155832761,0.005149920,-0.044060426,-0.053215839,-0.037575341,0.001953602,0.287179487,0.126984127,-0.007326007,-0.007326007,0.007326007
2.019742,-0.629625391,0.160791943,0.007438773,-0.043297475,-0.052834363,-0.037575341,-0.001953602,0.287179487,0.126984127,0.080586081,-0.007326007,-0.007326007
2.024954,-0.629625391,0.160791943,0.007438773,-0.043297475,-0.052834363,-0.037575341,-0.001953602,0.287179487,0.126984127,0.080586081,-0.007326007,-0.007326007
2.030091,-0.629625391,0.160791943,0.007438773,-0.043297475,-0.052834363,-0.037575341,-0.001953602,0.287179487,0.126984127,0.080586081,-0.007326007,-0.007326007
2.035793,-0.629625391,0.166895552,0.009727626,-0.041390097,-0.052834363,-0.037575341,-0.001953602,0.306715507,0.142612943,0.124542125,0.007326007,-0.021978022
2.041015,-0.629625391,0.166895552,0.009727626,-0.041390097,-0.052834363,-0.037575341,-0.001953602,0.306715507,0.142612943,0.124542125,0.007326007,-0.021978022
2.047448,-0.629625391,0.172617685,0.012016480,-0.039482719,-0.053215839,-0.037575341,-0.001953602,0.334065934,0.150427350,0.153846154,0.007326007,-0.021978022
2.052662,-0.629625391,0.172617685,0.012016480,-0.039482719,-0.053215839,-0.037575341,-0.001953602,0.334065934,0.150427350,0.153846154,0.007326007,-0.021978022
2.057870,-0.629625391,0.172617685,0.012016480,-0.039482719,-0.053215839,-0.037575341,-0.001953602,0.334065934,0.150427350,0.153846154,0.007326007,-0.021978022
2.063723,-0.629625391,0.179484245,0.015831235,-0.035667964,-0.053215839,-0.037575341,-0.001953602,0.322344322,0.177777778,0.183150183,-0.021978022,-0.007326007
2.068880,-0.629625391,0.179484245,0.015831235,-0.035667964,-0.053215839,-0.037575341,-0.001953602,0.322344322,0.177777778,0.183150183,-0.021978022,-0.007326007
2.074072,-0.629625391,0.179484245,0.015831235,-0.035667964,-0.053215839,-0.037575341,-0.001953602,0.322344322,0.177777778,0.183150183,-0.021978022,-0.007326007
2.079806,-0.629625391,0.185206378,0.018883040,-0.033379110,-0.052834363,-0.037575341,-0.001953602,0.361416361,0.185592186,0.212454212,-0.007326007,-0.007326007
2.084922,-0.629625391,0.185206378,0.018883040,-0.033379110,-0.052834363,-0.037575341,-0.001953602,0.361416361,0.185592186,0.212454212,-0.007326007,-0.007326007
2.090104,-0.629625391,0.191691463,0.022316320,-0.029945830,-0.052834363,-0.037575341,-0.005860806,0.369230769,0.205128205,0.227106227,-0.007326007,-0.007326007
2.096024,-0.629625391,0.191691463,0.022316320,-0.029945830,-0.052834363,-0.037575341,-0.005860806,0.369230769,0.205128205,0.227106227,-0.007326007,-0.007326007
2.101116,-0.629625391,0.191691463,0.022316320,-0.029945830,-0.052834363,-0.037575341,-0.005860806,0.369230769,0.205128205,0.227106227,-0.007326007,-0.007326007
2.106246,-0.629625391,0.191691463,0.022316320,-0.029945830,-0.052834363,-0.037575341,-0.005860806,0.369230769,0.205128205,0.227106227,-0.007326007,-0.007326007
2.112149,-0.629625391,0.199320974,0.027275502,-0.026512551,-0.052834363,-0.037575341,-0.001953602,0.353601954,0.224664225,0.197802198,-0.021978022,0.007326007
2.117308,-0.629625391,0.199320974,0.027275502,-0.026512551,-0.052834363,-0.037575341,-0.001953602,0.353601954,0.224664225,0.197802198,-0.021978022,0.007326007
2.122476,-0.629625391,0.205424582,0.031090257,-0.024223697,-0.052834363,-0.037575341,-0.001953602,0.353601954,0.240293040,0.109890110,-0.021978022,-0.007326007
2.128692,-0.629625391,0.205424582,0.031090257,-0.024223697,-0.052834363,-0.037575341,-0.001953602,0.353601954,0.240293040,0.109890110,-0.021978022,-0.007326007
2.133779,-0.629625391,0.205424582,0.031090257,-0.024223697,-0.052834363,-0.037575341,-0.001953602,0.353601954,0.240293040,0.109890110,-0.021978022,-0.007326007
2.138953,-0.629625391,0.205424582,0.031090257,-0.024223697,-0.052834363,-0.037575341,-0.001953602,0.353601954,0.240293040,0.109890110,-0.021978022,-0.007326007
2.144654,-0.629625391,0.214961471,0.038338293,-0.024223697,-0.052834363,-0.037575341,-0.001953602,0.345787546,0.298901099,-0.021978022,-0.007326007,-0.007326007
2.149801,-0.629625391,0.214961471,0.038338293,-0.024223697,-0.052834363,-0.037575341,-0.001953602,0.345787546,0.298901099,-0.021978022,-0.007326007,-0.007326007
2.154860,-0.629625391,0.214961471,0.038338293,-0.024223697,-0.052834363,-0.037575341,-0.001953602,0.345787546,0.298901099,-0.021978022,-0.007326007,-0.007326007
2.160653,-0.629625391,0.220683604,0.042534524,-0.024223697,-0.052834363,-0.037575341,-0.001953602,0.357509158,0.236385836,-0.007326007,0.007326007,-0.007326007
2.165823,-0.629625391,0.220683604,0.042534524,-0.024223697,-0.052834363,-0.037575341,-0.001953602,0.357509158,0.236385836,-0.007326007,0.007326007,-0.007326007
2.171054,-0.629625391,0.226787213,0.047112230,-0.024223697,-0.052834363,-0.037575341,-0.001953602,0.314529915,0.252014652,-0.007326007,-0.021978022,0.007326007
2.176999,-0.629625391,0.226787213,0.047112230,-0.024223697,-0.052834363,-0.037575341,-0.001953602,0.314529915,0.252014652,-0.007326007,-0.021978022,0.007326007
2.182129,-0.629625391,0.226787213,0.047112230,-0.024223697,-0.052834363,-0.037575341,-0.001953602,0.314529915,0.252014652,-0.007326007,-0.021978022,0.007326007
2.187768,-0.629625391,0.232127871,0.052834363,-0.024223697,-0.052834363,-0.037575341,-0.001953602,0.314529915,0.275457875,-0.007326007,0.007326007,-0.007326007
2.192926,-0.629625391,0.232127871,0.052834363,-0.024223697,-0.052834363,-0.037575341,-0.001953602,0.314529915,0.275457875,-0.007326007,0.007326007,-0.007326007
2.198022,-0.629625391,0.232127871,0.052834363,-0.024223697,-0.052834363,-0.037575341,-0.001953602,0.314529915,0.275457875,-0.007326007,0.007326007,-0.007326007
2.203877,-0.629625391,0.238612955,0.058175021,-0.024223697,-0.052834363,-0.037575341,-0.001953602,0.322344322,0.255921856,0.007326007,0.007326007,0.007326007
2.208948,-0.629625391,0.238612955,0.058175021,-0.024223697,-0.052834363,-0.037575341,-0.001953602,0.322344322,0.255921856,0.007326007,0.007326007,0.007326007
2.214032,-0.629625391,0.238612955,0.058175021,-0.024223697,-0.052834363,-0.037575341,-0.001953602,0.322344322,0.255921856,0.007326007,0.007326007,0.007326007
2.219722,-0.629625391,0.245098039,0.064278630,-0.023842222,-0.052834363,-0.037575341,-0.001953602,0.275457875,0.283272283,0.007326007,-0.007326007,0.007326007
2.224836,-0.629625391,0.245098039,0.064278630,-0.023842222,-0.052834363,-0.037575341,-0.001953602,0.275457875,0.283272283,0.007326007,-0.007326007,0.007326007
2.229959,-0.629625391,0.245098039,0.064278630,-0.023842222,-0.052834363,-0.037575341,-0.001953602,0.275457875,0.283272283,0.007326007,-0.007326007,0.007326007
2.235667,-0.629625391,0.250057221,0.068856336,-0.023842222,-0.052834363,-0.037575341,-0.001953602,0.306715507,0.267643468,0.007326007,-0.007326007,-0.007326007
2.240825,-0.629625391,0.250057221,0.068856336,-0.023842222,-0.052834363,-0.037575341,-0.001953602,0.306715507,0.267643468,0.007326007,-0.007326007,-0.007326007
2.245941,-0.629625391,0.250057221,0.068856336,-0.023842222,-0.052834363,-0.037575341,-0.001953602,0.306715507,0.267643468,0.007326007,-0.007326007,-0.007326007
2.251737,-0.629625391,0.256542306,0.074578470,-0.023842222,-0.052834363,-0.037575341,-0.001953602,0.298901099,0.252014652,-0.007326007,-0.021978022,0.007326007
2.256926,-0.629625391,0.256542306,0.074578470,-0.023842222,-0.052834363,-0.037575341,-0.001953602,0.298901099,0.252014652,-0.007326007,-0.021978022,0.007326007
2.262096,-0.629625391,0.256542306,0.074578470,-0.023842222,-0.052834363,-0.037575341,-0.001953602,0.298901099,0.252014652,-0.007326007,-0.021978022,0.007326007
2.267729,-0.629625391,0.261882963,0.079537652,-0.023460746,-0.052834363,-0.037575341,-0.001953602,0.267643468,0.291086691,0.007326007,-0.007326007,-0.021978022
2.272901,-0.629625391,0.261882963,0.079537652,-0.023460746,-0.052834363,-0.037575341,-0.001953602,0.267643468,0.291086691,0.007326007,-0.007326007,-0.021978022
2.278136,-0.629625391,0.267223621,0.084878309,-0.023460746,-0.052834363,-0.037575341,-0.005860806,0.294993895,0.314529915,-0.021978022,-0.021978022,0.007326007
2.284435,-0.629625391,0.267223621,0.084878309,-0.023460746,-0.052834363,-0.037575341,-0.005860806,0.294993895,0.314529915,-0.021978022,-0.021978022,0.007326007
2.289589,-0.629625391,0.267223621,0.084878309,-0.023460746,-0.052834363,-0.037575341,-0.005860806,0.294993895,0.314529915,-0.021978022,-0.021978022,0.007326007
2.294624,-0.629625391,0.273708705,0.091363394,-0.023842222,-0.052834363,-0.037575341,-0.001953602,0.302808303,0.291086691,-0.021978022,0.007326007,-0.021978022
2.300433,-0.629625391,0.273708705,0.091363394,-0.023842222,-0.052834363,-0.037575341,-0.001953602,0.302808303,0.291086691,-0.021978022,0.007326007,-0.021978022
2.305587,-0.629625391,0.273708705,0.091363394,-0.023842222,-0.052834363,-0.037575341,-0.001953602,0.302808303,0.291086691,-0.021978022,0.007326007,-0.021978022
2.311222,-0.629625391,0.278667887,0.096322576,-0.023460746,-0.052834363,-0.037575341,0.001953602,0.294993895,0.322344322,0.021978022,-0.007326007,0.007326007
2.316374,-0.629625391,0.278667887,0.096322576,-0.023460746,-0.052834363,-0.037575341,0.001953602,0.294993895,0.322344322,0.021978022,-0.007326007,0.007326007
2.321537,-0.629625391,0.278667887,0.096322576,-0.023460746,-0.052834363,-0.037575341,0.001953602,0.294993895,0.322344322,0.021978022,-0.007326007,0.007326007
2.327401,-0.629625391,0.286678874,0.103570611,-0.023460746,-0.052834363,-0.037575341,0.001953602,0.345787546,0.341880342,-0.021978022,-0.007326007,-0.021978022
2.332565,-0.629625391,0.286678874,0.103570611,-0.023460746,-0.052834363,-0.037575341,0.001953602,0.345787546,0.341880342,-0.021978022,-0.007326007,-0.021978022
2.337724,-0.629625391,0.286678874,0.103570611,-0.023460746,-0.052834363,-0.037575341,0.001953602,0.345787546,0.341880342,-0.021978022,-0.007326007,-0.021978022
2.343855,-0.629625391,0.292401007,0.109674220,-0.023460746,-0.052834363,-0.037575341,0.001953602,0.337973138,0.322344322,-0.007326007,0.007326007,-0.021978022
2.348957,-0.629625391,0.292401007,0.109674220,-0.023460746,-0.052834363,-0.037575341,0.001953602,0.337973138,0.322344322,-0.007326007,0.007326007,-0.021978022
2.354111,-0.629625391,0.292401007,0.109674220,-0.023460746,-0.052834363,-0.037575341,0.001953602,0.337973138,0.322344322,-0.007326007,0.007326007,-0.021978022
2.359810,-0.629625391,0.299649042,0.117303731,-0.023460746,-0.052834363,-0.037575341,-0.001953602,0.357509158,0.392673993,-0.007326007,-0.007326007,-0.007326007
2.364900,-0.629625391,0.299649042,0.117303731,-0.023460746,-0.052834363,-0.037575341,-0.001953602,0.357509158,0.392673993,-0.007326007,-0.007326007,-0.007326007
2.370008,-0.629625391,0.299649042,0.117303731,-0.023460746,-0.052834363,-0.037575341,-0.001953602,0.357509158,0.392673993,-0.007326007,-0.007326007,-0.007326007
2.375678,-0.629625391,0.308041505,0.125314717,-0.023460746,-0.052834363,-0.037575341,-0.005860806,0.357509158,0.361416361,0.007326007,0.007326007,-0.021978022
2.380717,-0.629625391,0.308041505,0.125314717,-0.023460746,-0.052834363,-0.037575341,-0.005860806,0.357509158,0.361416361,0.007326007,0.007326007,-0.021978022
2.385865,-0.629625391,0.308041505,0.125314717,-0.023460746,-0.052834363,-0.037575341,-0.005860806,0.357509158,0.361416361,0.007326007,0.007326007,-0.021978022
2.391665,-0.629625391,0.315671015,0.134088655,-0.023460746,-0.052834363,-0.037575341,-0.001953602,0.396581197,0.416117216,-0.021978022,-0.021978022,-0.007326007
2.396857,-0.629625391,0.315671015,0.134088655,-0.023460746,-0.052834363,-0.037575341,-0.001953602,0.396581197,0.416117216,-0.021978022,-0.021978022,-0.007326007
2.402044,-0.629625391,0.315671015,0.134088655,-0.023460746,-0.052834363,-0.037575341,-0.001953602,0.396581197,0.416117216,-0.021978022,-0.021978022,-0.007326007
2.407714,-0.629625391,0.322537575,0.140955215,-0.023460746,-0.052834363,-0.037575341,-0.001953602,0.420024420,0.408302808,-0.007326007,0.007326007,-0.007326007
2.412796,-0.629625391,0.322537575,0.140955215,-0.023460746,-0.052834363,-0.037575341,-0.001953602,0.420024420,0.408302808,-0.007326007,0.007326007,-0.007326007
2.417893,-0.629625391,0.322537575,0.140955215,-0.023460746,-0.052834363,-0.037575341,-0.001953602,0.420024420,0.408302808,-0.007326007,0.007326007,-0.007326007
2.424050,-0.629625391,0.332074464,0.150873579,-0.023460746,-0.052452888,-0.037575341,-0.001953602,0.427838828,0.455189255,-0.007326007,-0.007326007,0.007326007
2.429230,-0.629625391,0.332074464,0.150873579,-0.023460746,-0.052452888,-0.037575341,-0.001953602,0.427838828,0.455189255,-0.007326007,-0.007326007,0.007326007
2.434425,-0.629625391,0.338941024,0.157740139,-0.023460746,-0.052834363,-0.037575341,-0.001953602,0.451282051,0.451282051,-0.007326007,-0.007326007,-0.007326007
2.440704,-0.629625391,0.338941024,0.157740139,-0.023460746,-0.052834363,-0.037575341,-0.001953602,0.451282051,0.451282051,-0.007326007,-0.007326007,-0.007326007
2.445847,-0.629625391,0.338941024,0.157740139,-0.023460746,-0.052834363,-0.037575341,-0.001953602,0.451282051,0.451282051,-0.007326007,-0.007326007,-0.007326007
2.451688,-0.629625391,0.347333486,0.164988174,-0.023079271,-0.052834363,-0.037575341,-0.001953602,0.455189255,0.466910867,0.007326007,-0.007326007,-0.007326007
2.456903,-0.629625391,0.347333486,0.164988174,-0.023079271,-0.052834363,-0.037575341,-0.001953602,0.455189255,0.466910867,0.007326007,-0.007326007,-0.007326007
2.461997,-0.629625391,0.347333486,0.164988174,-0.023079271,-0.052834363,-0.037575341,-0.001953602,0.455189255,0.466910867,0.007326007,-0.007326007,-0.007326007
2.467639,-0.629625391,0.357251850,0.175669490,-0.023460746,-0.052834363,-0.037575341,0.001953602,0.478632479,0.466910867,0.007326007,-0.021978022,-0.021978022
2.472805,-0.629625391,0.357251850,0.175669490,-0.023460746,-0.052834363,-0.037575341,0.001953602,0.478632479,0.466910867,0.007326007,-0.021978022,-0.021978022
2.477994,-0.629625391,0.357251850,0.175669490,-0.023460746,-0.052834363,-0.037575341,0.001953602,0.478632479,0.466910867,0.007326007,-0.021978022,-0.021978022
2.483672,-0.629625391,0.365262837,0.183680476,-0.023460746,-0.052834363,-0.037575341,-0.001953602,0.490354090,0.502075702,-0.021978022,-0.021978022,-0.007326007
2.488829,-0.629625391,0.365262837,0.183680476,-0.023460746,-0.052834363,-0.037575341,-0.001953602,0.490354090,0.502075702,-0.021978022,-0.021978022,-0.007326007
2.493965,-0.629625391,0.374418250,0.192454414,-0.023460746,-0.052834363,-0.037575341,0.001953602,0.482539683,0.466910867,-0.007326007,0.007326007,-0.007326007
2.500133,-0.629625391,0.374418250,0.192454414,-0.023460746,-0.052834363,-0.037575341,0.001953602,0.482539683,0.466910867,-0.007326007,0.007326007,-0.007326007
2.505332,-0.629625391,0.374418250,0.192454414,-0.023460746,-0.052834363,-0.037575341,0.001953602,0.482539683,0.466910867,-0.007326007,0.007326007,-0.007326007
2.511208,-0.629625391,0.385099565,0.202754253,-0.023460746,-0.052452888,-0.037575341,-0.001953602,0.498168498,0.533333333,-0.021978022,-0.007326007,-0.007326007
2.516399,-0.629625391,0.385099565,0.202754253,-0.023460746,-0.052452888,-0.037575341,-0.001953602,0.498168498,0.533333333,-0.021978022,-0.007326007,-0.007326007
2.521545,-0.629625391,0.385099565,0.202754253,-0.023460746,-0.052452888,-0.037575341,-0.001953602,0.498168498,0.533333333,-0.021978022,-0.007326007,-0.007326007
2.527267,-0.629625391,0.393492027,0.211528191,-0.023460746,-0.052452888,-0.037575341,-0.001953602,0.517704518,0.482539683,0.007326007,-0.007326007,-0.007326007
2.532344,-0.629625391,0.393492027,0.211528191,-0.023460746,-0.052452888,-0.037575341,-0.001953602,0.517704518,0.482539683,0.007326007,-0.007326007,-0.007326007
2.537480,-0.629625391,0.393492027,0.211528191,-0.023460746,-0.052452888,-0.037575341,-0.001953602,0.517704518,0.482539683,0.007326007,-0.007326007,-0.007326007
2.543103,-0.629625391,0.404173342,0.220683604,-0.023460746,-0.052834363,-0.037575341,-0.005860806,0.541147741,0.505982906,-0.021978022,-0.007326007,-0.007326007
2.548236,-0.629625391,0.404173342,0.220683604,-0.023460746,-0.052834363,-0.037575341,-0.005860806,0.541147741,0.505982906,-0.021978022,-0.007326007,-0.007326007
2.553474,-0.629625391,0.404173342,0.220683604,-0.023460746,-0.052834363,-0.037575341,-0.005860806,0.541147741,0.505982906,-0.021978022,-0.007326007,-0.007326007
2.559240,-0.629625391,0.415236133,0.231746395,-0.023079271,-0.052834363,-0.037575341,-0.001953602,0.541147741,0.513797314,-0.007326007,-0.021978022,0.007326007
2.564372,-0.629625391,0.415236133,0.231746395,-0.023079271,-0.052834363,-0.037575341,-0.001953602,0.541147741,0.513797314,-0.007326007,-0.021978022,0.007326007
2.569554,-0.629625391,0.415236133,0.231746395,-0.023079271,-0.052834363,-0.037575341,-0.001953602,0.541147741,0.513797314,-0.007326007,-0.021978022,0.007326007
2.575106,-0.629625391,0.427061875,0.242809186,-0.023079271,-0.052834363,-0.037575341,-0.001953602,0.564590965,0.517704518,0.007326007,-0.007326007,0.007326007
2.580259,-0.629625391,0.427061875,0.242809186,-0.023079271,-0.052834363,-0.037575341,-0.001953602,0.564590965,0.517704518,0.007326007,-0.007326007,0.007326007
2.585462,-0.629625391,0.427061875,0.242809186,-0.023079271,-0.052834363,-0.037575341,-0.001953602,0.564590965,0.517704518,0.007326007,-0.007326007,0.007326007
2.591294,-0.629625391,0.437361715,0.252727550,-0.023079271,-0.052834363,-0.037575341,-0.001953602,0.568498168,0.541147741,-0.021978022,-0.021978022,-0.021978022
2.596329,-0.629625391,0.437361715,0.252727550,-0.023079271,-0.052834363,-0.037575341,-0.001953602,0.568498168,0.541147741,-0.021978022,-0.021978022,-0.021978022
2.601748,-0.629625391,0.448043030,0.261882963,-0.023079271,-0.052834363,-0.037575341,-0.001953602,0.576312576,0.509890110,0.021978022,-0.007326007,-0.007326007
2.607726,-0.629625391,0.448043030,0.261882963,-0.023079271,-0.052834363,-0.037575341,-0.001953602,0.576312576,0.509890110,0.021978022,-0.007326007,-0.007326007
2.612865,-0.629625391,0.448043030,0.261882963,-0.023079271,-0.052834363,-0.037575341,-0.001953602,0.576312576,0.509890110,0.021978022,-0.007326007,-0.007326007
2.618022,-0.629625391,0.448043030,0.261882963,-0.023079271,-0.052834363,-0.037575341,-0.001953602,0.580219780,0.502075702,-0.007326007,0.007326007,-0.007326007
2.624070,-0.629625391,0.460631724,0.273327230,-0.023079271,-0.052834363,-0.037575341,-0.001953602,0.580219780,0.502075702,-0.007326007,0.007326007,-0.007326007
2.632665,-0.629625391,0.460631724,0.273327230,-0.023079271,-0.052834363,-0.037575341,-0.001953602,0.588034188,0.541147741,-0.007326007,0.007326007,-0.007326007
2.638621,-0.629625391,0.471313039,0.282864118,-0.023079271,-0.052834363,-0.037575341,-0.001953602,0.588034188,0.541147741,-0.007326007,0.007326007,-0.007326007
2.643742,-0.629625391,0.471313039,0.282864118,-0.023079271,-0.052834363,-0.037575341,-0.001953602,0.588034188,0.541147741,-0.007326007,0.007326007,-0.007326007
2.649002,-0.629625391,0.483138781,0.292782483,-0.023079271,-0.052834363,-0.037575341,-0.001953602,0.623199023,0.529426129,0.007326007,-0.007326007,-0.007326007
2.654925,-0.629625391,0.483138781,0.292782483,-0.023079271,-0.052834363,-0.037575341,-0.001953602,0.623199023,0.529426129,0.007326007,-0.007326007,-0.007326007
2.660001,-0.629625391,0.483138781,0.292782483,-0.023079271,-0.052834363,-0.037575341,-0.001953602,0.623199023,0.529426129,0.007326007,-0.007326007,-0.007326007
2.666171,-0.629625391,0.495345998,0.303845274,-0.023079271,-0.052834363,-0.037575341,-0.005860806,0.623199023,0.552869353,-0.007326007,-0.007326007,-0.007326007
2.671386,-0.629625391,0.495345998,0.303845274,-0.023079271,-0.052834363,-0.037575341,-0.005860806,0.623199023,0.552869353,-0.007326007,-0.007326007,-0.007326007
2.676552,-0.629625391,0.495345998,0.303845274,-0.023079271,-0.052834363,-0.037575341,-0.005860806,0.623199023,0.552869353,-0.007326007,-0.007326007,-0.007326007
2.682284,-0.629625391,0.508316167,0.315289540,-0.022697795,-0.052834363,-0.037575341,-0.001953602,0.611477411,0.584126984,-0.007326007,-0.021978022,-0.007326007
2.687313,-0.629625391,0.508316167,0.315289540,-0.022697795,-0.052834363,-0.037575341,-0.001953602,0.611477411,0.584126984,-0.007326007,-0.021978022,-0.007326007
2.692387,-0.629625391,0.508316167,0.315289540,-0.022697795,-0.052834363,-0.037575341,-0.001953602,0.611477411,0.584126984,-0.007326007,-0.021978022,-0.007326007
2.698590,-0.629625391,0.521667811,0.327878233,-0.022697795,-0.052834363,-0.037575341,-0.001953602,0.603663004,0.572405372,0.007326007,-0.007326007,-0.007326007
2.703712,-0.629625391,0.521667811,0.327878233,-0.022697795,-0.052834363,-0.037575341,-0.001953602,0.603663004,0.572405372,0.007326007,-0.007326007,-0.007326007
2.708878,-0.629625391,0.521667811,0.327878233,-0.022697795,-0.052834363,-0.037575341,-0.001953602,0.603663004,0.572405372,0.007326007,-0.007326007,-0.007326007
2.714589,-0.629625391,0.531586175,0.337415122,-0.023079271,-0.052834363,-0.037575341,0.001953602,0.591941392,0.580219780,-0.051282051,0.007326007,-0.021978022
2.719802,-0.629625391,0.531586175,0.337415122,-0.023079271,-0.052834363,-0.037575341,0.001953602,0.591941392,0.580219780,-0.051282051,0.007326007,-0.021978022
2.726142,-0.629625391,0.541123064,0.346570535,-0.022697795,-0.052834363,-0.037575341,-0.001953602,0.595848596,0.576312576,0.021978022,-0.007326007,-0.007326007
2.731370,-0.629625391,0.541123064,0.346570535,-0.022697795,-0.052834363,-0.037575341,-0.001953602,0.595848596,0.576312576,0.021978022,-0.007326007,-0.007326007
2.736483,-0.629625391,0.541123064,0.346570535,-0.022697795,-0.052834363,-0.037575341,-0.001953602,0.595848596,0.576312576,0.021978022,-0.007326007,-0.007326007
2.742164,-0.629625391,0.552567330,0.356870375,-0.023079271,-0.052834363,-0.037575341,-0.001953602,0.627106227,0.552869353,-0.021978022,0.007326007,-0.007326007
2.747355,-0.629625391,0.552567330,0.356870375,-0.023079271,-0.052834363,-0.037575341,-0.001953602,0.627106227,0.552869353,-0.021978022,0.007326007,-0.007326007
2.752477,-0.629625391,0.552567330,0.356870375,-0.023079271,-0.052834363,-0.037575341,-0.001953602,0.627106227,0.552869353,-0.021978022,0.007326007,-0.007326007
2.758196,-0.630006867,0.565918975,0.369840543,-0.023079271,-0.052834363,-0.037575341,-0.001953602,0.603663004,0.576312576,-0.036630037,0.007326007,-0.007326007
2.763497,-0.630006867,0.565918975,0.369840543,-0.023079271,-0.052834363,-0.037575341,-0.001953602,0.603663004,0.576312576,-0.036630037,0.007326007,-0.007326007
2.768669,-0.630006867,0.575455863,0.379377432,-0.022697795,-0.052834363,-0.037575341,-0.005860806,0.595848596,0.584126984,0.007326007,-0.007326007,-0.007326007
2.774650,-0.630006867,0.575455863,0.379377432,-0.022697795,-0.052834363,-0.037575341,-0.005860806,0.595848596,0.584126984,0.007326007,-0.007326007,-0.007326007
2.779826,-0.630006867,0.575455863,0.379377432,-0.022697795,-0.052834363,-0.037575341,-0.005860806,0.595848596,0.584126984,0.007326007,-0.007326007,-0.007326007
2.785520,-0.630006867,0.586137179,0.388532845,-0.023079271,-0.052834363,-0.037575341,-0.005860806,0.603663004,0.568498168,-0.036630037,0.007326007,-0.007326007
2.790561,-0.630006867,0.586137179,0.388532845,-0.023079271,-0.052834363,-0.037575341,-0.005860806,0.603663004,0.568498168,-0.036630037,0.007326007,-0.007326007
2.795676,-0.630006867,0.586137179,0.388532845,-0.023079271,-0.052834363,-0.037575341,-0.005860806,0.603663004,0.568498168,-0.036630037,0.007326007,-0.007326007
2.801437,-0.630006867,0.595674067,0.399214160,-0.022697795,-0.052834363,-0.037575341,-0.001953602,0.588034188,0.619291819,0.007326007,0.007326007,-0.021978022
2.806795,-0.630006867,0.595674067,0.399214160,-0.022697795,-0.052834363,-0.037575341,-0.001953602,0.588034188,0.619291819,0.007326007,0.007326007,-0.021978022
2.812533,-0.630006867,0.606355383,0.409895476,-0.022697795,-0.052834363,-0.037575341,-0.001953602,0.572405372,0.584126984,0.007326007,0.021978022,-0.021978022
2.817665,-0.630006867,0.606355383,0.409895476,-0.022697795,-0.052834363,-0.037575341,-0.001953602,0.572405372,0.584126984,0.007326007,0.021978022,-0.021978022
2.822735,-0.630006867,0.606355383,0.409895476,-0.022697795,-0.052834363,-0.037575341,-0.001953602,0.572405372,0.584126984,0.007326007,0.021978022,-0.021978022
2.828468,-0.630006867,0.616655222,0.420195315,-0.023079271,-0.052452888,-0.037575341,-0.001953602,0.572405372,0.576312576,-0.021978022,-0.007326007,-0.007326007
2.833642,-0.630006867,0.616655222,0.420195315,-0.023079271,-0.052452888,-0.037575341,-0.001953602,0.572405372,0.576312576,-0.021978022,-0.007326007,-0.007326007
2.838865,-0.630006867,0.616655222,0.420195315,-0.023079271,-0.052452888,-0.037575341,-0.005860806,0.572405372,0.595848596,-0.007326007,-0.021978022,-0.007326007
2.845016,-0.630006867,0.627336538,0.430876631,-0.022697795,-0.052834363,-0.037575341,-0.005860806,0.572405372,0.595848596,-0.007326007,-0.021978022,-0.007326007
2.850178,-0.630006867,0.627336538,0.430876631,-0.022697795,-0.052834363,-0.037575341,-0.005860806,0.572405372,0.595848596,-0.007326007,-0.021978022,-0.007326007
2.856610,-0.630006867,0.636873426,0.440413519,-0.023079271,-0.052452888,-0.037575341,-0.001953602,0.595848596,0.568498168,-0.021978022,0.007326007,0.007326007
2.861756,-0.630006867,0.636873426,0.440413519,-0.023079271,-0.052452888,-0.037575341,-0.001953602,0.595848596,0.568498168,-0.021978022,0.007326007,0.007326007
2.866935,-0.630006867,0.636873426,0.440413519,-0.023079271,-0.052452888,-0.037575341,-0.001953602,0.595848596,0.568498168,-0.021978022,0.007326007,0.007326007
2.872681,-0.630006867,0.649843595,0.453383688,-0.023079271,-0.052834363,-0.037575341,-0.001953602,0.584126984,0.576312576,-0.007326007,-0.021978022,-0.007326007
2.877727,-0.630006867,0.649843595,0.453383688,-0.023079271,-0.052834363,-0.037575341,-0.001953602,0.584126984,0.576312576,-0.007326007,-0.021978022,-0.007326007
2.882870,-0.630006867,0.649843595,0.453383688,-0.023079271,-0.052834363,-0.037575341,-0.001953602,0.584126984,0.576312576,-0.007326007,-0.021978022,-0.007326007
2.888504,-0.630006867,0.659380484,0.463302052,-0.022697795,-0.052452888,-0.037575341,-0.009768010,0.576312576,0.599755800,0.007326007,0.007326007,-0.007326007
2.893583,-0.630006867,0.659380484,0.463302052,-0.022697795,-0.052452888,-0.037575341,-0.009768010,0.576312576,0.599755800,0.007326007,0.007326007,-0.007326007
2.898644,-0.630388342,0.671969177,0.476272221,-0.022697795,-0.052452888,-0.037575341,-0.017582418,0.552869353,0.591941392,0.007326007,-0.007326007,-0.007326007
2.904821,-0.630388342,0.671969177,0.476272221,-0.022697795,-0.052452888,-0.037575341,-0.017582418,0.552869353,0.591941392,0.007326007,-0.007326007,-0.007326007
2.909960,-0.630388342,0.671969177,0.476272221,-0.022697795,-0.052452888,-0.037575341,-0.017582418,0.552869353,0.591941392,0.007326007,-0.007326007,-0.007326007
2.916157,-0.631532769,0.681506065,0.486190585,-0.023079271,-0.052452888,-0.037575341,-0.060561661,0.564590965,0.572405372,-0.021978022,-0.021978022,-0.021978022
2.921344,-0.631532769,0.681506065,0.486190585,-0.023079271,-0.052452888,-0.037575341,-0.060561661,0.564590965,0.572405372,-0.021978022,-0.021978022,-0.021978022
2.926455,-0.631532769,0.681506065,0.486190585,-0.023079271,-0.052452888,-0.037575341,-0.060561661,0.564590965,0.572405372,-0.021978022,-0.021978022,-0.021978022
2.932333,-0.633058671,0.691042954,0.496108949,-0.022697795,-0.052452888,-0.037575341,-0.076190476,0.556776557,0.588034188,0.007326007,-0.021978022,0.007326007
2.937427,-0.633058671,0.691042954,0.496108949,-0.022697795,-0.052452888,-0.037575341,-0.076190476,0.556776557,0.588034188,0.007326007,-0.021978022,0.007326007
2.943465,-0.634584573,0.700198367,0.506027314,-0.022697795,-0.052452888,-0.037575341,-0.103540904,0.556776557,0.588034188,0.007326007,-0.007326007,0.021978022
2.948554,-0.634584573,0.700198367,0.506027314,-0.022697795,-0.052452888,-0.037575341,-0.103540904,0.556776557,0.588034188,0.007326007,-0.007326007,0.021978022
2.953735,-0.634584573,0.700198367,0.506027314,-0.022697795,-0.052452888,-0.037575341,-0.103540904,0.556776557,0.588034188,0.007326007,-0.007326007,0.021978022
2.959339,-0.636110475,0.710116732,0.516708629,-0.022697795,-0.052452888,-0.037575341,-0.103540904,0.560683761,0.619291819,-0.007326007,0.007326007,-0.007326007
2.964551,-0.636110475,0.710116732,0.516708629,-0.022697795,-0.052452888,-0.037575341,-0.103540904,0.560683761,0.619291819,-0.007326007,0.007326007,-0.007326007
2.969731,-0.636110475,0.710116732,0.516708629,-0.022697795,-0.052452888,-0.037575341,-0.103540904,0.560683761,0.619291819,-0.007326007,0.007326007,-0.007326007
2.975434,-0.638780804,0.720416571,0.527008469,-0.022697795,-0.052452888,-0.037575341,-0.142612943,0.560683761,0.588034188,0.007326007,-0.021978022,-0.007326007
2.980622,-0.638780804,0.720416571,0.527008469,-0.022697795,-0.052452888,-0.037575341,-0.142612943,0.560683761,0.588034188,0.007326007,-0.021978022,-0.007326007
2.985803,-0.641069657,0.729953460,0.538071260,-0.023079271,-0.052452888,-0.037575341,-0.134798535,0.545054945,0.588034188,-0.021978022,-0.007326007,0.007326007
2.991871,-0.641069657,0.729953460,0.538071260,-0.023079271,-0.052452888,-0.037575341,-0.134798535,0.545054945,0.588034188,-0.021978022,-0.007326007,0.007326007
2.997101,-0.641069657,0.729953460,0.538071260,-0.023079271,-0.052452888,-0.037575341,-0.134798535,0.545054945,0.588034188,-0.021978022,-0.007326007,0.007326007
3.003059,-0.644121462,0.741779202,0.551041428,-0.023079271,-0.052452888,-0.037575341,-0.169963370,0.533333333,0.603663004,-0.007326007,-0.007326007,-0.021978022
3.008219,-0.644121462,0.741779202,0.551041428,-0.023079271,-0.052452888,-0.037575341,-0.169963370,0.533333333,0.603663004,-0.007326007,-0.007326007,-0.021978022
3.013462,-0.644121462,0.741779202,0.551041428,-0.023079271,-0.052452888,-0.037575341,-0.169963370,0.533333333,0.603663004,-0.007326007,-0.007326007,-0.021978022
3.019082,-0.646791791,0.750553140,0.560959792,-0.022697795,-0.052452888,-0.037575341,-0.150427350,0.505982906,0.591941392,0.007326007,-0.021978022,-0.007326007
3.024250,-0.646791791,0.750553140,0.560959792,-0.022697795,-0.052452888,-0.037575341,-0.150427350,0.505982906,0.591941392,0.007326007,-0.021978022,-0.007326007
3.029450,-0.646791791,0.750553140,0.560959792,-0.022697795,-0.052452888,-0.037575341,-0.150427350,0.505982906,0.591941392,0.007326007,-0.021978022,-0.007326007
3.035013,-0.650606546,0.761234455,0.572785534,-0.023079271,-0.052452888,-0.037575341,-0.197313797,0.505982906,0.576312576,-0.007326007,-0.007326007,0.007326007
3.040174,-0.650606546,0.761234455,0.572785534,-0.023079271,-0.052452888,-0.037575341,-0.197313797,0.505982906,0.576312576,-0.007326007,-0.007326007,0.007326007
3.045258,-0.653658350,0.769626917,0.583085374,-0.023079271,-0.052452888,-0.037575341,-0.173870574,0.502075702,0.595848596,-0.021978022,-0.007326007,-0.007326007
3.051112,-0.653658350,0.769626917,0.583085374,-0.023079271,-0.052452888,-0.037575341,-0.173870574,0.502075702,0.595848596,-0.021978022,-0.007326007,-0.007326007
3.056341,-0.653658350,0.769626917,0.583085374,-0.023079271,-0.052452888,-0.037575341,-0.173870574,0.502075702,0.595848596,-0.021978022,-0.007326007,-0.007326007
3.062080,-0.657473106,0.778782330,0.592240787,-0.022697795,-0.052452888,-0.037575341,-0.216849817,0.490354090,0.568498168,0.007326007,-0.021978022,-0.007326007
3.067298,-0.657473106,0.778782330,0.592240787,-0.022697795,-0.052452888,-0.037575341,-0.216849817,0.490354090,0.568498168,0.007326007,-0.021978022,-0.007326007
3.072391,-0.657473106,0.778782330,0.592240787,-0.022697795,-0.052452888,-0.037575341,-0.216849817,0.490354090,0.568498168,0.007326007,-0.021978022,-0.007326007
3.078661,-0.662050813,0.789082170,0.605592432,-0.022697795,-0.052452888,-0.037575341,-0.236385836,0.486446886,0.564590965,0.007326007,-0.007326007,0.021978022
3.083769,-0.662050813,0.789082170,0.605592432,-0.022697795,-0.052452888,-0.037575341,-0.236385836,0.486446886,0.564590965,0.007326007,-0.007326007,0.021978022
3.089019,-0.662050813,0.789082170,0.605592432,-0.022697795,-0.052452888,-0.037575341,-0.236385836,0.486446886,0.564590965,0.007326007,-0.007326007,0.021978022
3.094642,-0.667009995,0.799000534,0.617036698,-0.023079271,-0.052452888,-0.037575341,-0.232478632,0.463003663,0.576312576,-0.021978022,0.007326007,-0.007326007
3.099725,-0.667009995,0.799000534,0.617036698,-0.023079271,-0.052452888,-0.037575341,-0.232478632,0.463003663,0.576312576,-0.021978022,0.007326007,-0.007326007
3.104949,-0.667009995,0.799000534,0.617036698,-0.023079271,-0.052452888,-0.037575341,-0.232478632,0.463003663,0.576312576,-0.021978022,0.007326007,-0.007326007
3.110739,-0.670443275,0.805104143,0.626192111,-0.022697795,-0.052452888,-0.037575341,-0.236385836,0.435653236,0.572405372,-0.007326007,-0.021978022,-0.007326007
3.115874,-0.670443275,0.805104143,0.626192111,-0.022697795,-0.052452888,-0.037575341,-0.236385836,0.435653236,0.572405372,-0.007326007,-0.021978022,-0.007326007
3.120955,-0.675402457,0.812352178,0.636491951,-0.022697795,-0.052452888,-0.037575341,-0.244200244,0.396581197,0.548962149,-0.007326007,0.007326007,-0.021978022
3.126692,-0.675402457,0.812352178,0.636491951,-0.022697795,-0.052452888,-0.037575341,-0.244200244,0.396581197,0.548962149,-0.007326007,0.007326007,-0.021978022
3.131797,-0.675402457,0.812352178,0.636491951,-0.022697795,-0.052452888,-0.037575341,-0.244200244,0.396581197,0.548962149,-0.007326007,0.007326007,-0.021978022
3.138094,-0.679980163,0.819981689,0.647173266,-0.023079271,-0.052452888,-0.037575341,-0.271550672,0.384859585,0.556776557,-0.021978022,-0.007326007,-0.007326007
3.143311,-0.679980163,0.819981689,0.647173266,-0.023079271,-0.052452888,-0.037575341,-0.271550672,0.384859585,0.556776557,-0.021978022,-0.007326007,-0.007326007
3.148544,-0.679980163,0.819981689,0.647173266,-0.023079271,-0.052452888,-0.037575341,-0.271550672,0.384859585,0.556776557,-0.021978022,-0.007326007,-0.007326007
3.154841,-0.686083772,0.828374151,0.658236057,-0.022697795,-0.052452888,-0.037575341,-0.283272283,0.373137973,0.548962149,0.007326007,-0.021978022,-0.007326007
3.159966,-0.686083772,0.828374151,0.658236057,-0.022697795,-0.052452888,-0.037575341,-0.283272283,0.373137973,0.548962149,0.007326007,-0.021978022,-0.007326007
3.165042,-0.686083772,0.828374151,0.658236057,-0.022697795,-0.052452888,-0.037575341,-0.283272283,0.373137973,0.548962149,0.007326007,-0.021978022,-0.007326007
3.170789,-0.690280003,0.834477760,0.668154421,-0.023079271,-0.052452888,-0.037575341,-0.287179487,0.380952381,0.541147741,-0.007326007,-0.007326007,-0.021978022
3.175988,-0.690280003,0.834477760,0.668154421,-0.023079271,-0.052452888,-0.037575341,-0.287179487,0.380952381,0.541147741,-0.007326007,-0.007326007,-0.021978022
3.181426,-0.690280003,0.834477760,0.668154421,-0.023079271,-0.052452888,-0.037575341,-0.287179487,0.380952381,0.541147741,-0.007326007,-0.007326007,-0.021978022
3.187069,-0.697146563,0.843633173,0.679217212,-0.022697795,-0.052452888,-0.037575341,-0.306715507,0.435653236,0.537240537,0.007326007,-0.007326007,-0.007326007
3.192269,-0.697146563,0.843633173,0.679217212,-0.022697795,-0.052452888,-0.037575341,-0.306715507,0.435653236,0.537240537,0.007326007,-0.007326007,-0.007326007
3.197547,-0.702105745,0.851644160,0.687991150,-0.022697795,-0.052452888,-0.037575341,-0.326251526,0.435653236,0.502075702,0.007326007,-0.007326007,-0.007326007
3.203390,-0.702105745,0.851644160,0.687991150,-0.022697795,-0.052452888,-0.037575341,-0.326251526,0.435653236,0.502075702,0.007326007,-0.007326007,-0.007326007
3.208425,-0.702105745,0.851644160,0.687991150,-0.022697795,-0.052452888,-0.037575341,-0.326251526,0.435653236,0.502075702,0.007326007,-0.007326007,-0.007326007
3.214213,-0.707827878,0.858892195,0.696765087,-0.023079271,-0.052452888,-0.037575341,-0.310622711,0.447374847,0.502075702,-0.021978022,-0.021978022,-0.007326007
3.219645,-0.707827878,0.858892195,0.696765087,-0.023079271,-0.052452888,-0.037575341,-0.310622711,0.447374847,0.502075702,-0.021978022,-0.021978022,-0.007326007
3.224844,-0.707827878,0.858892195,0.696765087,-0.023079271,-0.052452888,-0.037575341,-0.310622711,0.447374847,0.502075702,-0.021978022,-0.021978022,-0.007326007
3.230597,-0.712787060,0.868810559,0.708209354,-0.022697795,-0.052452888,-0.037575341,-0.322344322,0.416117216,0.509890110,-0.007326007,-0.007326007,-0.007326007
3.235711,-0.712787060,0.868810559,0.708209354,-0.022697795,-0.052452888,-0.037575341,-0.322344322,0.416117216,0.509890110,-0.007326007,-0.007326007,-0.007326007
3.240829,-0.712787060,0.868810559,0.708209354,-0.022697795,-0.052452888,-0.037575341,-0.322344322,0.416117216,0.509890110,-0.007326007,-0.007326007,-0.007326007
3.246577,-0.720035096,0.875677119,0.715838865,-0.023079271,-0.052452888,-0.037575341,-0.341880342,0.404395604,0.435653236,-0.007326007,0.007326007,-0.007326007
3.251780,-0.720035096,0.875677119,0.715838865,-0.023079271,-0.052452888,-0.037575341,-0.341880342,0.404395604,0.435653236,-0.007326007,0.007326007,-0.007326007
3.256960,-0.720035096,0.875677119,0.715838865,-0.023079271,-0.052452888,-0.037575341,-0.341880342,0.404395604,0.435653236,-0.007326007,0.007326007,-0.007326007
3.262213,-0.728427558,0.885214008,0.728046082,-0.022697795,-0.052452888,-0.037575341,-0.334065934,0.353601954,0.470818071,-0.007326007,-0.021978022,-0.007326007
3.268431,-0.728427558,0.885214008,0.728046082,-0.022697795,-0.052452888,-0.037575341,-0.334065934,0.353601954,0.470818071,-0.007326007,-0.021978022,-0.007326007
3.273602,-0.728427558,0.885214008,0.728046082,-0.022697795,-0.052452888,-0.037575341,-0.334065934,0.353601954,0.470818071,-0.007326007,-0.021978022,-0.007326007
3.279196,-0.733768215,0.890936141,0.735675593,-0.022697795,-0.052452888,-0.037575341,-0.330158730,0.330158730,0.463003663,0.007326007,0.007326007,-0.021978022
3.284390,-0.733768215,0.890936141,0.735675593,-0.022697795,-0.052452888,-0.037575341,-0.330158730,0.330158730,0.463003663,0.007326007,0.007326007,-0.021978022
3.290041,-0.739108873,0.896276799,0.742160678,-0.022697795,-0.052452888,-0.037575341,-0.310622711,0.302808303,0.478632479,-0.021978022,-0.007326007,-0.007326007
3.295156,-0.739108873,0.896276799,0.742160678,-0.022697795,-0.052452888,-0.037575341,-0.310622711,0.302808303,0.478632479,-0.021978022,-0.007326007,-0.007326007
3.300323,-0.739108873,0.896276799,0.742160678,-0.022697795,-0.052452888,-0.037575341,-0.310622711,0.302808303,0.478632479,-0.021978022,-0.007326007,-0.007326007
3.306093,-0.744831006,0.901235981,0.750934615,-0.022697795,-0.052452888,-0.037575341,-0.294993895,0.283272283,0.451282051,0.021978022,-0.007326007,-0.007326007
3.311494,-0.744831006,0.901235981,0.750934615,-0.022697795,-0.052452888,-0.037575341,-0.294993895,0.283272283,0.451282051,0.021978022,-0.007326007,-0.007326007
3.316670,-0.744831006,0.901235981,0.750934615,-0.022697795,-0.052452888,-0.037575341,-0.294993895,0.283272283,0.451282051,0.021978022,-0.007326007,-0.007326007
3.322639,-0.750934615,0.907339590,0.760090028,-0.022697795,-0.052834363,-0.037575341,-0.302808303,0.267643468,0.463003663,-0.007326007,-0.021978022,0.007326007
3.327757,-0.750934615,0.907339590,0.760090028,-0.022697795,-0.052834363,-0.037575341,-0.302808303,0.267643468,0.463003663,-0.007326007,-0.021978022,0.007326007
3.332871,-0.750934615,0.907339590,0.760090028,-0.022697795,-0.052834363,-0.037575341,-0.302808303,0.267643468,0.463003663,-0.007326007,-0.021978022,0.007326007
3.338630,-0.755893797,0.912298772,0.768863966,-0.022697795,-0.052452888,-0.037575341,-0.287179487,0.275457875,0.463003663,0.007326007,-0.007326007,-0.021978022
3.343706,-0.755893797,0.912298772,0.768863966,-0.022697795,-0.052452888,-0.037575341,-0.287179487,0.275457875,0.463003663,0.007326007,-0.007326007,-0.021978022
3.348891,-0.755893797,0.912298772,0.768863966,-0.022697795,-0.052452888,-0.037575341,-0.287179487,0.275457875,0.463003663,0.007326007,-0.007326007,-0.021978022
3.354532,-0.761615930,0.918402380,0.778782330,-0.022697795,-0.052834363,-0.037575341,-0.275457875,0.283272283,0.463003663,-0.021978022,-0.021978022,-0.007326007
3.359642,-0.761615930,0.918402380,0.778782330,-0.022697795,-0.052834363,-0.037575341,-0.275457875,0.283272283,0.463003663,-0.021978022,-0.021978022,-0.007326007
3.364859,-0.761615930,0.918402380,0.778782330,-0.022697795,-0.052834363,-0.037575341,-0.275457875,0.283272283,0.463003663,-0.021978022,-0.021978022,-0.007326007
3.370557,-0.767719539,0.924887465,0.788700694,-0.022697795,-0.052834363,-0.037575341,-0.279365079,0.314529915,0.443467643,-0.007326007,-0.021978022,-0.007326007
3.375737,-0.767719539,0.924887465,0.788700694,-0.022697795,-0.052834363,-0.037575341,-0.279365079,0.314529915,0.443467643,-0.007326007,-0.021978022,-0.007326007
3.380825,-0.767719539,0.924887465,0.788700694,-0.022697795,-0.052834363,-0.037575341,-0.279365079,0.314529915,0.443467643,-0.007326007,-0.021978022,-0.007326007
3.386487,-0.773823148,0.932516976,0.797856107,-0.022697795,-0.052452888,-0.037575341,-0.267643468,0.345787546,0.455189255,-0.007326007,-0.007326007,0.007326007
3.391664,-0.773823148,0.932516976,0.797856107,-0.022697795,-0.052452888,-0.037575341,-0.267643468,0.345787546,0.455189255,-0.007326007,-0.007326007,0.007326007
