StarTouch-dhu/lerobot_startouch/startouch_py/trajectory.csv
t,q1,q2,q3,q4,q5,q6,dq1,dq2,dq3,dq4,dq5,dq6
0.003845,-0.000572213,-0.004768444,0.039482719,-0.024605173,-0.000953689,-0.000572213,-0.005860806,-0.005860806,0.001953602,-0.007326007,0.007326007,0.007326007
0.009855,-0.000572213,-0.004768444,0.039482719,-0.024605173,-0.000953689,-0.000572213,-0.001953602,0.001953602,0.001953602,0.007326007,-0.007326007,-0.007326007
0.015338,-0.000572213,-0.004768444,0.039482719,-0.024605173,-0.000953689,-0.000572213,-0.001953602,-0.001953602,-0.001953602,0.007326007,0.007326007,-0.007326007
0.020590,-0.000572213,-0.004768444,0.039482719,-0.024605173,-0.000953689,-0.000572213,-0.001953602,-0.001953602,0.001953602,-0.007326007,-0.021978022,-0.007326007
0.026035,-0.000572213,-0.004768444,0.039482719,-0.024605173,-0.000953689,-0.000572213,-0.001953602,0.001953602,-0.001953602,-0.007326007,0.007326007,0.007326007
0.031882,-0.000572213,-0.004768444,0.039482719,-0.024605173,-0.000953689,-0.000572213,-0.005860806,-0.001953602,-0.001953602,-0.007326007,-0.007326007,-0.007326007
0.037262,-0.000572213,-0.004768444,0.039482719,-0.024605173,-0.000953689,-0.000572213,-0.001953602,-0.001953602,-0.001953602,-0.007326007,-0.007326007,-0.021978022
0.042825,-0.000572213,-0.004768444,0.039482719,-0.024605173,-0.000953689,-0.000572213,-0.001953602,-0.001953602,-0.001953602,-0.021978022,-0.007326007,-0.021978022
0.048110,-0.000572213,-0.004768444,0.039482719,-0.024605173,-0.000953689,-0.000572213,-0.001953602,-0.001953602,-0.001953602,-0.007326007,-0.021978022,-0.021978022
0.053437,-0.000572213,-0.004768444,0.039482719,-0.024223697,-0.000953689,-0.000572213,-0.001953602,-0.005860806,-0.005860806,-0.021978022,-0.007326007,-0.007326007
0.059186,-0.000572213,-0.004768444,0.039482719,-0.024223697,-0.000953689,-0.000572213,-0.001953602,-0.001953602,-0.001953602,0.007326007,-0.007326007,0.007326007
0.064520,-0.000572213,-0.004768444,0.039482719,-0.024605173,-0.000953689,-0.000572213,-0.005860806,-0.001953602,-0.005860806,0.007326007,-0.021978022,0.007326007
0.070081,-0.000572213,-0.004768444,0.039482719,-0.024605173,-0.000953689,-0.000572213,-0.001953602,-0.001953602,0.001953602,-0.021978022,-0.007326007,-0.007326007
0.075514,-0.000572213,-0.004768444,0.039482719,-0.024605173,-0.000953689,-0.000572213,-0.005860806,-0.001953602,-0.001953602,-0.007326007,-0.007326007,-0.007326007
0.080928,-0.000572213,-0.004768444,0.039482719,-0.024605173,-0.000953689,-0.000572213,-0.005860806,-0.001953602,-0.001953602,-0.007326007,-0.021978022,-0.021978022
0.086620,-0.000572213,-0.004768444,0.039482719,-0.024605173,-0.000953689,-0.000572213,-0.001953602,-0.001953602,-0.001953602,-0.007326007,-0.007326007,-0.021978022
0.092041,-0.000572213,-0.004768444,0.039482719,-0.024605173,-0.000953689,-0.000572213,-0.001953602,-0.001953602,0.001953602,-0.007326007,-0.007326007,-0.007326007
0.097729,-0.000572213,-0.004768444,0.039482719,-0.024605173,-0.000953689,-0.000572213,0.001953602,-0.001953602,-0.005860806,-0.007326007,-0.021978022,-0.007326007
0.103034,-0.000572213,-0.004768444,0.039482719,-0.024223697,-0.000953689,-0.000572213,0.001953602,0.001953602,-0.005860806,0.007326007,0.007326007,0.007326007
0.108349,-0.000572213,-0.004768444,0.039482719,-0.024605173,-0.000953689,-0.000572213,-0.005860806,-0.001953602,0.001953602,-0.007326007,-0.007326007,-0.007326007
0.113942,-0.000572213,-0.004768444,0.039482719,-0.024605173,-0.000953689,-0.000572213,-0.001953602,-0.001953602,-0.005860806,-0.007326007,-0.007326007,-0.007326007
0.119310,-0.000572213,-0.004768444,0.039482719,-0.024605173,-0.000953689,-0.000572213,-0.005860806,-0.001953602,0.001953602,-0.021978022,0.007326007,-0.021978022
0.125018,-0.000572213,-0.004768444,0.039482719,-0.024223697,-0.000953689,-0.000572213,0.001953602,-0.001953602,-0.001953602,0.007326007,-0.007326007,-0.007326007
0.130368,-0.000572213,-0.004768444,0.039482719,-0.024605173,-0.000953689,-0.000572213,-0.001953602,0.001953602,-0.001953602,0.007326007,-0.021978022,-0.007326007
0.135710,-0.000572213,-0.004768444,0.039482719,-0.024605173,-0.000953689,-0.000572213,-0.001953602,-0.001953602,-0.001953602,-0.021978022,0.007326007,0.007326007
0.141413,-0.000572213,-0.004768444,0.039482719,-0.024605173,-0.000953689,-0.000572213,-0.001953602,-0.001953602,-0.001953602,0.007326007,0.007326007,0.007326007
0.146678,-0.000572213,-0.004768444,0.039482719,-0.024605173,-0.000953689,-0.000572213,0.001953602,-0.001953602,-0.001953602,-0.007326007,-0.007326007,-0.007326007
0.152227,-0.000572213,-0.004768444,0.039482719,-0.024605173,-0.000953689,-0.000572213,-0.001953602,-0.001953602,-0.005860806,-0.007326007,-0.007326007,-0.007326007
0.157452,-0.000572213,-0.004768444,0.039482719,-0.024605173,-0.000953689,-0.000572213,-0.005860806,-0.005860806,-0.001953602,-0.007326007,-0.007326007,-0.007326007
0.162685,-0.000572213,-0.004768444,0.039482719,-0.024223697,-0.000953689,-0.000572213,-0.001953602,-0.001953602,0.001953602,-0.007326007,-0.007326007,-0.007326007
0.169053,-0.000572213,-0.004768444,0.039482719,-0.024605173,-0.000953689,-0.000572213,-0.001953602,-0.001953602,0.001953602,-0.007326007,-0.007326007,-0.007326007
0.174145,-0.000572213,-0.004768444,0.039482719,-0.024605173,-0.000953689,-0.000572213,0.001953602,-0.001953602,-0.001953602,-0.007326007,-0.007326007,0.007326007
0.179623,-0.000572213,-0.004768444,0.039482719,-0.024605173,-0.000953689,-0.000572213,-0.001953602,-0.001953602,-0.005860806,-0.007326007,-0.007326007,0.007326007
0.184871,-0.000572213,-0.004768444,0.039482719,-0.024605173,-0.000953689,-0.000572213,-0.005860806,0.001953602,0.001953602,-0.007326007,0.007326007,-0.007326007
0.190130,-0.000572213,-0.004768444,0.039482719,-0.024605173,-0.000953689,-0.000572213,-0.005860806,-0.001953602,-0.001953602,0.007326007,0.007326007,-0.007326007
0.196032,-0.000572213,-0.004768444,0.039482719,-0.024223697,-0.000953689,-0.000572213,-0.005860806,-0.001953602,-0.001953602,0.007326007,-0.021978022,-0.021978022
0.201390,-0.000572213,-0.004768444,0.039482719,-0.024223697,-0.000953689,-0.000572213,0.001953602,-0.005860806,-0.005860806,-0.007326007,0.007326007,-0.007326007
0.207101,-0.000572213,-0.004768444,0.039482719,-0.024605173,-0.000953689,-0.000572213,-0.001953602,-0.001953602,-0.001953602,0.007326007,-0.007326007,0.007326007
0.212440,-0.000572213,-0.004768444,0.039482719,-0.024223697,-0.000953689,-0.000572213,-0.001953602,-0.001953602,0.001953602,0.007326007,0.007326007,-0.007326007
0.217795,-0.000572213,-0.004768444,0.039482719,-0.024223697,-0.000953689,-0.000572213,0.001953602,-0.001953602,-0.001953602,0.007326007,-0.021978022,-0.007326007
0.223455,-0.000572213,-0.004768444,0.039482719,-0.024605173,-0.000953689,-0.000572213,-0.001953602,-0.001953602,0.001953602,-0.021978022,-0.007326007,0.007326007
0.228661,-0.000572213,-0.004768444,0.039482719,-0.024223697,-0.000953689,-0.000572213,-0.005860806,-0.001953602,-0.001953602,0.007326007,-0.007326007,-0.007326007
0.234302,-0.000572213,-0.004768444,0.039482719,-0.024605173,-0.000953689,-0.000572213,-0.001953602,0.001953602,-0.001953602,-0.007326007,-0.007326007,-0.021978022
0.239626,-0.000572213,-0.004768444,0.039482719,-0.024605173,-0.000953689,-0.000572213,-0.001953602,-0.001953602,-0.001953602,-0.007326007,-0.007326007,0.007326007
0.244974,-0.000572213,-0.004768444,0.039482719,-0.024605173,-0.000953689,-0.000572213,-0.005860806,-0.001953602,-0.001953602,-0.021978022,-0.007326007,-0.007326007
0.251009,-0.000572213,-0.004768444,0.039482719,-0.024605173,-0.000953689,-0.000572213,-0.005860806,-0.001953602,-0.001953602,0.007326007,-0.021978022,-0.007326007
0.256272,-0.000572213,-0.004768444,0.039482719,-0.024605173,-0.000953689,-0.000572213,-0.001953602,-0.001953602,-0.001953602,-0.007326007,-0.007326007,-0.007326007
0.261848,-0.000572213,-0.004768444,0.039482719,-0.024605173,-0.000953689,-0.000572213,-0.001953602,0.001953602,-0.001953602,-0.007326007,-0.021978022,0.007326007
0.267141,-0.000572213,-0.004768444,0.039482719,-0.024605173,-0.000953689,-0.000572213,-0.001953602,-0.005860806,-0.001953602,-0.007326007,-0.007326007,-0.007326007
0.272412,-0.000572213,-0.004768444,0.039482719,-0.024605173,-0.000953689,-0.000572213,0.001953602,-0.005860806,-0.001953602,-0.007326007,-0.007326007,-0.021978022
0.278158,-0.000572213,-0.004768444,0.039482719,-0.024605173,-0.000953689,-0.000572213,-0.001953602,-0.001953602,-0.001953602,-0.007326007,-0.007326007,-0.021978022
0.283384,-0.000572213,-0.004768444,0.039482719,-0.024223697,-0.000953689,-0.000572213,-0.001953602,-0.001953602,-0.001953602,-0.007326007,0.007326007,-0.007326007
0.289227,-0.000572213,-0.004768444,0.039482719,-0.024605173,-0.000953689,-0.000572213,0.001953602,-0.001953602,-0.001953602,-0.007326007,-0.021978022,-0.007326007
0.294544,-0.000572213,-0.004768444,0.039482719,-0.024605173,-0.000953689,-0.000572213,-0.001953602,-0.005860806,0.001953602,-0.007326007,-0.007326007,-0.021978022
0.300062,-0.000572213,-0.004768444,0.039482719,-0.024605173,-0.000953689,-0.000572213,-0.001953602,0.001953602,-0.001953602,-0.021978022,-0.007326007,-0.007326007
0.305994,-0.000572213,-0.004768444,0.039482719,-0.024605173,-0.000953689,-0.000572213,-0.001953602,-0.001953602,-0.005860806,0.007326007,-0.007326007,-0.007326007
0.311485,-0.000572213,-0.004768444,0.039482719,-0.024605173,-0.000953689,-0.000572213,-0.001953602,0.001953602,-0.001953602,-0.007326007,-0.007326007,-0.007326007
0.316839,-0.000572213,-0.004768444,0.039482719,-0.024223697,-0.000953689,-0.000572213,-0.001953602,0.001953602,-0.005860806,0.007326007,0.007326007,-0.007326007
0.322326,-0.000572213,-0.004768444,0.039482719,-0.024605173,-0.000953689,-0.000572213,0.001953602,-0.001953602,-0.001953602,-0.021978022,-0.007326007,0.007326007
0.327474,-0.000572213,-0.004768444,0.039482719,-0.024605173,-0.000953689,-0.000572213,0.001953602,-0.001953602,-0.001953602,-0.021978022,-0.007326007,0.007326007
0.332886,-0.000572213,-0.004768444,0.039482719,-0.024605173,-0.000953689,-0.000572213,-0.001953602,0.001953602,-0.001953602,0.007326007,-0.021978022,-0.007326007
0.341479,-0.000572213,-0.004768444,0.039482719,-0.024605173,-0.000953689,-0.000572213,-0.001953602,-0.001953602,-0.001953602,-0.007326007,-0.007326007,-0.021978022
0.347526,-0.000572213,-0.004768444,0.039482719,-0.024605173,-0.000953689,-0.000572213,-0.001953602,-0.001953602,-0.001953602,-0.007326007,-0.007326007,-0.021978022
0.352629,-0.000572213,-0.004768444,0.039482719,-0.024605173,-0.000953689,-0.000572213,-0.001953602,-0.001953602,-0.001953602,-0.007326007,-0.007326007,-0.021978022
0.358494,-0.000572213,-0.004768444,0.039482719,-0.024605173,-0.000953689,-0.000572213,-0.001953602,-0.001953602,-0.005860806,0.007326007,-0.021978022,-0.007326007
0.363650,-0.000572213,-0.004768444,0.039482719,-0.024605173,-0.000953689,-0.000572213,-0.001953602,-0.001953602,-0.005860806,0.007326007,-0.021978022,-0.007326007
0.368742,-0.000572213,-0.004768444,0.039482719,-0.024605173,-0.000953689,-0.000572213,-0.001953602,-0.001953602,-0.005860806,0.007326007,-0.021978022,-0.007326007
0.374454,-0.000572213,-0.004768444,0.039482719,-0.024223697,-0.000953689,-0.000572213,-0.001953602,-0.001953602,0.001953602,-0.007326007,-0.007326007,-0.007326007
0.379627,-0.000572213,-0.004768444,0.039482719,-0.024223697,-0.000953689,-0.000572213,-0.001953602,-0.001953602,0.001953602,-0.007326007,-0.007326007,-0.007326007
0.385864,-0.000572213,-0.004768444,0.039482719,-0.024605173,-0.000953689,-0.000572213,-0.001953602,0.001953602,-0.001953602,0.007326007,-0.021978022,-0.007326007
0.391093,-0.000572213,-0.004768444,0.039482719,-0.024605173,-0.000953689,-0.000572213,-0.001953602,0.001953602,-0.001953602,0.007326007,-0.021978022,-0.007326007
0.396225,-0.000572213,-0.004768444,0.039482719,-0.024605173,-0.000953689,-0.000572213,-0.001953602,0.001953602,-0.001953602,0.007326007,-0.021978022,-0.007326007
0.401325,-0.000572213,-0.004005493,0.039482719,-0.024605173,-0.000953689,-0.000572213,0.001953602,0.029304029,-0.001953602,-0.007326007,-0.021978022,-0.021978022
0.407448,-0.000572213,-0.004005493,0.039482719,-0.024605173,-0.000953689,-0.000572213,0.001953602,0.029304029,-0.001953602,-0.007326007,-0.021978022,-0.021978022
0.412541,-0.000572213,-0.004005493,0.039482719,-0.024605173,-0.000953689,-0.000572213,0.001953602,0.029304029,-0.001953602,-0.007326007,-0.021978022,-0.021978022
0.418498,-0.000572213,-0.003242542,0.039482719,-0.024605173,-0.000953689,-0.000572213,-0.001953602,0.037118437,-0.001953602,-0.007326007,0.007326007,-0.007326007
0.423742,-0.000572213,-0.003242542,0.039482719,-0.024605173,-0.000953689,-0.000572213,-0.001953602,0.037118437,-0.001953602,-0.007326007,0.007326007,-0.007326007
0.428863,-0.000572213,-0.003242542,0.039482719,-0.024605173,-0.000953689,-0.000572213,-0.001953602,0.037118437,-0.001953602,-0.007326007,0.007326007,-0.007326007
0.434706,-0.000572213,-0.002098116,0.039482719,-0.024223697,-0.000953689,-0.000572213,-0.005860806,0.060561661,0.001953602,-0.007326007,-0.021978022,0.007326007
0.439824,-0.000572213,-0.002098116,0.039482719,-0.024223697,-0.000953689,-0.000572213,-0.005860806,0.060561661,0.001953602,-0.007326007,-0.021978022,0.007326007
0.445155,-0.000572213,-0.000190738,0.039482719,-0.024223697,-0.000953689,-0.000572213,0.001953602,0.119169719,0.001953602,-0.007326007,-0.007326007,-0.007326007
0.451275,-0.000572213,-0.000190738,0.039482719,-0.024223697,-0.000953689,-0.000572213,0.001953602,0.119169719,0.001953602,-0.007326007,-0.007326007,-0.007326007
0.456473,-0.000572213,-0.000190738,0.039482719,-0.024223697,-0.000953689,-0.000572213,0.001953602,0.119169719,0.001953602,-0.007326007,-0.007326007,-0.007326007
0.462194,-0.000572213,0.002479591,0.039482719,-0.024223697,-0.000953689,-0.000572213,-0.005860806,0.150427350,-0.001953602,-0.007326007,-0.007326007,0.007326007
0.467345,-0.000572213,0.002479591,0.039482719,-0.024223697,-0.000953689,-0.000572213,-0.005860806,0.150427350,-0.001953602,-0.007326007,-0.007326007,0.007326007
0.472504,-0.000572213,0.002479591,0.039482719,-0.024223697,-0.000953689,-0.000572213,-0.005860806,0.150427350,-0.001953602,-0.007326007,-0.007326007,0.007326007
0.478251,-0.000572213,0.006294347,0.039482719,-0.024223697,-0.000953689,-0.000572213,-0.005860806,0.224664225,0.001953602,-0.007326007,-0.007326007,-0.021978022
0.483444,-0.000572213,0.006294347,0.039482719,-0.024223697,-0.000953689,-0.000572213,-0.005860806,0.224664225,0.001953602,-0.007326007,-0.007326007,-0.021978022
0.488613,-0.000572213,0.010490578,0.039482719,-0.024223697,-0.000953689,-0.000572213,0.001953602,0.224664225,0.009768010,-0.007326007,-0.007326007,0.007326007
0.495030,-0.000572213,0.010490578,0.039482719,-0.024223697,-0.000953689,-0.000572213,0.001953602,0.224664225,0.009768010,-0.007326007,-0.007326007,0.007326007
0.500175,-0.000572213,0.010490578,0.039482719,-0.024223697,-0.000953689,-0.000572213,0.001953602,0.224664225,0.009768010,-0.007326007,-0.007326007,0.007326007
0.505780,-0.000572213,0.015831235,0.039864195,-0.024605173,-0.000953689,-0.000572213,-0.001953602,0.263736264,0.013675214,-0.021978022,-0.021978022,-0.007326007
0.510983,-0.000572213,0.015831235,0.039864195,-0.024605173,-0.000953689,-0.000572213,-0.001953602,0.263736264,0.013675214,-0.021978022,-0.021978022,-0.007326007
0.516170,-0.000572213,0.015831235,0.039864195,-0.024605173,-0.000953689,-0.000572213,-0.001953602,0.263736264,0.013675214,-0.021978022,-0.021978022,-0.007326007
0.521709,-0.000572213,0.021171893,0.040245670,-0.024605173,-0.000953689,-0.000572213,0.001953602,0.318437118,0.013675214,-0.007326007,0.007326007,-0.007326007
0.526842,-0.000572213,0.021171893,0.040245670,-0.024605173,-0.000953689,-0.000572213,0.001953602,0.318437118,0.013675214,-0.007326007,0.007326007,-0.007326007
0.531981,-0.000572213,0.027656977,0.041008621,-0.024605173,-0.000953689,-0.000572213,-0.001953602,0.353601954,0.044932845,-0.021978022,0.007326007,-0.021978022
0.537573,-0.000572213,0.027656977,0.041008621,-0.024605173,-0.000953689,-0.000572213,-0.001953602,0.353601954,0.044932845,-0.021978022,0.007326007,-0.021978022
0.542681,-0.000572213,0.027656977,0.041008621,-0.024605173,-0.000953689,-0.000572213,-0.001953602,0.353601954,0.044932845,-0.021978022,0.007326007,-0.021978022
0.548792,-0.000572213,0.034523537,0.041771572,-0.024605173,-0.000953689,-0.000572213,-0.001953602,0.384859585,0.056654457,0.007326007,-0.007326007,-0.021978022
0.553833,-0.000572213,0.034523537,0.041771572,-0.024605173,-0.000953689,-0.000572213,-0.001953602,0.384859585,0.056654457,0.007326007,-0.007326007,-0.021978022
0.558954,-0.000572213,0.034523537,0.041771572,-0.024605173,-0.000953689,-0.000572213,-0.001953602,0.384859585,0.056654457,0.007326007,-0.007326007,-0.021978022
0.563957,-0.000572213,0.034523537,0.041771572,-0.024605173,-0.000953689,-0.000572213,-0.001953602,0.431746032,0.099633700,-0.036630037,-0.007326007,-0.007326007
0.569646,-0.000572213,0.044060426,0.044060426,-0.024986648,-0.000953689,-0.000572213,-0.001953602,0.431746032,0.099633700,-0.036630037,-0.007326007,-0.007326007
0.574733,-0.000572213,0.044060426,0.044060426,-0.024986648,-0.000953689,-0.000572213,-0.001953602,0.431746032,0.099633700,-0.036630037,-0.007326007,-0.007326007
0.579794,-0.000572213,0.044060426,0.044060426,-0.024986648,-0.000953689,-0.000572213,-0.001953602,0.463003663,0.130891331,-0.007326007,-0.007326007,-0.007326007
0.585500,-0.000572213,0.054360266,0.046730755,-0.024986648,-0.000953689,-0.000572213,-0.001953602,0.463003663,0.130891331,-0.007326007,-0.007326007,-0.007326007
0.590501,-0.000572213,0.054360266,0.046730755,-0.024986648,-0.000953689,-0.000572213,-0.001953602,0.463003663,0.130891331,-0.007326007,-0.007326007,-0.007326007
0.595970,-0.000572213,0.061989776,0.049401083,-0.025368124,-0.000953689,-0.000572213,-0.001953602,0.466910867,0.185592186,-0.051282051,-0.021978022,-0.007326007
0.601178,-0.000572213,0.061989776,0.049401083,-0.025368124,-0.000953689,-0.000572213,-0.001953602,0.466910867,0.185592186,-0.051282051,-0.021978022,-0.007326007
0.606293,-0.000572213,0.061989776,0.049401083,-0.025368124,-0.000953689,-0.000572213,-0.001953602,0.466910867,0.185592186,-0.051282051,-0.021978022,-0.007326007
0.612114,-0.000572213,0.072289616,0.054360266,-0.028419928,-0.000953689,-0.000572213,-0.001953602,0.466910867,0.240293040,-0.168498168,-0.021978022,0.007326007
0.617350,-0.000572213,0.072289616,0.054360266,-0.028419928,-0.000953689,-0.000572213,-0.001953602,0.466910867,0.240293040,-0.168498168,-0.021978022,0.007326007
0.622431,-0.000572213,0.072289616,0.054360266,-0.028419928,-0.000953689,-0.000572213,-0.001953602,0.466910867,0.240293040,-0.168498168,-0.021978022,0.007326007
0.627929,-0.000572213,0.078774701,0.058937972,-0.031471733,-0.000953689,-0.000572213,-0.001953602,0.455189255,0.248107448,-0.227106227,-0.007326007,-0.021978022
0.633070,-0.000572213,0.078774701,0.058937972,-0.031471733,-0.000953689,-0.000572213,-0.001953602,0.455189255,0.248107448,-0.227106227,-0.007326007,-0.021978022
0.638133,-0.000572213,0.078774701,0.058937972,-0.031471733,-0.000953689,-0.000572213,-0.001953602,0.455189255,0.248107448,-0.227106227,-0.007326007,-0.021978022
0.643644,-0.000572213,0.088693065,0.065423056,-0.032616159,-0.000953689,-0.000572213,-0.005860806,0.443467643,0.306715507,-0.065934066,-0.021978022,-0.007326007
0.648659,-0.000572213,0.088693065,0.065423056,-0.032616159,-0.000953689,-0.000572213,-0.005860806,0.443467643,0.306715507,-0.065934066,-0.021978022,-0.007326007
0.653825,-0.000572213,0.088693065,0.065423056,-0.032616159,-0.000953689,-0.000572213,-0.005860806,0.443467643,0.306715507,-0.065934066,-0.021978022,-0.007326007
0.659493,-0.000572213,0.098229953,0.072671092,-0.032997635,-0.000953689,-0.000572213,-0.001953602,0.427838828,0.349694750,0.007326007,-0.007326007,-0.021978022
0.664538,-0.000572213,0.098229953,0.072671092,-0.032997635,-0.000953689,-0.000572213,-0.001953602,0.427838828,0.349694750,0.007326007,-0.007326007,-0.021978022
0.669559,-0.000572213,0.098229953,0.072671092,-0.032997635,-0.000953689,-0.000572213,-0.001953602,0.427838828,0.349694750,0.007326007,-0.007326007,-0.021978022
0.675046,-0.000572213,0.104715038,0.077630274,-0.032616159,-0.000953689,-0.000572213,0.001953602,0.431746032,0.357509158,0.007326007,-0.021978022,0.007326007
0.680055,-0.000572213,0.104715038,0.077630274,-0.032616159,-0.000953689,-0.000572213,0.001953602,0.431746032,0.357509158,0.007326007,-0.021978022,0.007326007
0.685831,-0.000572213,0.111581598,0.084115358,-0.032616159,-0.000953689,-0.000572213,-0.001953602,0.420024420,0.420024420,-0.007326007,-0.007326007,-0.007326007
0.690886,-0.000572213,0.111581598,0.084115358,-0.032616159,-0.000953689,-0.000572213,-0.001953602,0.420024420,0.420024420,-0.007326007,-0.007326007,-0.007326007
0.696956,-0.000572213,0.118829633,0.090981918,-0.032997635,-0.000953689,-0.000572213,-0.005860806,0.447374847,0.423931624,-0.007326007,-0.021978022,-0.021978022
0.702005,-0.000572213,0.118829633,0.090981918,-0.032997635,-0.000953689,-0.000572213,-0.005860806,0.447374847,0.423931624,-0.007326007,-0.021978022,-0.021978022
0.707061,-0.000572213,0.118829633,0.090981918,-0.032997635,-0.000953689,-0.000572213,-0.005860806,0.447374847,0.423931624,-0.007326007,-0.021978022,-0.021978022
0.712626,-0.000572213,0.126459144,0.097848478,-0.032616159,-0.000953689,-0.000572213,-0.001953602,0.459096459,0.443467643,0.021978022,-0.021978022,-0.007326007
0.717735,-0.000572213,0.126459144,0.097848478,-0.032616159,-0.000953689,-0.000572213,-0.001953602,0.459096459,0.443467643,0.021978022,-0.021978022,-0.007326007
0.726068,-0.000572213,0.135614557,0.107766842,-0.032997635,-0.000953689,-0.000572213,-0.001953602,0.466910867,0.486446886,-0.021978022,-0.007326007,-0.007326007
0.731102,-0.000572213,0.135614557,0.107766842,-0.032997635,-0.000953689,-0.000572213,-0.001953602,0.466910867,0.486446886,-0.021978022,-0.007326007,-0.007326007
0.739668,-0.000572213,0.143625544,0.115777829,-0.032616159,-0.000953689,-0.000572213,-0.001953602,0.494261294,0.494261294,-0.007326007,-0.021978022,-0.021978022
0.747838,-0.000572213,0.143625544,0.115777829,-0.032616159,-0.000953689,-0.000572213,-0.001953602,0.494261294,0.494261294,-0.007326007,-0.021978022,-0.021978022
0.753400,-0.000572213,0.151636530,0.124933242,-0.032997635,-0.000953689,-0.000572213,-0.001953602,0.490354090,0.552869353,-0.036630037,-0.007326007,-0.007326007
0.761774,-0.000572213,0.151636530,0.124933242,-0.032997635,-0.000953689,-0.000572213,-0.001953602,0.490354090,0.552869353,-0.036630037,-0.007326007,-0.007326007
0.770189,-0.000572213,0.162699321,0.137903410,-0.032616159,-0.000953689,-0.000572213,-0.001953602,0.490354090,0.603663004,-0.021978022,0.007326007,-0.007326007
0.778716,-0.000572213,0.162699321,0.137903410,-0.032616159,-0.000953689,-0.000572213,-0.001953602,0.490354090,0.603663004,-0.021978022,0.007326007,-0.007326007
0.787242,-0.000572213,0.171091783,0.147821775,-0.032997635,-0.000953689,-0.000572213,-0.001953602,0.521611722,0.603663004,-0.021978022,-0.007326007,0.007326007
0.792336,-0.000572213,0.171091783,0.147821775,-0.032997635,-0.000953689,-0.000572213,-0.001953602,0.521611722,0.603663004,-0.021978022,-0.007326007,0.007326007
0.797380,-0.000572213,0.171091783,0.147821775,-0.032997635,-0.000953689,-0.000572213,-0.001953602,0.521611722,0.603663004,-0.021978022,-0.007326007,0.007326007
0.803133,-0.000572213,0.182536049,0.162317845,-0.032997635,-0.000953689,-0.000572213,-0.001953602,0.517704518,0.654456654,-0.021978022,-0.007326007,-0.007326007
0.808347,-0.000572213,0.182536049,0.162317845,-0.032997635,-0.000953689,-0.000572213,-0.001953602,0.517704518,0.654456654,-0.021978022,-0.007326007,-0.007326007
0.814579,-0.000572213,0.191309987,0.174143587,-0.032997635,-0.000953689,-0.000572213,-0.005860806,0.541147741,0.709157509,-0.007326007,-0.007326007,-0.007326007
0.819848,-0.000572213,0.191309987,0.174143587,-0.032997635,-0.000953689,-0.000572213,-0.005860806,0.541147741,0.709157509,-0.007326007,-0.007326007,-0.007326007
0.824950,-0.000572213,0.191309987,0.174143587,-0.032997635,-0.000953689,-0.000572213,-0.005860806,0.541147741,0.709157509,-0.007326007,-0.007326007,-0.007326007
0.830710,-0.000572213,0.201228351,0.186350805,-0.032997635,-0.000953689,-0.000572213,-0.001953602,0.541147741,0.759951160,0.007326007,-0.007326007,-0.007326007
0.835824,-0.000572213,0.201228351,0.186350805,-0.032997635,-0.000953689,-0.000572213,-0.001953602,0.541147741,0.759951160,0.007326007,-0.007326007,-0.007326007
0.841055,-0.000572213,0.201228351,0.186350805,-0.032997635,-0.000953689,-0.000572213,-0.001953602,0.541147741,0.759951160,0.007326007,-0.007326007,-0.007326007
0.846660,-0.000572213,0.211909667,0.201609827,-0.032997635,-0.000953689,-0.000572213,0.001953602,0.576312576,0.783394383,-0.007326007,-0.007326007,-0.007326007
0.851838,-0.000572213,0.211909667,0.201609827,-0.032997635,-0.000953689,-0.000572213,0.001953602,0.576312576,0.783394383,-0.007326007,-0.007326007,-0.007326007
0.856966,-0.000572213,0.211909667,0.201609827,-0.032997635,-0.000953689,-0.000572213,0.001953602,0.576312576,0.783394383,-0.007326007,-0.007326007,-0.007326007
0.862698,-0.000572213,0.221828031,0.214579995,-0.032997635,-0.000953689,-0.000572213,-0.001953602,0.607570208,0.814652015,0.007326007,-0.007326007,0.007326007
0.867767,-0.000572213,0.221828031,0.214579995,-0.032997635,-0.000953689,-0.000572213,-0.001953602,0.607570208,0.814652015,0.007326007,-0.007326007,0.007326007
0.872947,-0.000572213,0.221828031,0.214579995,-0.032997635,-0.000953689,-0.000572213,-0.001953602,0.607570208,0.814652015,0.007326007,-0.007326007,0.007326007
0.878631,-0.000190738,0.234798199,0.232890822,-0.032997635,-0.000953689,-0.000572213,-0.001953602,0.591941392,0.826373626,0.007326007,-0.021978022,-0.007326007
0.883821,-0.000190738,0.234798199,0.232890822,-0.032997635,-0.000953689,-0.000572213,-0.001953602,0.591941392,0.826373626,0.007326007,-0.021978022,-0.007326007
0.889128,-0.000190738,0.246623941,0.248912795,-0.032997635,-0.000953689,-0.000572213,-0.001953602,0.615384615,0.888888889,0.007326007,-0.007326007,-0.007326007
0.895070,-0.000190738,0.246623941,0.248912795,-0.032997635,-0.000953689,-0.000572213,-0.001953602,0.615384615,0.888888889,0.007326007,-0.007326007,-0.007326007
0.900371,-0.000190738,0.246623941,0.248912795,-0.032997635,-0.000953689,-0.000572213,-0.001953602,0.615384615,0.888888889,0.007326007,-0.007326007,-0.007326007
0.906419,-0.000190738,0.258449683,0.265316243,-0.032997635,-0.000953689,-0.000572213,-0.001953602,0.646642247,0.896703297,-0.021978022,-0.007326007,-0.007326007
0.911545,-0.000190738,0.258449683,0.265316243,-0.032997635,-0.000953689,-0.000572213,-0.001953602,0.646642247,0.896703297,-0.021978022,-0.007326007,-0.007326007
0.916793,-0.000190738,0.258449683,0.265316243,-0.032997635,-0.000953689,-0.000572213,-0.001953602,0.646642247,0.896703297,-0.021978022,-0.007326007,-0.007326007
0.922697,-0.000190738,0.272564279,0.285915923,-0.032997635,-0.000953689,-0.000572213,-0.001953602,0.662271062,0.939682540,0.007326007,-0.007326007,-0.007326007
0.927866,-0.000190738,0.272564279,0.285915923,-0.032997635,-0.000953689,-0.000572213,-0.001953602,0.662271062,0.939682540,0.007326007,-0.007326007,-0.007326007
0.932959,-0.000190738,0.272564279,0.285915923,-0.032997635,-0.000953689,-0.000572213,-0.001953602,0.662271062,0.939682540,0.007326007,-0.007326007,-0.007326007
0.938749,-0.000190738,0.287441825,0.306515602,-0.032997635,-0.000953689,-0.000572213,-0.001953602,0.689621490,0.947496947,0.021978022,-0.021978022,0.021978022
0.943862,-0.000190738,0.287441825,0.306515602,-0.032997635,-0.000953689,-0.000572213,-0.001953602,0.689621490,0.947496947,0.021978022,-0.021978022,0.021978022
0.949002,-0.000190738,0.287441825,0.306515602,-0.032997635,-0.000953689,-0.000572213,-0.001953602,0.689621490,0.947496947,0.021978022,-0.021978022,0.021978022
0.954779,-0.000190738,0.298886091,0.322919051,-0.032616159,-0.000953689,-0.000572213,0.001953602,0.689621490,0.978754579,-0.007326007,-0.021978022,-0.007326007
0.959961,-0.000190738,0.298886091,0.322919051,-0.032616159,-0.000953689,-0.000572213,0.001953602,0.689621490,0.978754579,-0.007326007,-0.021978022,-0.007326007
0.965215,-0.000190738,0.298886091,0.322919051,-0.032616159,-0.000953689,-0.000572213,0.001953602,0.689621490,0.978754579,-0.007326007,-0.021978022,-0.007326007
0.970852,-0.000190738,0.313763638,0.345044633,-0.032997635,-0.000953689,-0.000572213,-0.001953602,0.670085470,0.986568987,-0.021978022,-0.007326007,-0.007326007
0.975972,-0.000190738,0.313763638,0.345044633,-0.032997635,-0.000953689,-0.000572213,-0.001953602,0.670085470,0.986568987,-0.021978022,-0.007326007,-0.007326007
0.981185,-0.000190738,0.313763638,0.345044633,-0.032997635,-0.000953689,-0.000572213,-0.001953602,0.670085470,0.986568987,-0.021978022,-0.007326007,-0.007326007
0.987103,-0.000190738,0.327115282,0.361829557,-0.032616159,-0.000953689,-0.000572213,-0.001953602,0.728693529,1.017826618,0.007326007,-0.007326007,-0.007326007
0.992213,-0.000190738,0.327115282,0.361829557,-0.032616159,-0.000953689,-0.000572213,-0.001953602,0.728693529,1.017826618,0.007326007,-0.007326007,-0.007326007
0.997341,-0.000190738,0.327115282,0.361829557,-0.032616159,-0.000953689,-0.000572213,-0.001953602,0.728693529,1.017826618,0.007326007,-0.007326007,-0.007326007
1.002978,-0.000190738,0.341611353,0.384718090,-0.032616159,-0.000953689,-0.000572213,-0.005860806,0.713064713,1.029548230,0.007326007,-0.007326007,-0.021978022
1.008197,-0.000190738,0.341611353,0.384718090,-0.032616159,-0.000953689,-0.000572213,-0.005860806,0.713064713,1.029548230,0.007326007,-0.007326007,-0.021978022
1.013367,-0.000190738,0.341611353,0.384718090,-0.032616159,-0.000953689,-0.000572213,-0.005860806,0.713064713,1.029548230,0.007326007,-0.007326007,-0.021978022
1.018896,-0.000190738,0.356870375,0.407606622,-0.032616159,-0.000953689,-0.000572213,-0.001953602,0.697435897,1.049084249,-0.007326007,-0.007326007,-0.007326007
1.023963,-0.000190738,0.356870375,0.407606622,-0.032616159,-0.000953689,-0.000572213,-0.001953602,0.697435897,1.049084249,-0.007326007,-0.007326007,-0.007326007
1.032773,-0.000190738,0.368314641,0.424010071,-0.032616159,-0.000953689,-0.000572213,-0.001953602,0.689621490,1.002197802,-0.007326007,-0.021978022,-0.007326007
1.040791,-0.000190738,0.368314641,0.424010071,-0.032616159,-0.000953689,-0.000572213,-0.001953602,0.689621490,1.002197802,-0.007326007,-0.021978022,-0.007326007
1.048849,-0.000190738,0.380140383,0.443083848,-0.032234684,-0.000953689,-0.000572213,-0.001953602,0.638827839,1.017826618,-0.007326007,-0.021978022,0.007326007
1.056691,-0.000190738,0.380140383,0.443083848,-0.032234684,-0.000953689,-0.000572213,-0.001953602,0.638827839,1.017826618,-0.007326007,-0.021978022,0.007326007
1.064815,-0.000190738,0.391203174,0.461394675,-0.032234684,-0.000953689,-0.000572213,-0.005860806,0.611477411,1.006105006,0.007326007,-0.007326007,-0.021978022
1.072958,-0.000190738,0.391203174,0.461394675,-0.032234684,-0.000953689,-0.000572213,-0.005860806,0.611477411,1.006105006,0.007326007,-0.007326007,-0.021978022
1.077995,-0.000572213,0.404936294,0.483520256,-0.032234684,-0.000953689,-0.000572213,-0.001953602,0.631013431,1.002197802,0.007326007,-0.007326007,-0.007326007
1.086149,-0.000572213,0.404936294,0.483520256,-0.032234684,-0.000953689,-0.000572213,-0.001953602,0.631013431,1.002197802,0.007326007,-0.007326007,-0.007326007
1.094697,-0.000572213,0.415999084,0.500305180,-0.032234684,-0.000953689,-0.000572213,-0.005860806,0.584126984,0.943589744,0.007326007,-0.007326007,0.007326007
1.102951,-0.000572213,0.415999084,0.500305180,-0.032234684,-0.000953689,-0.000572213,-0.005860806,0.584126984,0.943589744,0.007326007,-0.007326007,0.007326007
1.108417,-0.000572213,0.427443351,0.518997482,-0.031853208,-0.001335164,-0.000572213,-0.001953602,0.568498168,0.912332112,-0.007326007,-0.021978022,0.007326007
1.116595,-0.000572213,0.427443351,0.518997482,-0.031853208,-0.001335164,-0.000572213,-0.001953602,0.568498168,0.912332112,-0.007326007,-0.021978022,0.007326007
1.125473,-0.000572213,0.439269093,0.538452735,-0.031853208,-0.000953689,-0.000572213,-0.001953602,0.552869353,0.865445665,0.021978022,-0.021978022,0.007326007
1.130541,-0.000572213,0.439269093,0.538452735,-0.031853208,-0.000953689,-0.000572213,-0.001953602,0.552869353,0.865445665,0.021978022,-0.021978022,0.007326007
1.135597,-0.000572213,0.439269093,0.538452735,-0.031853208,-0.000953689,-0.000572213,-0.001953602,0.552869353,0.865445665,0.021978022,-0.021978022,0.007326007
1.141271,-0.000572213,0.447661555,0.552185855,-0.031853208,-0.000953689,-0.000572213,-0.009768010,0.494261294,0.838095238,-0.021978022,-0.007326007,0.007326007
1.146463,-0.000572213,0.447661555,0.552185855,-0.031853208,-0.000953689,-0.000572213,-0.009768010,0.494261294,0.838095238,-0.021978022,-0.007326007,0.007326007
1.151735,-0.000572213,0.447661555,0.552185855,-0.031853208,-0.000953689,-0.000572213,-0.009768010,0.494261294,0.838095238,-0.021978022,-0.007326007,0.007326007
1.157368,-0.000572213,0.457579919,0.567826352,-0.031853208,-0.000953689,-0.000572213,0.001953602,0.431746032,0.775579976,0.007326007,-0.021978022,-0.007326007
1.162506,-0.000572213,0.457579919,0.567826352,-0.031853208,-0.000953689,-0.000572213,0.001953602,0.431746032,0.775579976,0.007326007,-0.021978022,-0.007326007
1.167657,-0.000572213,0.457579919,0.567826352,-0.031853208,-0.000953689,-0.000572213,0.001953602,0.431746032,0.775579976,0.007326007,-0.021978022,-0.007326007
1.172798,-0.000572213,0.457579919,0.567826352,-0.031853208,-0.000953689,-0.000572213,-0.025396825,0.427838828,0.685714286,-0.036630037,0.007326007,0.007326007
1.178600,-0.000953689,0.468642710,0.587663081,-0.031471733,-0.000953689,-0.000572213,-0.025396825,0.427838828,0.685714286,-0.036630037,0.007326007,0.007326007
1.183694,-0.000953689,0.468642710,0.587663081,-0.031471733,-0.000953689,-0.000572213,-0.025396825,0.427838828,0.685714286,-0.036630037,0.007326007,0.007326007
1.189475,-0.002098116,0.474364843,0.597581445,-0.031471733,-0.000953689,-0.000572213,-0.068376068,0.392673993,0.654456654,0.021978022,-0.007326007,-0.007326007
1.194695,-0.002098116,0.474364843,0.597581445,-0.031471733,-0.000953689,-0.000572213,-0.068376068,0.392673993,0.654456654,0.021978022,-0.007326007,-0.007326007
1.200024,-0.002098116,0.474364843,0.597581445,-0.031471733,-0.000953689,-0.000572213,-0.068376068,0.392673993,0.654456654,0.021978022,-0.007326007,-0.007326007
1.205980,-0.003624018,0.481994354,0.610933089,-0.031090257,-0.000953689,-0.000572213,-0.091819292,0.337973138,0.611477411,0.007326007,-0.007326007,-0.007326007
1.211100,-0.003624018,0.481994354,0.610933089,-0.031090257,-0.000953689,-0.000572213,-0.091819292,0.337973138,0.611477411,0.007326007,-0.007326007,-0.007326007
1.216378,-0.003624018,0.481994354,0.610933089,-0.031090257,-0.000953689,-0.000572213,-0.076190476,0.310622711,0.521611722,0.007326007,-0.007326007,0.007326007
1.222454,-0.004768444,0.487335012,0.619707027,-0.031090257,-0.000953689,-0.000572213,-0.076190476,0.310622711,0.521611722,0.007326007,-0.007326007,0.007326007
1.227599,-0.004768444,0.487335012,0.619707027,-0.031090257,-0.000953689,-0.000572213,-0.076190476,0.310622711,0.521611722,0.007326007,-0.007326007,0.007326007
1.233367,-0.006675822,0.492675669,0.628099489,-0.031090257,-0.000953689,-0.000572213,-0.103540904,0.263736264,0.513797314,-0.021978022,0.007326007,-0.007326007
1.238543,-0.006675822,0.492675669,0.628099489,-0.031090257,-0.000953689,-0.000572213,-0.103540904,0.263736264,0.513797314,-0.021978022,0.007326007,-0.007326007
1.243662,-0.006675822,0.492675669,0.628099489,-0.031090257,-0.000953689,-0.000572213,-0.103540904,0.263736264,0.513797314,-0.021978022,0.007326007,-0.007326007
1.249557,-0.008583200,0.496871901,0.635729000,-0.030708782,-0.001335164,-0.000572213,-0.119169719,0.248107448,0.416117216,0.007326007,-0.021978022,-0.007326007
1.254665,-0.008583200,0.496871901,0.635729000,-0.030708782,-0.001335164,-0.000572213,-0.119169719,0.248107448,0.416117216,0.007326007,-0.021978022,-0.007326007
1.259835,-0.008583200,0.496871901,0.635729000,-0.030708782,-0.001335164,-0.000572213,-0.119169719,0.248107448,0.416117216,0.007326007,-0.021978022,-0.007326007
1.265827,-0.012779431,0.501831083,0.644502937,-0.031090257,-0.000953689,-0.000572213,-0.173870574,0.173870574,0.341880342,-0.007326007,0.007326007,0.007326007
1.271025,-0.012779431,0.501831083,0.644502937,-0.031090257,-0.000953689,-0.000572213,-0.173870574,0.173870574,0.341880342,-0.007326007,0.007326007,0.007326007
1.276176,-0.012779431,0.501831083,0.644502937,-0.031090257,-0.000953689,-0.000572213,-0.173870574,0.173870574,0.341880342,-0.007326007,0.007326007,0.007326007
1.281738,-0.016212711,0.503738460,0.649080644,-0.031090257,-0.000953689,-0.000572213,-0.216849817,0.119169719,0.263736264,0.007326007,-0.007326007,-0.007326007
1.286837,-0.016212711,0.503738460,0.649080644,-0.031090257,-0.000953689,-0.000572213,-0.216849817,0.119169719,0.263736264,0.007326007,-0.007326007,-0.007326007
1.291951,-0.016212711,0.503738460,0.649080644,-0.031090257,-0.000953689,-0.000572213,-0.216849817,0.119169719,0.263736264,0.007326007,-0.007326007,-0.007326007
1.297581,-0.020408942,0.505645838,0.653276875,-0.031090257,-0.000953689,-0.000572213,-0.232478632,0.091819292,0.220757021,-0.021978022,-0.007326007,-0.007326007
1.302848,-0.020408942,0.505645838,0.653276875,-0.031090257,-0.000953689,-0.000572213,-0.232478632,0.091819292,0.220757021,-0.021978022,-0.007326007,-0.007326007
1.308502,-0.025368124,0.506408789,0.656328679,-0.031090257,-0.000953689,-0.000572213,-0.287179487,0.033211233,0.150427350,0.021978022,-0.021978022,-0.007326007
1.313656,-0.025368124,0.506408789,0.656328679,-0.031090257,-0.000953689,-0.000572213,-0.287179487,0.033211233,0.150427350,0.021978022,-0.021978022,-0.007326007
1.318866,-0.025368124,0.506408789,0.656328679,-0.031090257,-0.000953689,-0.000572213,-0.341880342,0.001953602,0.103540904,-0.007326007,0.007326007,-0.007326007
1.324612,-0.031471733,0.506408789,0.658236057,-0.031090257,-0.000953689,-0.000572213,-0.341880342,0.001953602,0.103540904,-0.007326007,0.007326007,-0.007326007
1.329730,-0.031471733,0.506408789,0.658236057,-0.031090257,-0.000953689,-0.000572213,-0.341880342,0.001953602,0.103540904,-0.007326007,0.007326007,-0.007326007
1.335320,-0.037956817,0.506408789,0.658999008,-0.031090257,-0.000953689,-0.000572213,-0.373137973,-0.005860806,0.037118437,0.007326007,0.007326007,-0.007326007
1.340454,-0.037956817,0.506408789,0.658999008,-0.031090257,-0.000953689,-0.000572213,-0.373137973,-0.005860806,0.037118437,0.007326007,0.007326007,-0.007326007
1.345704,-0.037956817,0.506408789,0.658999008,-0.031090257,-0.000953689,-0.000572213,-0.373137973,-0.005860806,0.037118437,0.007326007,0.007326007,-0.007326007
1.351405,-0.045204852,0.506027314,0.659380484,-0.031090257,-0.000953689,-0.000572213,-0.451282051,-0.021489621,0.009768010,-0.036630037,-0.021978022,0.007326007
1.356494,-0.045204852,0.506027314,0.659380484,-0.031090257,-0.000953689,-0.000572213,-0.451282051,-0.021489621,0.009768010,-0.036630037,-0.021978022,0.007326007
1.361552,-0.054360266,0.505645838,0.658999008,-0.031090257,-0.000953689,-0.000572213,-0.505982906,-0.033211233,-0.001953602,-0.007326007,-0.007326007,0.007326007
1.367570,-0.054360266,0.505645838,0.658999008,-0.031090257,-0.000953689,-0.000572213,-0.505982906,-0.033211233,-0.001953602,-0.007326007,-0.007326007,0.007326007
1.372736,-0.054360266,0.505645838,0.658999008,-0.031090257,-0.000953689,-0.000572213,-0.505982906,-0.033211233,-0.001953602,-0.007326007,-0.007326007,0.007326007
1.378499,-0.064278630,0.505264363,0.658999008,-0.031471733,-0.000953689,-0.000572213,-0.564590965,-0.025396825,-0.005860806,-0.036630037,-0.007326007,0.007326007
1.383725,-0.064278630,0.505264363,0.658999008,-0.031471733,-0.000953689,-0.000572213,-0.564590965,-0.025396825,-0.005860806,-0.036630037,-0.007326007,0.007326007
1.388867,-0.064278630,0.505264363,0.658999008,-0.031471733,-0.000953689,-0.000572213,-0.564590965,-0.025396825,-0.005860806,-0.036630037,-0.007326007,0.007326007
1.394723,-0.076867323,0.504882887,0.658999008,-0.031471733,-0.000953689,-0.000572213,-0.623199023,-0.013675214,-0.001953602,-0.021978022,-0.007326007,-0.007326007
1.399844,-0.076867323,0.504882887,0.658999008,-0.031471733,-0.000953689,-0.000572213,-0.623199023,-0.013675214,-0.001953602,-0.021978022,-0.007326007,-0.007326007
1.405053,-0.076867323,0.504882887,0.658999008,-0.031471733,-0.000953689,-0.000572213,-0.623199023,-0.013675214,-0.001953602,-0.021978022,-0.007326007,-0.007326007
1.410257,-0.093270771,0.504882887,0.658999008,-0.031471733,-0.000953689,-0.000572213,-0.713064713,-0.005860806,-0.001953602,-0.007326007,0.007326007,-0.007326007
1.416324,-0.093270771,0.504882887,0.658999008,-0.031471733,-0.000953689,-0.000572213,-0.713064713,-0.005860806,-0.001953602,-0.007326007,0.007326007,-0.007326007
1.421576,-0.093270771,0.504882887,0.658999008,-0.031471733,-0.000953689,-0.000572213,-0.713064713,-0.005860806,-0.001953602,-0.007326007,0.007326007,-0.007326007
1.427233,-0.104333562,0.504882887,0.658999008,-0.031471733,-0.000953689,-0.000572213,-0.756043956,-0.001953602,-0.001953602,-0.021978022,0.007326007,-0.007326007
1.432461,-0.104333562,0.504882887,0.658999008,-0.031471733,-0.000953689,-0.000572213,-0.756043956,-0.001953602,-0.001953602,-0.021978022,0.007326007,-0.007326007
1.437709,-0.104333562,0.504882887,0.658999008,-0.031471733,-0.000953689,-0.000572213,-0.756043956,-0.001953602,-0.001953602,-0.021978022,0.007326007,-0.007326007
1.443359,-0.121881437,0.504882887,0.658999008,-0.031471733,-0.000953689,-0.000572213,-0.810744811,-0.001953602,-0.001953602,-0.021978022,-0.021978022,-0.021978022
1.448513,-0.121881437,0.504882887,0.658999008,-0.031471733,-0.000953689,-0.000572213,-0.810744811,-0.001953602,-0.001953602,-0.021978022,-0.021978022,-0.021978022
1.454241,-0.134851606,0.504882887,0.658999008,-0.031471733,-0.000953689,-0.000572213,-0.873260073,-0.001953602,0.001953602,0.007326007,-0.007326007,-0.021978022
1.459399,-0.134851606,0.504882887,0.658999008,-0.031471733,-0.000953689,-0.000572213,-0.873260073,-0.001953602,0.001953602,0.007326007,-0.007326007,-0.021978022
1.464530,-0.134851606,0.504882887,0.658999008,-0.031471733,-0.000953689,-0.000572213,-0.873260073,-0.001953602,0.001953602,0.007326007,-0.007326007,-0.021978022
1.470329,-0.151636530,0.504882887,0.658999008,-0.031471733,-0.000953689,-0.000572213,-0.927960928,0.001953602,-0.001953602,-0.007326007,-0.021978022,0.007326007
1.475481,-0.151636530,0.504882887,0.658999008,-0.031471733,-0.000953689,-0.000572213,-0.927960928,0.001953602,-0.001953602,-0.007326007,-0.021978022,0.007326007
1.480508,-0.151636530,0.504882887,0.658999008,-0.031471733,-0.000953689,-0.000572213,-0.986568987,-0.005860806,-0.001953602,-0.021978022,0.007326007,0.007326007
1.486151,-0.169184405,0.504501411,0.658999008,-0.031471733,-0.000953689,-0.000572213,-0.986568987,-0.005860806,-0.001953602,-0.021978022,0.007326007,0.007326007
1.491260,-0.169184405,0.504501411,0.658999008,-0.031471733,-0.000953689,-0.000572213,-0.986568987,-0.005860806,-0.001953602,-0.021978022,0.007326007,0.007326007
1.496488,-0.169184405,0.504501411,0.658999008,-0.031471733,-0.000953689,-0.000572213,-0.986568987,-0.005860806,-0.001953602,-0.021978022,0.007326007,0.007326007
1.502127,-0.191309987,0.504501411,0.658999008,-0.031471733,-0.000953689,-0.000572213,-1.006105006,-0.005860806,-0.005860806,-0.007326007,-0.021978022,0.007326007
1.507298,-0.191309987,0.504501411,0.658999008,-0.031471733,-0.000953689,-0.000572213,-1.006105006,-0.005860806,-0.005860806,-0.007326007,-0.021978022,0.007326007
1.512470,-0.208094911,0.504501411,0.658999008,-0.031471733,-0.000953689,-0.000572213,-1.041269841,-0.001953602,-0.001953602,-0.007326007,-0.021978022,-0.007326007
1.518472,-0.208094911,0.504501411,0.658999008,-0.031471733,-0.000953689,-0.000572213,-1.041269841,-0.001953602,-0.001953602,-0.007326007,-0.021978022,-0.007326007
1.523701,-0.208094911,0.504501411,0.658999008,-0.031471733,-0.000953689,-0.000572213,-1.041269841,-0.001953602,-0.001953602,-0.007326007,-0.021978022,-0.007326007
1.529025,-0.227931640,0.504501411,0.658999008,-0.031471733,-0.000953689,-0.000572213,-1.084249084,0.001953602,-0.001953602,-0.007326007,-0.007326007,-0.007326007
1.534070,-0.227931640,0.504501411,0.658999008,-0.031471733,-0.000953689,-0.000572213,-1.084249084,0.001953602,-0.001953602,-0.007326007,-0.007326007,-0.007326007
1.539229,-0.245860990,0.504501411,0.658999008,-0.031471733,-0.000953689,-0.000572213,-1.099877900,-0.001953602,-0.001953602,-0.021978022,0.007326007,-0.007326007
1.544991,-0.245860990,0.504501411,0.658999008,-0.031471733,-0.000953689,-0.000572213,-1.099877900,-0.001953602,-0.001953602,-0.021978022,0.007326007,-0.007326007
1.550210,-0.245860990,0.504501411,0.658999008,-0.031471733,-0.000953689,-0.000572213,-1.099877900,-0.001953602,-0.001953602,-0.021978022,0.007326007,-0.007326007
1.556364,-0.266079194,0.504501411,0.658999008,-0.031471733,-0.000953689,-0.000572213,-1.111599512,-0.001953602,-0.001953602,-0.007326007,0.007326007,-0.007326007
1.561479,-0.266079194,0.504501411,0.658999008,-0.031471733,-0.000953689,-0.000572213,-1.111599512,-0.001953602,-0.001953602,-0.007326007,0.007326007,-0.007326007
1.566544,-0.266079194,0.504501411,0.658999008,-0.031471733,-0.000953689,-0.000572213,-1.111599512,-0.001953602,-0.001953602,-0.007326007,0.007326007,-0.007326007
1.572333,-0.286678874,0.504501411,0.658999008,-0.031471733,-0.000953689,-0.000572213,-1.135042735,-0.001953602,-0.001953602,0.007326007,-0.007326007,-0.007326007
1.577459,-0.286678874,0.504501411,0.658999008,-0.031471733,-0.000953689,-0.000572213,-1.135042735,-0.001953602,-0.001953602,0.007326007,-0.007326007,-0.007326007
1.582592,-0.286678874,0.504501411,0.658999008,-0.031471733,-0.000953689,-0.000572213,-1.135042735,-0.001953602,-0.001953602,0.007326007,-0.007326007,-0.007326007
1.588398,-0.307660029,0.504501411,0.658999008,-0.031471733,-0.000953689,-0.000572213,-1.154578755,-0.001953602,-0.001953602,-0.007326007,-0.007326007,0.007326007
1.593571,-0.307660029,0.504501411,0.658999008,-0.031471733,-0.000953689,-0.000572213,-1.154578755,-0.001953602,-0.001953602,-0.007326007,-0.007326007,0.007326007
1.598734,-0.330930037,0.504501411,0.658999008,-0.031471733,-0.000953689,-0.000572213,-1.178021978,0.001953602,-0.001953602,-0.007326007,-0.007326007,0.007326007
1.604973,-0.330930037,0.504501411,0.658999008,-0.031471733,-0.000953689,-0.000572213,-1.178021978,0.001953602,-0.001953602,-0.007326007,-0.007326007,0.007326007
1.610252,-0.330930037,0.504501411,0.658999008,-0.031471733,-0.000953689,-0.000572213,-1.178021978,0.001953602,-0.001953602,-0.007326007,-0.007326007,0.007326007
1.615985,-0.350003815,0.504501411,0.658999008,-0.031471733,-0.000953689,-0.000572213,-1.166300366,-0.001953602,-0.005860806,-0.007326007,-0.007326007,0.007326007
1.621068,-0.350003815,0.504501411,0.658999008,-0.031471733,-0.000953689,-0.000572213,-1.166300366,-0.001953602,-0.005860806,-0.007326007,-0.007326007,0.007326007
1.626293,-0.350003815,0.504501411,0.658999008,-0.031471733,-0.000953689,-0.000572213,-1.166300366,-0.001953602,-0.005860806,-0.007326007,-0.007326007,0.007326007
1.631958,-0.372510872,0.504501411,0.658999008,-0.031471733,-0.000953689,-0.000572213,-1.213186813,-0.001953602,-0.001953602,-0.007326007,-0.021978022,-0.007326007
1.637108,-0.372510872,0.504501411,0.658999008,-0.031471733,-0.000953689,-0.000572213,-1.213186813,-0.001953602,-0.001953602,-0.007326007,-0.021978022,-0.007326007
1.642335,-0.393873503,0.504501411,0.658999008,-0.031471733,-0.000953689,-0.000572213,-1.221001221,-0.001953602,-0.001953602,0.007326007,-0.007326007,-0.007326007
1.648288,-0.393873503,0.504501411,0.658999008,-0.031471733,-0.000953689,-0.000572213,-1.221001221,-0.001953602,-0.001953602,0.007326007,-0.007326007,-0.007326007
1.653503,-0.393873503,0.504501411,0.658999008,-0.031471733,-0.000953689,-0.000572213,-1.213186813,0.001953602,0.001953602,-0.007326007,-0.007326007,0.007326007
1.659859,-0.413710231,0.504501411,0.658999008,-0.031471733,-0.000953689,-0.000572213,-1.213186813,0.001953602,0.001953602,-0.007326007,-0.007326007,0.007326007
1.665029,-0.413710231,0.504501411,0.658999008,-0.031471733,-0.000953689,-0.000572213,-1.213186813,0.001953602,0.001953602,-0.007326007,-0.007326007,0.007326007
1.670177,-0.413710231,0.504501411,0.658999008,-0.031471733,-0.000953689,-0.000572213,-1.213186813,0.001953602,0.001953602,-0.007326007,-0.007326007,0.007326007
1.675858,-0.440032044,0.504501411,0.658999008,-0.031471733,-0.000953689,-0.000572213,-1.240537241,-0.001953602,-0.001953602,0.007326007,0.007326007,-0.007326007
1.680945,-0.440032044,0.504501411,0.658999008,-0.031471733,-0.000953689,-0.000572213,-1.240537241,-0.001953602,-0.001953602,0.007326007,0.007326007,-0.007326007
1.690310,-0.461013199,0.504501411,0.658999008,-0.031471733,-0.000953689,-0.000572213,-1.260073260,-0.001953602,-0.001953602,0.021978022,0.007326007,-0.007326007
1.695484,-0.461013199,0.504501411,0.658999008,-0.031471733,-0.000953689,-0.000572213,-1.260073260,-0.001953602,-0.001953602,0.021978022,0.007326007,-0.007326007
1.700722,-0.461013199,0.504501411,0.658999008,-0.031471733,-0.000953689,-0.000572213,-1.260073260,-0.001953602,-0.001953602,0.021978022,0.007326007,-0.007326007
1.706562,-0.489242390,0.504501411,0.658999008,-0.031471733,-0.000953689,-0.000572213,-1.256166056,-0.001953602,0.001953602,-0.007326007,-0.007326007,0.007326007
1.711903,-0.489242390,0.504501411,0.658999008,-0.031471733,-0.000953689,-0.000572213,-1.256166056,-0.001953602,0.001953602,-0.007326007,-0.007326007,0.007326007
1.717223,-0.489242390,0.504501411,0.658999008,-0.031471733,-0.000953689,-0.000572213,-1.252258852,-0.001953602,-0.001953602,0.007326007,-0.007326007,-0.007326007
1.722938,-0.510986496,0.504501411,0.658999008,-0.031471733,-0.000953689,-0.000572213,-1.252258852,-0.001953602,-0.001953602,0.007326007,-0.007326007,-0.007326007
1.728106,-0.510986496,0.504501411,0.658999008,-0.031471733,-0.000953689,-0.000572213,-1.252258852,-0.001953602,-0.001953602,0.007326007,-0.007326007,-0.007326007
1.733299,-0.536163882,0.504501411,0.658999008,-0.031471733,-0.000953689,-0.000572213,-1.267887668,0.001953602,-0.001953602,0.007326007,-0.021978022,-0.007326007
1.739248,-0.536163882,0.504501411,0.658999008,-0.031471733,-0.000953689,-0.000572213,-1.267887668,0.001953602,-0.001953602,0.007326007,-0.021978022,-0.007326007
1.744452,-0.536163882,0.504501411,0.658999008,-0.031471733,-0.000953689,-0.000572213,-1.267887668,0.001953602,-0.001953602,0.007326007,-0.021978022,-0.007326007
1.749627,-0.536163882,0.504501411,0.658999008,-0.031471733,-0.000953689,-0.000572213,-1.267887668,0.001953602,-0.001953602,0.007326007,-0.021978022,-0.007326007
1.755455,-0.564011597,0.504501411,0.658999008,-0.031471733,-0.000953689,-0.000572213,-1.271794872,-0.001953602,-0.001953602,-0.007326007,0.007326007,-0.021978022
1.760803,-0.564011597,0.504501411,0.658999008,-0.031471733,-0.000953689,-0.000572213,-1.271794872,-0.001953602,-0.001953602,-0.007326007,0.007326007,-0.021978022
1.765975,-0.590333410,0.504501411,0.658999008,-0.031471733,-0.000953689,-0.000572213,-1.279609280,-0.001953602,-0.001953602,-0.021978022,-0.021978022,-0.007326007
1.772233,-0.590333410,0.504501411,0.658999008,-0.031471733,-0.000953689,-0.000572213,-1.279609280,-0.001953602,-0.001953602,-0.021978022,-0.021978022,-0.007326007
1.777499,-0.590333410,0.504501411,0.658999008,-0.031471733,-0.000953689,-0.000572213,-1.279609280,-0.001953602,-0.001953602,-0.021978022,-0.021978022,-0.007326007
1.783163,-0.610551614,0.504501411,0.658999008,-0.031471733,-0.000953689,-0.000572213,-1.275702076,-0.001953602,-0.001953602,-0.021978022,0.007326007,-0.007326007
1.788399,-0.610551614,0.504501411,0.658999008,-0.031471733,-0.000953689,-0.000572213,-1.275702076,-0.001953602,-0.001953602,-0.021978022,0.007326007,-0.007326007
1.793538,-0.610551614,0.504501411,0.658999008,-0.031471733,-0.000953689,-0.000572213,-1.275702076,-0.001953602,-0.001953602,-0.021978022,0.007326007,-0.007326007
1.799304,-0.639925231,0.504501411,0.658999008,-0.031471733,-0.000953689,-0.000572213,-1.267887668,-0.001953602,-0.001953602,-0.007326007,-0.007326007,0.007326007
1.804454,-0.639925231,0.504501411,0.658999008,-0.031471733,-0.000953689,-0.000572213,-1.267887668,-0.001953602,-0.001953602,-0.007326007,-0.007326007,0.007326007
1.809560,-0.639925231,0.504501411,0.658999008,-0.031471733,-0.000953689,-0.000572213,-1.267887668,-0.001953602,-0.001953602,-0.007326007,-0.007326007,0.007326007
1.815711,-0.662432288,0.504501411,0.658999008,-0.031471733,-0.000953689,-0.000572213,-1.240537241,-0.001953602,0.001953602,0.007326007,0.007326007,-0.021978022
1.820790,-0.662432288,0.504501411,0.658999008,-0.031471733,-0.000953689,-0.000572213,-1.240537241,-0.001953602,0.001953602,0.007326007,0.007326007,-0.021978022
1.825948,-0.662432288,0.504501411,0.658999008,-0.031471733,-0.000953689,-0.000572213,-1.244444444,-0.001953602,-0.001953602,-0.007326007,0.007326007,-0.021978022
1.832322,-0.684557870,0.504501411,0.658999008,-0.031471733,-0.000953689,-0.000572213,-1.244444444,-0.001953602,-0.001953602,-0.007326007,0.007326007,-0.021978022
1.837554,-0.684557870,0.504501411,0.658999008,-0.031471733,-0.000953689,-0.000572213,-1.244444444,-0.001953602,-0.001953602,-0.007326007,0.007326007,-0.021978022
1.842748,-0.684557870,0.504501411,0.658999008,-0.031471733,-0.000953689,-0.000572213,-1.244444444,-0.001953602,-0.001953602,-0.007326007,0.007326007,-0.021978022
1.848321,-0.709735256,0.504501411,0.658999008,-0.031471733,-0.000953689,-0.000572213,-1.201465201,-0.001953602,-0.001953602,0.007326007,-0.021978022,-0.021978022
1.853452,-0.709735256,0.504501411,0.658999008,-0.031471733,-0.000953689,-0.000572213,-1.201465201,-0.001953602,-0.001953602,0.007326007,-0.021978022,-0.021978022
1.859535,-0.727664607,0.504501411,0.658999008,-0.031471733,-0.000953689,-0.000572213,-1.127228327,-0.001953602,-0.001953602,-0.007326007,-0.007326007,-0.007326007
1.864801,-0.727664607,0.504501411,0.658999008,-0.031471733,-0.000953689,-0.000572213,-1.127228327,-0.001953602,-0.001953602,-0.007326007,-0.007326007,-0.007326007
1.870001,-0.727664607,0.504501411,0.658999008,-0.031471733,-0.000953689,-0.000572213,-1.127228327,-0.001953602,-0.001953602,-0.007326007,-0.007326007,-0.007326007
1.875659,-0.750553140,0.504501411,0.658999008,-0.031471733,-0.000953689,-0.000572213,-1.068620269,-0.009768010,-0.005860806,-0.021978022,-0.007326007,-0.007326007
1.880781,-0.750553140,0.504501411,0.658999008,-0.031471733,-0.000953689,-0.000572213,-1.068620269,-0.009768010,-0.005860806,-0.021978022,-0.007326007,-0.007326007
1.885941,-0.750553140,0.504501411,0.658999008,-0.031471733,-0.000953689,-0.000572213,-1.068620269,-0.009768010,-0.005860806,-0.021978022,-0.007326007,-0.007326007
1.891608,-0.768863966,0.503738460,0.658999008,-0.031471733,-0.000953689,-0.000572213,-0.986568987,-0.044932845,-0.001953602,-0.007326007,-0.007326007,-0.007326007
1.896801,-0.768863966,0.503738460,0.658999008,-0.031471733,-0.000953689,-0.000572213,-0.986568987,-0.044932845,-0.001953602,-0.007326007,-0.007326007,-0.007326007
1.902047,-0.768863966,0.503738460,0.658999008,-0.031471733,-0.000953689,-0.000572213,-0.986568987,-0.044932845,-0.001953602,-0.007326007,-0.007326007,-0.007326007
1.907688,-0.786793317,0.502594034,0.658999008,-0.031471733,-0.000953689,-0.000572213,-0.900610501,-0.072283272,-0.001953602,-0.021978022,-0.007326007,-0.007326007
1.912794,-0.786793317,0.502594034,0.658999008,-0.031471733,-0.000953689,-0.000572213,-0.900610501,-0.072283272,-0.001953602,-0.021978022,-0.007326007,-0.007326007
1.917850,-0.786793317,0.502594034,0.658999008,-0.031471733,-0.000953689,-0.000572213,-0.900610501,-0.072283272,-0.001953602,-0.021978022,-0.007326007,-0.007326007
1.923443,-0.801670863,0.501068132,0.658999008,-0.031853208,-0.000953689,-0.000572213,-0.771672772,-0.095726496,-0.001953602,-0.007326007,-0.007326007,0.007326007
1.932186,-0.801670863,0.501068132,0.658999008,-0.031853208,-0.000953689,-0.000572213,-0.771672772,-0.095726496,-0.001953602,-0.007326007,-0.007326007,0.007326007
1.937846,-0.815785458,0.498397803,0.658999008,-0.031853208,-0.000953689,-0.000572213,-0.611477411,-0.123076923,-0.001953602,-0.021978022,-0.007326007,-0.007326007
1.946500,-0.815785458,0.498397803,0.658999008,-0.031853208,-0.000953689,-0.000572213,-0.611477411,-0.123076923,-0.001953602,-0.021978022,-0.007326007,-0.007326007
1.951666,-0.815785458,0.498397803,0.658999008,-0.031853208,-0.000953689,-0.000572213,-0.388766789,-0.138705739,-0.001953602,-0.007326007,-0.007326007,-0.007326007
1.957456,-0.824559396,0.495727474,0.658999008,-0.031853208,-0.000953689,-0.000572213,-0.388766789,-0.138705739,-0.001953602,-0.007326007,-0.007326007,-0.007326007
1.962572,-0.824559396,0.495727474,0.658999008,-0.031853208,-0.000953689,-0.000572213,-0.388766789,-0.138705739,-0.001953602,-0.007326007,-0.007326007,-0.007326007
1.967813,-0.829137102,0.492294194,0.658999008,-0.031471733,-0.000953689,-0.000572213,-0.166056166,-0.138705739,-0.001953602,0.021978022,-0.007326007,-0.021978022
1.973840,-0.829137102,0.492294194,0.658999008,-0.031471733,-0.000953689,-0.000572213,-0.166056166,-0.138705739,-0.001953602,0.021978022,-0.007326007,-0.021978022
1.979045,-0.829137102,0.492294194,0.658999008,-0.031471733,-0.000953689,-0.000572213,-0.166056166,-0.138705739,-0.001953602,0.021978022,-0.007326007,-0.021978022
1.984923,-0.830281529,0.490386816,0.658999008,-0.031471733,-0.000953689,-0.000572213,-0.087912088,-0.142612943,-0.001953602,-0.021978022,-0.007326007,-0.007326007
1.990107,-0.830281529,0.490386816,0.658999008,-0.031471733,-0.000953689,-0.000572213,-0.087912088,-0.142612943,-0.001953602,-0.021978022,-0.007326007,-0.007326007
1.995301,-0.830281529,0.490386816,0.658999008,-0.031471733,-0.000953689,-0.000572213,-0.087912088,-0.142612943,-0.001953602,-0.021978022,-0.007326007,-0.007326007
2.001092,-0.829900053,0.487335012,0.658999008,-0.031471733,-0.000953689,-0.000572213,0.041025641,-0.138705739,-0.001953602,0.007326007,-0.007326007,-0.021978022
2.006292,-0.829900053,0.487335012,0.658999008,-0.031471733,-0.000953689,-0.000572213,0.041025641,-0.138705739,-0.001953602,0.007326007,-0.007326007,-0.021978022
2.011423,-0.828755627,0.485809110,0.658999008,-0.031471733,-0.000953689,-0.000572213,0.087912088,-0.099633700,-0.001953602,-0.007326007,-0.021978022,-0.021978022
2.017411,-0.828755627,0.485809110,0.658999008,-0.031471733,-0.000953689,-0.000572213,0.087912088,-0.099633700,-0.001953602,-0.007326007,-0.021978022,-0.021978022
2.022525,-0.828755627,0.485809110,0.658999008,-0.031471733,-0.000953689,-0.000572213,0.087912088,-0.099633700,-0.001953602,-0.007326007,-0.021978022,-0.021978022
2.028447,-0.825703822,0.484283207,0.658999008,-0.031471733,-0.000953689,-0.000572213,0.169963370,-0.084004884,-0.001953602,0.007326007,-0.007326007,0.007326007
2.033783,-0.825703822,0.484283207,0.658999008,-0.031471733,-0.000953689,-0.000572213,0.169963370,-0.084004884,-0.001953602,0.007326007,-0.007326007,0.007326007
2.038993,-0.825703822,0.484283207,0.658999008,-0.031471733,-0.000953689,-0.000572213,0.169963370,-0.084004884,-0.001953602,0.007326007,-0.007326007,0.007326007
2.044695,-0.821889067,0.483138781,0.658999008,-0.031471733,-0.000953689,-0.000572213,0.212942613,-0.064468864,-0.001953602,0.007326007,0.007326007,-0.021978022
2.049871,-0.821889067,0.483138781,0.658999008,-0.031471733,-0.000953689,-0.000572213,0.212942613,-0.064468864,-0.001953602,0.007326007,0.007326007,-0.021978022
2.055084,-0.821889067,0.483138781,0.658999008,-0.031471733,-0.000953689,-0.000572213,0.212942613,-0.064468864,-0.001953602,0.007326007,0.007326007,-0.021978022
2.060799,-0.815403983,0.482375830,0.658999008,-0.031471733,-0.000953689,-0.000572213,0.306715507,-0.033211233,-0.001953602,0.007326007,-0.007326007,0.007326007
2.066020,-0.815403983,0.482375830,0.658999008,-0.031471733,-0.000953689,-0.000572213,0.306715507,-0.033211233,-0.001953602,0.007326007,-0.007326007,0.007326007
2.071117,-0.815403983,0.482375830,0.658999008,-0.031471733,-0.000953689,-0.000572213,0.306715507,-0.033211233,-0.001953602,0.007326007,-0.007326007,0.007326007
2.077461,-0.806630045,0.481994354,0.658999008,-0.031471733,-0.000953689,-0.000572213,0.412210012,-0.005860806,-0.001953602,-0.007326007,-0.007326007,0.007326007
2.082508,-0.806630045,0.481994354,0.658999008,-0.031471733,-0.000953689,-0.000572213,0.412210012,-0.005860806,-0.001953602,-0.007326007,-0.007326007,0.007326007
2.087660,-0.806630045,0.481994354,0.658999008,-0.031471733,-0.000953689,-0.000572213,0.412210012,-0.005860806,-0.001953602,-0.007326007,-0.007326007,0.007326007
2.093333,-0.798237583,0.481994354,0.658999008,-0.031471733,-0.000953689,-0.000572213,0.505982906,-0.001953602,-0.001953602,-0.007326007,-0.021978022,-0.007326007
2.098452,-0.798237583,0.481994354,0.658999008,-0.031471733,-0.000953689,-0.000572213,0.505982906,-0.001953602,-0.001953602,-0.007326007,-0.021978022,-0.007326007
2.103656,-0.798237583,0.481994354,0.658999008,-0.031471733,-0.000953689,-0.000572213,0.505982906,-0.001953602,-0.001953602,-0.007326007,-0.021978022,-0.007326007
2.109296,-0.787174792,0.481994354,0.658999008,-0.031853208,-0.000953689,-0.000572213,0.595848596,-0.001953602,0.001953602,-0.021978022,-0.021978022,-0.007326007
2.114481,-0.787174792,0.481994354,0.658999008,-0.031853208,-0.000953689,-0.000572213,0.595848596,-0.001953602,0.001953602,-0.021978022,-0.021978022,-0.007326007
2.119649,-0.787174792,0.481994354,0.658999008,-0.031853208,-0.000953689,-0.000572213,0.595848596,-0.001953602,0.001953602,-0.021978022,-0.021978022,-0.007326007
2.125504,-0.774204623,0.481994354,0.658999008,-0.031471733,-0.000953689,-0.000572213,0.716971917,-0.001953602,-0.001953602,0.007326007,-0.007326007,-0.021978022
2.130673,-0.774204623,0.481994354,0.658999008,-0.031471733,-0.000953689,-0.000572213,0.716971917,-0.001953602,-0.001953602,0.007326007,-0.007326007,-0.021978022
2.136439,-0.760090028,0.481994354,0.658999008,-0.031471733,-0.000953689,-0.000572213,0.830280830,-0.001953602,-0.005860806,0.021978022,-0.007326007,0.007326007
2.141546,-0.760090028,0.481994354,0.658999008,-0.031471733,-0.000953689,-0.000572213,0.830280830,-0.001953602,-0.005860806,0.021978022,-0.007326007,0.007326007
2.146589,-0.745975433,0.481994354,0.658999008,-0.031471733,-0.000953689,-0.000572213,0.912332112,-0.001953602,-0.001953602,-0.007326007,-0.007326007,-0.021978022
2.152661,-0.745975433,0.481994354,0.658999008,-0.031471733,-0.000953689,-0.000572213,0.912332112,-0.001953602,-0.001953602,-0.007326007,-0.007326007,-0.021978022
2.157677,-0.745975433,0.481994354,0.658999008,-0.031471733,-0.000953689,-0.000572213,0.912332112,-0.001953602,-0.001953602,-0.007326007,-0.007326007,-0.021978022
2.162837,-0.745975433,0.481994354,0.658999008,-0.031471733,-0.000953689,-0.000572213,0.912332112,-0.001953602,-0.001953602,-0.007326007,-0.007326007,-0.021978022
2.168464,-0.723849851,0.481994354,0.658999008,-0.031853208,-0.000953689,-0.000572213,1.037362637,0.001953602,-0.005860806,-0.007326007,-0.007326007,-0.021978022
2.173576,-0.723849851,0.481994354,0.658999008,-0.031853208,-0.000953689,-0.000572213,1.037362637,0.001953602,-0.005860806,-0.007326007,-0.007326007,-0.021978022
2.178828,-0.723849851,0.481994354,0.658999008,-0.031853208,-0.000953689,-0.000572213,1.037362637,0.001953602,-0.005860806,-0.007326007,-0.007326007,-0.021978022
2.184664,-0.699053941,0.481994354,0.658999008,-0.031471733,-0.000953689,-0.000572213,1.142857143,-0.001953602,-0.001953602,-0.007326007,-0.021978022,-0.007326007
2.189797,-0.699053941,0.481994354,0.658999008,-0.031471733,-0.000953689,-0.000572213,1.142857143,-0.001953602,-0.001953602,-0.007326007,-0.021978022,-0.007326007
2.195035,-0.699053941,0.481994354,0.658999008,-0.031471733,-0.000953689,-0.000572213,1.142857143,-0.001953602,-0.001953602,-0.007326007,-0.021978022,-0.007326007
2.200786,-0.676928359,0.482375830,0.658999008,-0.031471733,-0.000953689,-0.000572213,1.236630037,0.001953602,-0.001953602,-0.007326007,-0.007326007,-0.021978022
2.205928,-0.676928359,0.482375830,0.658999008,-0.031471733,-0.000953689,-0.000572213,1.236630037,0.001953602,-0.001953602,-0.007326007,-0.007326007,-0.021978022
2.211138,-0.676928359,0.482375830,0.658999008,-0.031471733,-0.000953689,-0.000572213,1.236630037,0.001953602,-0.001953602,-0.007326007,-0.007326007,-0.021978022
2.216799,-0.650988022,0.482375830,0.658999008,-0.031853208,-0.000953689,-0.000572213,1.252258852,-0.001953602,-0.001953602,-0.021978022,0.007326007,-0.007326007
2.221882,-0.650988022,0.482375830,0.658999008,-0.031853208,-0.000953689,-0.000572213,1.252258852,-0.001953602,-0.001953602,-0.021978022,0.007326007,-0.007326007
2.226894,-0.650988022,0.482375830,0.658999008,-0.031853208,-0.000953689,-0.000572213,1.252258852,-0.001953602,-0.001953602,-0.021978022,0.007326007,-0.007326007
2.232768,-0.626573587,0.482375830,0.658999008,-0.031853208,-0.000953689,-0.000572213,1.299145299,-0.001953602,-0.001953602,-0.021978022,-0.007326007,-0.007326007
2.238083,-0.626573587,0.482375830,0.658999008,-0.031853208,-0.000953689,-0.000572213,1.299145299,-0.001953602,-0.001953602,-0.021978022,-0.007326007,-0.007326007
2.244379,-0.603685054,0.482375830,0.658999008,-0.031853208,-0.000953689,-0.000572213,1.338217338,0.001953602,0.001953602,-0.021978022,0.007326007,-0.007326007
2.249494,-0.603685054,0.482375830,0.658999008,-0.031853208,-0.000953689,-0.000572213,1.338217338,0.001953602,0.001953602,-0.021978022,0.007326007,-0.007326007
2.254660,-0.603685054,0.482375830,0.658999008,-0.031853208,-0.000953689,-0.000572213,1.338217338,0.001953602,0.001953602,-0.021978022,0.007326007,-0.007326007
2.260300,-0.577363241,0.482375830,0.658999008,-0.031471733,-0.000953689,-0.000572213,1.361660562,0.001953602,-0.005860806,0.007326007,-0.021978022,-0.007326007
2.265460,-0.577363241,0.482375830,0.658999008,-0.031471733,-0.000953689,-0.000572213,1.361660562,0.001953602,-0.005860806,0.007326007,-0.021978022,-0.007326007
2.270702,-0.577363241,0.482375830,0.658999008,-0.031471733,-0.000953689,-0.000572213,1.361660562,0.001953602,-0.005860806,0.007326007,-0.021978022,-0.007326007
2.276430,-0.551804379,0.482375830,0.658999008,-0.031471733,-0.000953689,-0.000572213,1.392918193,0.001953602,-0.001953602,-0.007326007,-0.036630037,-0.021978022
2.281578,-0.551804379,0.482375830,0.658999008,-0.031471733,-0.000953689,-0.000572213,1.392918193,0.001953602,-0.001953602,-0.007326007,-0.036630037,-0.021978022
2.286749,-0.525482567,0.482375830,0.658999008,-0.031853208,-0.000953689,-0.000572213,1.459340659,-0.001953602,-0.005860806,-0.007326007,-0.007326007,-0.007326007
2.292809,-0.525482567,0.482375830,0.658999008,-0.031853208,-0.000953689,-0.000572213,1.459340659,-0.001953602,-0.005860806,-0.007326007,-0.007326007,-0.007326007
2.298198,-0.525482567,0.482375830,0.658999008,-0.031853208,-0.000953689,-0.000572213,1.459340659,-0.001953602,-0.005860806,-0.007326007,-0.007326007,-0.007326007
2.304172,-0.491912718,0.482375830,0.658999008,-0.031853208,-0.000953689,-0.000572213,1.498412698,-0.001953602,-0.001953602,-0.007326007,0.007326007,0.007326007
2.309400,-0.491912718,0.482375830,0.658999008,-0.031853208,-0.000953689,-0.000572213,1.498412698,-0.001953602,-0.001953602,-0.007326007,0.007326007,0.007326007
2.314597,-0.491912718,0.482375830,0.658999008,-0.031853208,-0.000953689,-0.000572213,1.498412698,-0.001953602,-0.001953602,-0.007326007,0.007326007,0.007326007
2.320354,-0.470168612,0.482375830,0.658999008,-0.031853208,-0.000953689,-0.000572213,1.502319902,-0.001953602,-0.001953602,-0.007326007,-0.007326007,-0.007326007
2.325502,-0.470168612,0.482375830,0.658999008,-0.031853208,-0.000953689,-0.000572213,1.502319902,-0.001953602,-0.001953602,-0.007326007,-0.007326007,-0.007326007
2.330620,-0.470168612,0.482375830,0.658999008,-0.031853208,-0.000953689,-0.000572213,1.502319902,-0.001953602,-0.001953602,-0.007326007,-0.007326007,-0.007326007
2.336646,-0.435072862,0.482375830,0.658999008,-0.031853208,-0.000953689,-0.000572213,1.596092796,-0.001953602,-0.001953602,0.007326007,0.007326007,-0.021978022
2.341831,-0.435072862,0.482375830,0.658999008,-0.031853208,-0.000953689,-0.000572213,1.596092796,-0.001953602,-0.001953602,0.007326007,0.007326007,-0.021978022
2.347013,-0.435072862,0.482375830,0.658999008,-0.031853208,-0.000953689,-0.000572213,1.596092796,-0.001953602,-0.001953602,0.007326007,0.007326007,-0.021978022
2.352829,-0.401121538,0.482375830,0.658999008,-0.031853208,-0.000953689,-0.000572213,1.603907204,-0.001953602,-0.001953602,-0.021978022,-0.007326007,0.021978022
2.358025,-0.401121538,0.482375830,0.658999008,-0.031853208,-0.000953689,-0.000572213,1.603907204,-0.001953602,-0.001953602,-0.021978022,-0.007326007,0.021978022
2.363061,-0.401121538,0.482375830,0.658999008,-0.031853208,-0.000953689,-0.000572213,1.603907204,-0.001953602,-0.001953602,-0.021978022,-0.007326007,0.021978022
2.368910,-0.361829557,0.482375830,0.658999008,-0.031471733,-0.000953689,-0.000572213,1.658608059,-0.001953602,-0.001953602,-0.007326007,-0.021978022,-0.021978022
2.373987,-0.361829557,0.482375830,0.658999008,-0.031471733,-0.000953689,-0.000572213,1.658608059,-0.001953602,-0.001953602,-0.007326007,-0.021978022,-0.021978022
2.379115,-0.361829557,0.482375830,0.658999008,-0.031471733,-0.000953689,-0.000572213,1.658608059,-0.001953602,-0.001953602,-0.007326007,-0.021978022,-0.021978022
2.384742,-0.337033646,0.482375830,0.658999008,-0.031471733,-0.000953689,-0.000572213,1.642979243,-0.001953602,-0.001953602,-0.007326007,-0.007326007,-0.007326007
2.389805,-0.337033646,0.482375830,0.658999008,-0.031471733,-0.000953689,-0.000572213,1.642979243,-0.001953602,-0.001953602,-0.007326007,-0.007326007,-0.007326007
2.394808,-0.337033646,0.482375830,0.658999008,-0.031471733,-0.000953689,-0.000572213,1.642979243,-0.001953602,-0.001953602,-0.007326007,-0.007326007,-0.007326007
2.400457,-0.309185931,0.482375830,0.658999008,-0.031853208,-0.001335164,-0.000572213,1.627350427,-0.001953602,0.001953602,-0.021978022,-0.007326007,-0.007326007
2.405579,-0.309185931,0.482375830,0.658999008,-0.031853208,-0.001335164,-0.000572213,1.627350427,-0.001953602,0.001953602,-0.021978022,-0.007326007,-0.007326007
2.410766,-0.309185931,0.482375830,0.658999008,-0.031853208,-0.001335164,-0.000572213,1.627350427,-0.001953602,0.001953602,-0.021978022,-0.007326007,-0.007326007
2.416514,-0.271801328,0.482375830,0.658999008,-0.031853208,-0.000953689,-0.000572213,1.650793651,-0.001953602,0.001953602,0.007326007,-0.007326007,-0.007326007
2.421702,-0.271801328,0.482375830,0.658999008,-0.031853208,-0.000953689,-0.000572213,1.650793651,-0.001953602,0.001953602,0.007326007,-0.007326007,-0.007326007
2.426765,-0.246623941,0.482375830,0.658999008,-0.031853208,-0.000953689,-0.000572213,1.584371184,-0.001953602,-0.005860806,-0.007326007,-0.021978022,-0.007326007
2.432796,-0.246623941,0.482375830,0.658999008,-0.031853208,-0.000953689,-0.000572213,1.584371184,-0.001953602,-0.005860806,-0.007326007,-0.021978022,-0.007326007
2.438087,-0.246623941,0.482375830,0.658999008,-0.031853208,-0.000953689,-0.000572213,1.584371184,-0.001953602,-0.005860806,-0.007326007,-0.021978022,-0.007326007
2.443683,-0.220302129,0.482375830,0.658999008,-0.031853208,-0.001335164,-0.000572213,1.600000000,-0.001953602,-0.001953602,-0.007326007,-0.021978022,-0.007326007
2.452217,-0.220302129,0.482375830,0.658999008,-0.031853208,-0.001335164,-0.000572213,1.600000000,-0.001953602,-0.001953602,-0.007326007,-0.021978022,-0.007326007
2.457533,-0.186732280,0.482375830,0.658999008,-0.031471733,-0.000953689,-0.000572213,1.545299145,-0.005860806,-0.001953602,0.007326007,-0.021978022,-0.007326007
2.463376,-0.186732280,0.482375830,0.658999008,-0.031471733,-0.000953689,-0.000572213,1.545299145,-0.005860806,-0.001953602,0.007326007,-0.021978022,-0.007326007
2.468785,-0.186732280,0.482375830,0.658999008,-0.031471733,-0.000953689,-0.000572213,1.545299145,-0.005860806,-0.001953602,0.007326007,-0.021978022,-0.007326007
2.474664,-0.158121614,0.482375830,0.658999008,-0.031853208,-0.000953689,-0.000572213,1.510134310,-0.001953602,-0.001953602,-0.007326007,-0.021978022,-0.021978022
2.479857,-0.158121614,0.482375830,0.658999008,-0.031853208,-0.000953689,-0.000572213,1.510134310,-0.001953602,-0.001953602,-0.007326007,-0.021978022,-0.021978022
2.485124,-0.158121614,0.482375830,0.658999008,-0.031853208,-0.000953689,-0.000572213,1.510134310,-0.001953602,-0.001953602,-0.007326007,-0.021978022,-0.021978022
2.490819,-0.131799802,0.482375830,0.658999008,-0.031853208,-0.000953689,-0.000572213,1.486691087,0.001953602,-0.001953602,-0.007326007,-0.007326007,-0.021978022
2.496034,-0.131799802,0.482375830,0.658999008,-0.031853208,-0.000953689,-0.000572213,1.486691087,0.001953602,-0.001953602,-0.007326007,-0.007326007,-0.021978022
2.501247,-0.103189136,0.482375830,0.658999008,-0.031471733,-0.000953689,-0.000572213,1.412454212,-0.001953602,-0.001953602,-0.007326007,-0.021978022,-0.021978022
2.507156,-0.103189136,0.482375830,0.658999008,-0.031471733,-0.000953689,-0.000572213,1.412454212,-0.001953602,-0.001953602,-0.007326007,-0.021978022,-0.021978022
2.512195,-0.103189136,0.482375830,0.658999008,-0.031471733,-0.000953689,-0.000572213,1.412454212,-0.001953602,-0.001953602,-0.007326007,-0.021978022,-0.021978022
2.517591,-0.082207980,0.482375830,0.658999008,-0.031853208,-0.000953689,-0.000572213,1.353846154,-0.001953602,-0.001953602,-0.007326007,0.007326007,-0.007326007
2.522640,-0.082207980,0.482375830,0.658999008,-0.031853208,-0.000953689,-0.000572213,1.353846154,-0.001953602,-0.001953602,-0.007326007,0.007326007,-0.007326007
2.527752,-0.082207980,0.482375830,0.658999008,-0.031853208,-0.000953689,-0.000572213,1.353846154,-0.001953602,-0.001953602,-0.007326007,0.007326007,-0.007326007
2.533262,-0.058937972,0.482375830,0.658999008,-0.031471733,-0.000953689,-0.000572213,1.287423687,-0.001953602,-0.001953602,-0.021978022,-0.007326007,-0.007326007
2.538341,-0.058937972,0.482375830,0.658999008,-0.031471733,-0.000953689,-0.000572213,1.287423687,-0.001953602,-0.001953602,-0.021978022,-0.007326007,-0.007326007
2.543569,-0.058937972,0.482375830,0.658999008,-0.031471733,-0.000953689,-0.000572213,1.287423687,-0.001953602,-0.001953602,-0.021978022,-0.007326007,-0.007326007
2.549732,-0.032997635,0.482375830,0.658999008,-0.031853208,-0.000953689,-0.000572213,1.185836386,-0.001953602,-0.001953602,-0.007326007,0.007326007,-0.007326007
2.554909,-0.032997635,0.482375830,0.658999008,-0.031853208,-0.000953689,-0.000572213,1.185836386,-0.001953602,-0.001953602,-0.007326007,0.007326007,-0.007326007
2.560256,-0.032997635,0.482375830,0.658999008,-0.031853208,-0.000953689,-0.000572213,1.185836386,-0.001953602,-0.001953602,-0.007326007,0.007326007,-0.007326007
2.565844,-0.004768444,0.482375830,0.658999008,-0.031853208,-0.000953689,-0.000572213,1.068620269,-0.001953602,-0.001953602,0.007326007,-0.007326007,0.007326007
2.571001,-0.004768444,0.482375830,0.658999008,-0.031853208,-0.000953689,-0.000572213,1.068620269,-0.001953602,-0.001953602,0.007326007,-0.007326007,0.007326007
2.576317,-0.004768444,0.482375830,0.658999008,-0.031853208,-0.000953689,-0.000572213,1.068620269,-0.001953602,-0.001953602,0.007326007,-0.007326007,0.007326007
2.582086,0.010490578,0.482375830,0.658999008,-0.031853208,-0.000953689,-0.000572213,0.947496947,-0.001953602,0.001953602,-0.007326007,-0.007326007,-0.007326007
2.587376,0.010490578,0.482375830,0.658999008,-0.031853208,-0.000953689,-0.000572213,0.947496947,-0.001953602,0.001953602,-0.007326007,-0.007326007,-0.007326007
2.592697,0.026894026,0.482375830,0.658999008,-0.031853208,-0.000953689,-0.000572213,0.834188034,-0.013675214,-0.001953602,-0.007326007,-0.021978022,0.007326007
2.598729,0.026894026,0.482375830,0.658999008,-0.031853208,-0.000953689,-0.000572213,0.834188034,-0.013675214,-0.001953602,-0.007326007,-0.021978022,0.007326007
2.603900,0.026894026,0.482375830,0.658999008,-0.031853208,-0.000953689,-0.000572213,0.834188034,-0.013675214,-0.001953602,-0.007326007,-0.021978022,0.007326007
2.609595,0.039864195,0.481994354,0.658999008,-0.031853208,-0.000953689,-0.000572213,0.744322344,-0.025396825,-0.005860806,-0.007326007,-0.036630037,0.007326007
2.614689,0.039864195,0.481994354,0.658999008,-0.031853208,-0.000953689,-0.000572213,0.744322344,-0.025396825,-0.005860806,-0.007326007,-0.036630037,0.007326007
2.619808,0.039864195,0.481994354,0.658999008,-0.031853208,-0.000953689,-0.000572213,0.673992674,-0.087912088,-0.001953602,0.007326007,-0.007326007,-0.007326007
2.625897,0.051308461,0.480468452,0.658999008,-0.031853208,-0.000953689,-0.000572213,0.673992674,-0.087912088,-0.001953602,0.007326007,-0.007326007,-0.007326007
2.631107,0.051308461,0.480468452,0.658999008,-0.031853208,-0.000953689,-0.000572213,0.673992674,-0.087912088,-0.001953602,0.007326007,-0.007326007,-0.007326007
2.636926,0.061608301,0.478561074,0.658999008,-0.031853208,-0.000953689,-0.000572213,0.588034188,-0.146520147,-0.001953602,-0.007326007,-0.007326007,0.007326007
2.642164,0.061608301,0.478561074,0.658999008,-0.031853208,-0.000953689,-0.000572213,0.588034188,-0.146520147,-0.001953602,-0.007326007,-0.007326007,0.007326007
2.647270,0.061608301,0.478561074,0.658999008,-0.031853208,-0.000953689,-0.000572213,0.588034188,-0.146520147,-0.001953602,-0.007326007,-0.007326007,0.007326007
2.653052,0.070000763,0.475890745,0.658999008,-0.031853208,-0.000953689,-0.000572213,0.509890110,-0.119169719,-0.005860806,-0.007326007,-0.007326007,-0.021978022
2.658226,0.070000763,0.475890745,0.658999008,-0.031853208,-0.000953689,-0.000572213,0.509890110,-0.119169719,-0.005860806,-0.007326007,-0.007326007,-0.021978022
2.663350,0.070000763,0.475890745,0.658999008,-0.031853208,-0.000953689,-0.000572213,0.396581197,-0.095726496,-0.001953602,0.007326007,-0.021978022,0.007326007
2.669518,0.079156176,0.473983368,0.658999008,-0.031471733,-0.001335164,-0.000572213,0.396581197,-0.095726496,-0.001953602,0.007326007,-0.021978022,0.007326007
2.674673,0.079156176,0.473983368,0.658999008,-0.031471733,-0.001335164,-0.000572213,0.396581197,-0.095726496,-0.001953602,0.007326007,-0.021978022,0.007326007
2.679818,0.084496834,0.472075990,0.658999008,-0.031471733,-0.000953689,-0.000572213,0.255921856,-0.107448107,0.001953602,0.021978022,0.021978022,0.007326007
2.686076,0.084496834,0.472075990,0.658999008,-0.031471733,-0.000953689,-0.000572213,0.255921856,-0.107448107,0.001953602,0.021978022,0.021978022,0.007326007
2.691265,0.084496834,0.472075990,0.658999008,-0.031471733,-0.000953689,-0.000572213,0.255921856,-0.107448107,0.001953602,0.021978022,0.021978022,0.007326007
2.696432,0.084496834,0.472075990,0.658999008,-0.031471733,-0.000953689,-0.000572213,0.087912088,-0.048840049,-0.005860806,-0.021978022,-0.007326007,-0.007326007
2.702400,0.086785687,0.470931563,0.658999008,-0.031471733,-0.000953689,-0.000572213,0.087912088,-0.048840049,-0.005860806,-0.021978022,-0.007326007,-0.007326007
2.707526,0.086785687,0.470931563,0.658999008,-0.031471733,-0.000953689,-0.000572213,0.087912088,-0.048840049,-0.005860806,-0.021978022,-0.007326007,-0.007326007
2.713223,0.087548638,0.470550088,0.658617533,-0.031471733,-0.000953689,-0.000572213,0.025396825,-0.005860806,-0.021489621,0.007326007,-0.021978022,-0.021978022
2.718410,0.087548638,0.470550088,0.658617533,-0.031471733,-0.000953689,-0.000572213,0.025396825,-0.005860806,-0.021489621,0.007326007,-0.021978022,-0.021978022
2.723530,0.087548638,0.470550088,0.658617533,-0.031471733,-0.000953689,-0.000572213,0.025396825,-0.005860806,-0.021489621,0.007326007,-0.021978022,-0.021978022
2.729216,0.087930114,0.470550088,0.657854582,-0.031090257,-0.000953689,-0.000572213,0.021489621,-0.005860806,-0.029304029,0.007326007,-0.021978022,-0.007326007
2.734431,0.087930114,0.470550088,0.657854582,-0.031090257,-0.000953689,-0.000572213,0.021489621,-0.005860806,-0.029304029,0.007326007,-0.021978022,-0.007326007
2.739533,0.087930114,0.470550088,0.657854582,-0.031090257,-0.000953689,-0.000572213,0.021489621,-0.005860806,-0.029304029,0.007326007,-0.021978022,-0.007326007
2.745178,0.087930114,0.470550088,0.657473106,-0.031853208,-0.000953689,-0.000572213,-0.001953602,0.001953602,-0.037118437,-0.021978022,0.007326007,-0.007326007
2.750372,0.087930114,0.470550088,0.657473106,-0.031853208,-0.000953689,-0.000572213,-0.001953602,0.001953602,-0.037118437,-0.021978022,0.007326007,-0.007326007
2.755537,0.087548638,0.470550088,0.656328679,-0.031471733,-0.000953689,-0.000572213,-0.005860806,0.001953602,-0.076190476,0.021978022,-0.007326007,-0.007326007
2.761790,0.087548638,0.470550088,0.656328679,-0.031471733,-0.000953689,-0.000572213,-0.005860806,0.001953602,-0.076190476,0.021978022,-0.007326007,-0.007326007
2.767020,0.087548638,0.470550088,0.656328679,-0.031471733,-0.000953689,-0.000572213,-0.005860806,0.001953602,-0.076190476,0.021978022,-0.007326007,-0.007326007
2.772837,0.087167163,0.470550088,0.654802777,-0.031471733,-0.000953689,-0.000572213,-0.033211233,-0.001953602,-0.087912088,-0.051282051,-0.007326007,-0.036630037
2.778036,0.087167163,0.470550088,0.654802777,-0.031471733,-0.000953689,-0.000572213,-0.033211233,-0.001953602,-0.087912088,-0.051282051,-0.007326007,-0.036630037
2.783257,0.087167163,0.470550088,0.654802777,-0.031471733,-0.000953689,-0.000572213,-0.033211233,-0.001953602,-0.087912088,-0.051282051,-0.007326007,-0.036630037
2.788952,0.085641260,0.470550088,0.652513924,-0.031471733,-0.000953689,-0.000572213,-0.087912088,0.001953602,-0.126984127,-0.007326007,-0.007326007,-0.007326007
2.794046,0.085641260,0.470550088,0.652513924,-0.031471733,-0.000953689,-0.000572213,-0.087912088,0.001953602,-0.126984127,-0.007326007,-0.007326007,-0.007326007
2.799135,0.085641260,0.470550088,0.652513924,-0.031471733,-0.000953689,-0.000572213,-0.087912088,0.001953602,-0.126984127,-0.007326007,-0.007326007,-0.007326007
2.804633,0.084115358,0.470550088,0.649843595,-0.031471733,-0.000953689,-0.000572213,-0.080097680,-0.001953602,-0.126984127,-0.021978022,-0.021978022,-0.021978022
2.809849,0.084115358,0.470550088,0.649843595,-0.031471733,-0.000953689,-0.000572213,-0.080097680,-0.001953602,-0.126984127,-0.021978022,-0.021978022,-0.021978022
2.815089,0.084115358,0.470550088,0.649843595,-0.031471733,-0.000953689,-0.000572213,-0.080097680,-0.001953602,-0.126984127,-0.021978022,-0.021978022,-0.021978022
2.820987,0.082589456,0.470550088,0.647554742,-0.031853208,-0.000953689,-0.000572213,-0.095726496,-0.005860806,-0.146520147,-0.007326007,0.007326007,-0.021978022
2.829454,0.082589456,0.470550088,0.647554742,-0.031853208,-0.000953689,-0.000572213,-0.095726496,-0.005860806,-0.146520147,-0.007326007,0.007326007,-0.021978022
2.835146,0.079919127,0.470550088,0.644502937,-0.031471733,-0.000953689,-0.000572213,-0.154334554,-0.021489621,-0.162148962,-0.007326007,-0.021978022,-0.007326007
2.840395,0.079919127,0.470550088,0.644502937,-0.031471733,-0.000953689,-0.000572213,-0.154334554,-0.021489621,-0.162148962,-0.007326007,-0.021978022,-0.007326007
2.845598,0.077248798,0.469405661,0.641832609,-0.031853208,-0.000953689,-0.000572213,-0.154334554,-0.064468864,-0.150427350,-0.036630037,-0.007326007,0.007326007
2.851745,0.077248798,0.469405661,0.641832609,-0.031853208,-0.000953689,-0.000572213,-0.154334554,-0.064468864,-0.150427350,-0.036630037,-0.007326007,0.007326007
2.856908,0.077248798,0.469405661,0.641832609,-0.031853208,-0.000953689,-0.000572213,-0.154334554,-0.064468864,-0.150427350,-0.036630037,-0.007326007,0.007326007
2.862844,0.074196994,0.468261234,0.638780804,-0.031471733,-0.000953689,-0.000572213,-0.169963370,-0.060561661,-0.193406593,0.021978022,-0.007326007,-0.007326007
2.868039,0.074196994,0.468261234,0.638780804,-0.031471733,-0.000953689,-0.000572213,-0.169963370,-0.060561661,-0.193406593,0.021978022,-0.007326007,-0.007326007
2.873193,0.074196994,0.468261234,0.638780804,-0.031471733,-0.000953689,-0.000572213,-0.181684982,-0.080097680,-0.150427350,-0.036630037,0.007326007,-0.007326007
2.878903,0.071145190,0.466735332,0.635729000,-0.031853208,-0.000953689,-0.000572213,-0.181684982,-0.080097680,-0.150427350,-0.036630037,0.007326007,-0.007326007
2.884182,0.071145190,0.466735332,0.635729000,-0.031853208,-0.000953689,-0.000572213,-0.181684982,-0.080097680,-0.150427350,-0.036630037,0.007326007,-0.007326007
2.890578,0.067711910,0.465590906,0.632677195,-0.031471733,-0.000953689,-0.000572213,-0.212942613,-0.060561661,-0.181684982,0.036630037,-0.007326007,-0.007326007
2.895789,0.067711910,0.465590906,0.632677195,-0.031471733,-0.000953689,-0.000572213,-0.212942613,-0.060561661,-0.181684982,0.036630037,-0.007326007,-0.007326007
2.900922,0.067711910,0.465590906,0.632677195,-0.031471733,-0.000953689,-0.000572213,-0.197313797,-0.029304029,-0.154334554,-0.021978022,-0.007326007,-0.007326007
2.906759,0.064278630,0.464827955,0.630006867,-0.031853208,-0.000953689,-0.000572213,-0.197313797,-0.029304029,-0.154334554,-0.021978022,-0.007326007,-0.007326007
2.911943,0.064278630,0.464827955,0.630006867,-0.031853208,-0.000953689,-0.000572213,-0.197313797,-0.029304029,-0.154334554,-0.021978022,-0.007326007,-0.007326007
2.917099,0.064278630,0.464827955,0.630006867,-0.031853208,-0.000953689,-0.000572213,-0.197313797,-0.029304029,-0.154334554,-0.021978022,-0.007326007,-0.007326007
2.922750,0.059319448,0.464827955,0.626192111,-0.031471733,-0.000953689,-0.000572213,-0.232478632,-0.009768010,-0.181684982,0.036630037,-0.021978022,-0.007326007
2.927858,0.059319448,0.464827955,0.626192111,-0.031471733,-0.000953689,-0.000572213,-0.232478632,-0.009768010,-0.181684982,0.036630037,-0.021978022,-0.007326007
2.934216,0.055123217,0.464827955,0.623903258,-0.032616159,-0.000953689,-0.000572213,-0.252014652,-0.013675214,-0.138705739,-0.095238095,-0.021978022,-0.007326007
2.939382,0.055123217,0.464827955,0.623903258,-0.032616159,-0.000953689,-0.000572213,-0.252014652,-0.013675214,-0.138705739,-0.095238095,-0.021978022,-0.007326007
2.944494,0.055123217,0.464827955,0.623903258,-0.032616159,-0.000953689,-0.000572213,-0.252014652,-0.013675214,-0.138705739,-0.095238095,-0.021978022,-0.007326007
2.950087,0.049401083,0.464827955,0.621232929,-0.031853208,-0.000953689,-0.000572213,-0.279365079,-0.001953602,-0.134798535,0.036630037,-0.007326007,0.007326007
2.955261,0.049401083,0.464827955,0.621232929,-0.031853208,-0.000953689,-0.000572213,-0.279365079,-0.001953602,-0.134798535,0.036630037,-0.007326007,0.007326007
2.960463,0.049401083,0.464827955,0.621232929,-0.031853208,-0.000953689,-0.000572213,-0.240293040,-0.001953602,-0.091819292,-0.021978022,-0.021978022,-0.007326007
2.966156,0.045967803,0.464827955,0.619325551,-0.032234684,-0.000953689,-0.000572213,-0.240293040,-0.001953602,-0.091819292,-0.021978022,-0.021978022,-0.007326007
2.971277,0.045967803,0.464827955,0.619325551,-0.032234684,-0.000953689,-0.000572213,-0.240293040,-0.001953602,-0.091819292,-0.021978022,-0.021978022,-0.007326007
2.977120,0.041390097,0.464827955,0.618181125,-0.032234684,-0.000953689,-0.000572213,-0.252014652,0.001953602,-0.084004884,-0.007326007,-0.007326007,-0.007326007
2.982324,0.041390097,0.464827955,0.618181125,-0.032234684,-0.000953689,-0.000572213,-0.252014652,0.001953602,-0.084004884,-0.007326007,-0.007326007,-0.007326007
2.987524,0.041390097,0.464827955,0.618181125,-0.032234684,-0.000953689,-0.000572213,-0.252014652,0.001953602,-0.084004884,-0.007326007,-0.007326007,-0.007326007
2.993137,0.036812390,0.465209430,0.617418173,-0.032234684,-0.000953689,-0.000572213,-0.267643468,0.033211233,-0.044932845,-0.007326007,-0.007326007,-0.007326007
2.998277,0.036812390,0.465209430,0.617418173,-0.032234684,-0.000953689,-0.000572213,-0.267643468,0.033211233,-0.044932845,-0.007326007,-0.007326007,-0.007326007
3.003289,0.036812390,0.465209430,0.617418173,-0.032234684,-0.000953689,-0.000572213,-0.267643468,0.033211233,-0.044932845,-0.007326007,-0.007326007,-0.007326007
3.008433,0.030708782,0.467116808,0.616655222,-0.032234684,-0.000953689,-0.000572213,-0.240293040,0.099633700,-0.013675214,-0.007326007,-0.007326007,0.007326007
3.014264,0.030708782,0.467116808,0.616655222,-0.032234684,-0.000953689,-0.000572213,-0.240293040,0.099633700,-0.013675214,-0.007326007,-0.007326007,0.007326007
3.019433,0.030708782,0.467116808,0.616655222,-0.032234684,-0.000953689,-0.000572213,-0.240293040,0.099633700,-0.013675214,-0.007326007,-0.007326007,0.007326007
3.024568,0.030708782,0.467116808,0.616655222,-0.032234684,-0.000953689,-0.000572213,-0.197313797,0.193406593,-0.005860806,-0.007326007,0.007326007,-0.007326007
3.030666,0.026131075,0.470931563,0.616655222,-0.031853208,-0.000953689,-0.000572213,-0.197313797,0.193406593,-0.005860806,-0.007326007,0.007326007,-0.007326007
3.035744,0.026131075,0.470931563,0.616655222,-0.031853208,-0.000953689,-0.000572213,-0.197313797,0.193406593,-0.005860806,-0.007326007,0.007326007,-0.007326007
3.040800,0.023460746,0.474746319,0.616655222,-0.031471733,-0.000953689,-0.000572213,-0.166056166,0.252014652,-0.001953602,0.021978022,-0.007326007,0.007326007
3.048856,0.023460746,0.474746319,0.616655222,-0.031471733,-0.000953689,-0.000572213,-0.166056166,0.252014652,-0.001953602,0.021978022,-0.007326007,0.007326007
3.057075,0.021553368,0.480086976,0.616655222,-0.030708782,-0.000953689,-0.000572213,-0.126984127,0.326251526,0.001953602,0.036630037,-0.007326007,-0.007326007
3.065297,0.020408942,0.486190585,0.616655222,-0.030708782,-0.000953689,-0.000572213,-0.056654457,0.392673993,-0.001953602,-0.021978022,-0.021978022,-0.021978022
3.070659,0.020408942,0.486190585,0.616655222,-0.030708782,-0.000953689,-0.000572213,-0.056654457,0.392673993,-0.001953602,-0.021978022,-0.021978022,-0.021978022
3.079248,0.020408942,0.486190585,0.616655222,-0.030708782,-0.000953689,-0.000572213,-0.001953602,0.482539683,0.001953602,-0.021978022,-0.021978022,-0.007326007
3.084435,0.020027466,0.494964523,0.616655222,-0.031090257,-0.000953689,-0.000572213,-0.001953602,0.482539683,0.001953602,-0.021978022,-0.021978022,-0.007326007
3.093079,0.020027466,0.494964523,0.616655222,-0.031090257,-0.000953689,-0.000572213,-0.001953602,0.482539683,0.001953602,-0.021978022,-0.021978022,-0.007326007
3.101313,0.020027466,0.504882887,0.616655222,-0.031090257,-0.000953689,-0.000572213,-0.001953602,0.588034188,-0.001953602,-0.007326007,-0.007326007,-0.007326007
3.110291,0.020027466,0.516708629,0.616655222,-0.031090257,-0.000953689,-0.000572213,-0.001953602,0.654456654,-0.001953602,-0.007326007,-0.007326007,-0.007326007
3.118649,0.020027466,0.516708629,0.616655222,-0.031090257,-0.000953689,-0.000572213,-0.001953602,0.654456654,-0.001953602,-0.007326007,-0.007326007,-0.007326007
3.127207,0.020027466,0.530441749,0.616655222,-0.031090257,-0.000953689,-0.000572213,-0.001953602,0.697435897,0.001953602,-0.021978022,-0.021978022,-0.021978022
3.135532,0.020027466,0.530441749,0.616655222,-0.031090257,-0.000953689,-0.000572213,-0.001953602,0.697435897,0.001953602,-0.021978022,-0.021978022,-0.021978022
3.144119,0.020027466,0.543030442,0.616655222,-0.031090257,-0.000953689,-0.000572213,0.001953602,0.716971917,-0.001953602,-0.007326007,-0.007326007,-0.007326007
3.149464,0.020027466,0.543030442,0.616655222,-0.031090257,-0.000953689,-0.000572213,0.001953602,0.716971917,-0.001953602,-0.007326007,-0.007326007,-0.007326007
3.155209,0.020027466,0.555619135,0.616655222,-0.031090257,-0.000953689,-0.000572213,-0.001953602,0.787301587,-0.001953602,-0.007326007,-0.021978022,0.007326007
3.160396,0.020027466,0.555619135,0.616655222,-0.031090257,-0.000953689,-0.000572213,-0.001953602,0.787301587,-0.001953602,-0.007326007,-0.021978022,0.007326007
3.165488,0.020027466,0.555619135,0.616655222,-0.031090257,-0.000953689,-0.000572213,-0.005860806,0.826373626,-0.001953602,-0.007326007,-0.007326007,-0.007326007
3.171943,0.020027466,0.571641108,0.616655222,-0.031090257,-0.000953689,-0.000572213,-0.005860806,0.826373626,-0.001953602,-0.007326007,-0.007326007,-0.007326007
3.177300,0.020027466,0.571641108,0.616655222,-0.031090257,-0.000953689,-0.000572213,-0.005860806,0.826373626,-0.001953602,-0.007326007,-0.007326007,-0.007326007
3.183509,0.020027466,0.586518654,0.616655222,-0.031090257,-0.000953689,-0.000572213,-0.005860806,0.838095238,-0.001953602,-0.007326007,-0.007326007,-0.007326007
3.188658,0.020027466,0.586518654,0.616655222,-0.031090257,-0.000953689,-0.000572213,-0.005860806,0.838095238,-0.001953602,-0.007326007,-0.007326007,-0.007326007
3.193816,0.020027466,0.586518654,0.616655222,-0.031090257,-0.000953689,-0.000572213,-0.005860806,0.838095238,-0.001953602,-0.007326007,-0.007326007,-0.007326007
3.198983,0.020027466,0.604829480,0.616655222,-0.031471733,-0.000953689,-0.000572213,-0.017582418,0.857631258,-0.005860806,-0.021978022,-0.007326007,-0.007326007
3.205277,0.020027466,0.604829480,0.616655222,-0.031471733,-0.000953689,-0.000572213,-0.017582418,0.857631258,-0.005860806,-0.021978022,-0.007326007,-0.007326007
3.210476,0.020027466,0.604829480,0.616655222,-0.031471733,-0.000953689,-0.000572213,-0.017582418,0.857631258,-0.005860806,-0.021978022,-0.007326007,-0.007326007
3.216572,0.018501564,0.624666209,0.616655222,-0.031471733,-0.000953689,-0.000572213,-0.107448107,0.916239316,-0.001953602,-0.007326007,0.021978022,-0.007326007
3.221689,0.018501564,0.624666209,0.616655222,-0.031471733,-0.000953689,-0.000572213,-0.107448107,0.916239316,-0.001953602,-0.007326007,0.021978022,-0.007326007
3.226868,0.018501564,0.624666209,0.616655222,-0.031471733,-0.000953689,-0.000572213,-0.107448107,0.916239316,-0.001953602,-0.007326007,0.021978022,-0.007326007
3.232536,0.016594186,0.641451133,0.616655222,-0.031471733,-0.000953689,-0.000572213,-0.091819292,0.959218559,-0.001953602,-0.007326007,-0.021978022,0.007326007
3.237656,0.016594186,0.641451133,0.616655222,-0.031471733,-0.000953689,-0.000572213,-0.091819292,0.959218559,-0.001953602,-0.007326007,-0.021978022,0.007326007
3.242759,0.016594186,0.641451133,0.616655222,-0.031471733,-0.000953689,-0.000572213,-0.091819292,0.959218559,-0.001953602,-0.007326007,-0.021978022,0.007326007
3.248998,0.015449760,0.661287861,0.616655222,-0.031090257,-0.000953689,-0.000572213,-0.029304029,0.998290598,0.001953602,0.007326007,0.007326007,-0.007326007
3.254200,0.015449760,0.661287861,0.616655222,-0.031090257,-0.000953689,-0.000572213,-0.029304029,0.998290598,0.001953602,0.007326007,0.007326007,-0.007326007
3.259443,0.015449760,0.661287861,0.616655222,-0.031090257,-0.000953689,-0.000572213,-0.029304029,0.998290598,0.001953602,0.007326007,0.007326007,-0.007326007
3.265253,0.014686809,0.683794919,0.616655222,-0.031471733,-0.000953689,-0.000572213,-0.041025641,1.006105006,-0.001953602,-0.021978022,-0.007326007,-0.007326007
3.270401,0.014686809,0.683794919,0.616655222,-0.031471733,-0.000953689,-0.000572213,-0.041025641,1.006105006,-0.001953602,-0.021978022,-0.007326007,-0.007326007
3.275536,0.014686809,0.683794919,0.616655222,-0.031471733,-0.000953689,-0.000572213,-0.041025641,1.006105006,-0.001953602,-0.021978022,-0.007326007,-0.007326007
3.281311,0.013923857,0.700961318,0.616655222,-0.031471733,-0.000953689,-0.000572213,-0.056654457,1.033455433,-0.001953602,-0.021978022,-0.007326007,-0.007326007
3.286584,0.013923857,0.700961318,0.616655222,-0.031471733,-0.000953689,-0.000572213,-0.056654457,1.033455433,-0.001953602,-0.021978022,-0.007326007,-0.007326007
3.291798,0.013923857,0.700961318,0.616655222,-0.031471733,-0.000953689,-0.000572213,-0.029304029,1.115506716,-0.005860806,0.007326007,-0.007326007,-0.007326007
3.298199,0.013160906,0.721560998,0.616655222,-0.031471733,-0.000953689,-0.000572213,-0.029304029,1.115506716,-0.005860806,0.007326007,-0.007326007,-0.007326007
3.303493,0.013160906,0.721560998,0.616655222,-0.031471733,-0.000953689,-0.000572213,-0.029304029,1.115506716,-0.005860806,0.007326007,-0.007326007,-0.007326007
3.309157,0.012397955,0.741779202,0.616655222,-0.031471733,-0.000953689,-0.000572213,-0.048840049,1.119413919,-0.001953602,-0.021978022,-0.007326007,-0.007326007
3.314304,0.012397955,0.741779202,0.616655222,-0.031471733,-0.000953689,-0.000572213,-0.048840049,1.119413919,-0.001953602,-0.021978022,-0.007326007,-0.007326007
3.320178,0.011635004,0.759708553,0.616655222,-0.031471733,-0.000953689,-0.000572213,-0.056654457,1.084249084,0.001953602,-0.007326007,-0.021978022,-0.007326007
3.328818,0.011635004,0.759708553,0.616655222,-0.031471733,-0.000953689,-0.000572213,-0.056654457,1.084249084,0.001953602,-0.007326007,-0.021978022,-0.007326007
3.334735,0.011253529,0.778019379,0.616655222,-0.031471733,-0.000953689,-0.000572213,-0.021489621,1.072527473,-0.005860806,0.007326007,-0.021978022,-0.007326007
3.339838,0.011253529,0.778019379,0.616655222,-0.031471733,-0.000953689,-0.000572213,-0.021489621,1.072527473,-0.005860806,0.007326007,-0.021978022,-0.007326007
3.344878,0.011253529,0.778019379,0.616655222,-0.031471733,-0.000953689,-0.000572213,-0.021489621,1.072527473,-0.005860806,0.007326007,-0.021978022,-0.007326007
3.350494,0.011253529,0.797856107,0.616655222,-0.031853208,-0.000953689,-0.000572213,-0.005860806,1.084249084,-0.005860806,-0.036630037,0.007326007,-0.007326007
3.355698,0.011253529,0.797856107,0.616655222,-0.031853208,-0.000953689,-0.000572213,-0.005860806,1.084249084,-0.005860806,-0.036630037,0.007326007,-0.007326007
3.360801,0.011253529,0.797856107,0.616655222,-0.031853208,-0.000953689,-0.000572213,-0.005860806,1.084249084,-0.005860806,-0.036630037,0.007326007,-0.007326007
3.366500,0.011253529,0.815785458,0.616655222,-0.031853208,-0.000953689,-0.000572213,0.001953602,1.052991453,-0.001953602,-0.007326007,-0.007326007,-0.007326007
3.371699,0.011253529,0.815785458,0.616655222,-0.031853208,-0.000953689,-0.000572213,0.001953602,1.052991453,-0.001953602,-0.007326007,-0.007326007,-0.007326007
3.376796,0.011253529,0.815785458,0.616655222,-0.031853208,-0.000953689,-0.000572213,0.001953602,1.052991453,-0.001953602,-0.007326007,-0.007326007,-0.007326007
3.382447,0.011253529,0.840199893,0.616655222,-0.031853208,-0.000953689,-0.000572213,0.001953602,0.931868132,-0.001953602,-0.007326007,-0.021978022,0.007326007
3.387647,0.011253529,0.840199893,0.616655222,-0.031853208,-0.000953689,-0.000572213,0.001953602,0.931868132,-0.001953602,-0.007326007,-0.021978022,0.007326007
3.392787,0.011253529,0.855458915,0.616655222,-0.031853208,-0.000953689,-0.000572213,0.001953602,0.908424908,0.001953602,-0.007326007,-0.007326007,-0.007326007
3.398747,0.011253529,0.855458915,0.616655222,-0.031853208,-0.000953689,-0.000572213,0.001953602,0.908424908,0.001953602,-0.007326007,-0.007326007,-0.007326007
3.403978,0.011253529,0.855458915,0.616655222,-0.031853208,-0.000953689,-0.000572213,0.001953602,0.908424908,0.001953602,-0.007326007,-0.007326007,-0.007326007
3.410037,0.011253529,0.870336461,0.616655222,-0.032234684,-0.001335164,-0.000572213,-0.001953602,0.877167277,-0.001953602,-0.036630037,-0.036630037,0.007326007
3.415264,0.011253529,0.870336461,0.616655222,-0.032234684,-0.001335164,-0.000572213,-0.001953602,0.877167277,-0.001953602,-0.036630037,-0.036630037,0.007326007
3.420537,0.011253529,0.870336461,0.616655222,-0.032234684,-0.001335164,-0.000572213,-0.001953602,0.877167277,-0.001953602,-0.036630037,-0.036630037,0.007326007
3.425682,0.011253529,0.887884337,0.616655222,-0.032616159,-0.000953689,-0.000572213,-0.001953602,0.779487179,-0.001953602,-0.007326007,-0.021978022,0.007326007
3.431468,0.011253529,0.887884337,0.616655222,-0.032616159,-0.000953689,-0.000572213,-0.001953602,0.779487179,-0.001953602,-0.007326007,-0.021978022,0.007326007
3.436664,0.011253529,0.887884337,0.616655222,-0.032616159,-0.000953689,-0.000572213,-0.001953602,0.779487179,-0.001953602,-0.007326007,-0.021978022,0.007326007
3.442967,0.011253529,0.902761883,0.616655222,-0.032616159,-0.000953689,-0.000572213,-0.001953602,0.631013431,-0.005860806,-0.007326007,-0.021978022,0.007326007
